;FLAVOR:Marlin
;TIME:5639
;Filament used: 56.487m
;Layer height: 3
;MINX:89.629
;MINY:11.745
;MINZ:0.28
;MAXX:145.745
;MAXY:223.876
;MAXZ:243.28
;Generated with Cura_SteamEngine master
M140 S50
M105
M190 S50
M104 S200
M105
M109 S200
M82 ;absolute extrusion mode
; Ender 3 Custom Start G-code
G92 E0 ; Reset Extruder
G28 ; Home all axes
G1 Z2.0 F3000 ; Move Z Axis up little to prevent scratching of Heat Bed
G1 X0.1 Y20 Z0.3 F5000.0 ; Move to start position
G1 X0.1 Y200.0 Z0.3 F1500.0 E15 ; Draw the first line
G1 X0.4 Y200.0 Z0.3 F5000.0 ; Move to side a little
G1 X0.4 Y20 Z0.3 F1500.0 E30 ; Draw the second line
G92 E0 ; Reset Extruder
G1 Z2.0 F3000 ; Move Z Axis up little to prevent scratching of Heat Bed
G1 X5 Y20 Z0.3 F5000.0 ; Move over to prevent blob squish
G92 E0
G92 E0
G1 F2700 E-5
;LAYER_COUNT:82
;LAYER:0
M107
;MESH:Boat.stl
G0 F6000 X117.252 Y120.899 Z0.28
;TYPE:WALL-OUTER
G1 F2700 E0
G1 F600 X117.235 Y118.387 E0.11697
G1 X117.205 Y116.948 E0.18399
G1 X117.207 Y115.722 E0.24108
G1 X117.722 Y118.345 E0.36555
G1 X117.252 Y120.899 E0.48647
G0 F6000 X117.353 Y119.745
G0 X117.531 Y118.575
G0 X117.451 Y118.583
;TYPE:SKIN
G1 F600 X117.472 Y118.32 E0.49346
G0 F6000 X117.486 Y118.052
G1 F600 X117.434 Y117.999 E0.49518
G1 F2700 E-4.50482
;MESH:NONMESH
G0 F300 X117.434 Y117.999 Z3.28
G0 F6000 X117.427 Y117.999
G0 X117.346 Y119.825
G0 X118.298 Y119.999
G0 X117.797 Y159.733
;TIME_ELAPSED:7.237187
;LAYER:1
M106 S85
;TYPE:WALL-INNER
;MESH:Boat.stl
G1 F2700 E0.49518
G1 F1650 X117.673 Y152.82 E3.94465
G1 X117.59 Y150.777 E4.96475
G1 X117.561 Y150.071 E5.31727
G1 X117.212 Y136.515 E12.08262
G1 X117.187 Y135.004 E12.83657
G1 X117.289 Y120.6 E20.02293
G1 X117.302 Y118.353 E21.14399
G1 X117.001 Y108.4 E26.11183
G1 X116.972 Y107.335 E26.64336
G1 X117.14 Y103.438 E28.58938
G1 X117.214 Y102.918 E28.85142
G1 X117.413 Y101.532 E29.54999
G1 X117.516 Y102.961 E29.83059
G1 X117.55 Y103.376 E30.01083
G1 X117.612 Y104.116 E30.38131
G1 X117.578 Y107.246 E31.94296
G1 X117.803 Y116.686 E36.65394
G1 X117.856 Y118.437 E37.52791
G1 X117.758 Y133.356 E44.97119
G1 X117.743 Y135.008 E45.79541
G1 X118.043 Y143.42 E49.99485
G1 X118.021 Y146.126 E51.34492
G1 X117.989 Y150.815 E53.68433
G1 X117.976 Y152.86 E54.58337
G1 X117.797 Y159.733 E55.8759
G1 F2700 E50.8759
G0 F8250 X117.627 Y160.63
G0 X117.459 Y163.221
;TYPE:WALL-OUTER
G1 F2700 E55.8759
G1 F1650 X117.273 Y152.832 E61.05983
G1 X117.161 Y150.087 E62.43045
G1 X116.812 Y136.525 E69.1988
G1 X116.787 Y135.001 E69.95923
G1 X116.889 Y120.597 E77.1456
G1 X116.902 Y118.358 E78.26266
G1 X116.601 Y108.412 E83.22701
G1 X116.572 Y107.329 E83.76751
G1 X116.741 Y103.404 E85.72752
G1 X117.168 Y100.416 E87.23338
G1 X117.536 Y100.416 E87.41698
G1 X117.73 Y100.375 E87.5159
G1 X117.915 Y102.93 E88.79393
G1 X118.012 Y104.098 E89.37866
G1 X117.978 Y107.243 E90.9478
G1 X118.203 Y116.675 E95.65478
G1 X118.256 Y118.44 E96.53574
G1 X118.158 Y133.36 E103.97952
G1 X118.143 Y135.003 E104.79925
G1 X118.443 Y143.406 E108.99419
G1 X118.421 Y146.129 E110.35275
G1 X118.376 Y152.87 E113.71592
G1 X118.168 Y160.844 E117.69552
G1 X117.743 Y160.844 E117.90755
G1 X117.459 Y163.221 E119.10188
G1 F2700 E114.10188
G0 F8250 X117.627 Y160.63
G0 X117.783 Y150.451
G1 F2700 E119.10188
G0 F8250 X117.735 Y150.399
;TYPE:SKIN
G1 F1650 X117.832 Y150.301 E119.17067
G0 F8250 X117.716 Y149.852
G1 F1650 X117.837 Y149.731 E119.25604
G0 F8250 X117.702 Y149.301
G1 F1650 X117.84 Y149.162 E119.35376
G0 F8250 X117.688 Y148.749
G1 F1650 X117.844 Y148.593 E119.46383
G0 F8250 X117.673 Y148.198
G1 F1650 X117.848 Y148.023 E119.5873
G0 F8250 X117.659 Y147.647
G1 F1650 X117.852 Y147.454 E119.72347
G0 F8250 X117.644 Y147.095
G1 F1650 X117.855 Y146.885 E119.87199
G0 F8250 X117.63 Y146.544
G1 F1650 X117.859 Y146.315 E120.03356
G0 F8250 X117.616 Y145.992
G1 F1650 X117.864 Y145.745 E120.20819
G0 F8250 X117.602 Y145.441
G1 F1650 X117.868 Y145.175 E120.39586
G0 F8250 X117.588 Y144.889
G1 F1650 X117.873 Y144.604 E120.59695
G0 F8250 X117.574 Y144.338
G1 F1650 X117.877 Y144.034 E120.81108
G0 F8250 X117.56 Y143.786
G1 F1650 X117.882 Y143.464 E121.03827
G0 F8250 X117.545 Y143.235
G1 F1650 X117.864 Y142.916 E121.26334
G0 F8250 X117.531 Y142.684
G1 F1650 X117.845 Y142.369 E121.48524
G0 F8250 X117.516 Y142.132
G1 F1650 X117.825 Y141.823 E121.70326
G0 F8250 X117.502 Y141.581
G1 F1650 X117.806 Y141.277 E121.91774
G0 F8250 X117.488 Y141.029
G1 F1650 X117.787 Y140.731 E122.12835
G0 F8250 X117.474 Y140.478
G1 F1650 X117.767 Y140.185 E122.33508
G0 F8250 X117.46 Y139.926
G1 F1650 X117.748 Y139.638 E122.53828
G0 F8250 X117.446 Y139.374
G1 F1650 X117.728 Y139.092 E122.73725
G0 F8250 X117.432 Y138.823
G1 F1650 X117.708 Y138.546 E122.93233
G0 F8250 X117.417 Y138.271
G1 F1650 X117.689 Y138 E123.12389
G0 F8250 X117.403 Y137.72
G1 F1650 X117.669 Y137.454 E123.31157
G0 F8250 X117.388 Y137.169
G1 F1650 X117.649 Y136.908 E123.49572
G0 F8250 X117.374 Y136.617
G1 F1650 X117.63 Y136.362 E123.67599
G0 F8250 X117.364 Y136.062
G1 F1650 X117.61 Y135.816 E123.84955
G0 F8250 X117.355 Y135.505
G1 F1650 X117.591 Y135.269 E124.01606
G0 F8250 X117.347 Y134.947
G1 F1650 X117.584 Y134.71 E124.18328
G0 F8250 X117.352 Y134.377
G1 F1650 X117.59 Y134.139 E124.3512
G0 F8250 X117.355 Y133.808
G1 F1650 X117.596 Y133.568 E124.52089
G0 F8250 X117.359 Y133.238
G1 F1650 X117.6 Y132.998 E124.69057
G0 F8250 X117.364 Y132.668
G1 F1650 X117.603 Y132.429 E124.8592
G0 F8250 X117.368 Y132.098
G1 F1650 X117.607 Y131.859 E125.02783
G0 F8250 X117.371 Y131.529
G1 F1650 X117.611 Y131.289 E125.19716
G0 F8250 X117.376 Y130.959
G1 F1650 X117.615 Y130.72 E125.36579
G0 F8250 X117.38 Y130.389
G1 F1650 X117.618 Y130.151 E125.53371
G0 F8250 X117.383 Y129.82
G1 F1650 X117.622 Y129.582 E125.70199
G0 F8250 X117.388 Y129.25
G1 F1650 X117.626 Y129.012 E125.86991
G0 F8250 X117.392 Y128.68
G1 F1650 X117.63 Y128.443 E126.03748
G0 F8250 X117.395 Y128.111
G1 F1650 X117.633 Y127.873 E126.2054
G0 F8250 X117.4 Y127.541
G1 F1650 X117.637 Y127.304 E126.37262
G0 F8250 X117.404 Y126.971
G1 F1650 X117.641 Y126.734 E126.53983
G0 F8250 X117.408 Y126.402
G1 F1650 X117.644 Y126.165 E126.7067
G0 F8250 X117.412 Y125.832
G1 F1650 X117.648 Y125.596 E126.87321
G0 F8250 X117.416 Y125.262
G1 F1650 X117.652 Y125.026 E127.03972
G0 F8250 X117.42 Y124.692
G1 F1650 X117.656 Y124.457 E127.20588
G0 F8250 X117.424 Y124.123
G1 F1650 X117.659 Y123.887 E127.37203
G0 F8250 X117.428 Y123.553
G1 F1650 X117.663 Y123.318 E127.53784
G0 F8250 X117.432 Y122.983
G1 F1650 X117.667 Y122.748 E127.70364
G0 F8250 X117.436 Y122.414
G1 F1650 X117.671 Y122.179 E127.86945
G0 F8250 X117.44 Y121.844
G1 F1650 X117.674 Y121.61 E128.03455
G0 F8250 X117.444 Y121.274
G1 F1650 X117.678 Y121.041 E128.1993
G0 F8250 X117.448 Y120.705
G1 F1650 X117.682 Y120.471 E128.3644
G0 F8250 X117.451 Y120.136
G1 F1650 X117.685 Y119.901 E128.52985
G0 F8250 X117.455 Y119.566
G1 F1650 X117.689 Y119.332 E128.69495
G0 F8250 X117.458 Y118.998
G1 F1650 X117.692 Y118.763 E128.8604
G0 F8250 X117.461 Y118.429
G1 F1650 X117.688 Y118.202 E129.02056
G0 F8250 X117.447 Y117.877
G1 F1650 X117.671 Y117.654 E129.17825
G0 F8250 X117.431 Y117.328
G1 F1650 X117.654 Y117.104 E129.33595
G0 F8250 X117.414 Y116.779
G1 F1650 X117.638 Y116.555 E129.49399
G0 F8250 X117.398 Y116.229
G1 F1650 X117.625 Y116.002 E129.65415
G0 F8250 X117.381 Y115.681
G1 F1650 X117.612 Y115.45 E129.81713
G0 F8250 X117.364 Y115.131
G1 F1650 X117.598 Y114.897 E129.98223
G0 F8250 X117.347 Y114.583
G1 F1650 X117.586 Y114.344 E130.15086
G0 F8250 X117.331 Y114.033
G1 F1650 X117.572 Y113.792 E130.3209
G0 F8250 X117.314 Y113.484
G1 F1650 X117.559 Y113.24 E130.49341
G0 F8250 X117.298 Y112.935
G1 F1650 X117.546 Y112.687 E130.66838
G0 F8250 X117.281 Y112.386
G1 F1650 X117.533 Y112.135 E130.84583
G0 F8250 X117.265 Y111.837
G1 F1650 X117.519 Y111.582 E131.0254
G0 F8250 X117.248 Y111.288
G1 F1650 X117.507 Y111.029 E131.20813
G0 F8250 X117.231 Y110.739
G1 F1650 X117.493 Y110.477 E131.39299
G0 F8250 X117.214 Y110.19
G1 F1650 X117.48 Y109.924 E131.58067
G0 F8250 X117.198 Y109.641
G1 F1650 X117.467 Y109.372 E131.77046
G0 F8250 X117.181 Y109.092
G1 F1650 X117.453 Y108.82 E131.96237
G0 F8250 X117.165 Y108.543
G1 F1650 X117.441 Y108.267 E132.1571
G0 F8250 X117.149 Y107.992
G1 F1650 X117.427 Y107.714 E132.35325
G0 F8250 X117.134 Y107.442
G1 F1650 X117.417 Y107.159 E132.55292
G0 F8250 X117.152 Y106.858
G1 F1650 X117.424 Y106.587 E132.74448
G0 F8250 X117.178 Y106.267
G1 F1650 X117.429 Y106.015 E132.92193
G0 F8250 X117.203 Y105.676
G1 F1650 X117.436 Y105.443 E133.08632
G0 F8250 X117.229 Y105.085
G1 F1650 X117.442 Y104.871 E133.23696
G0 F8250 X117.254 Y104.494
G1 F1650 X117.449 Y104.299 E133.37454
G0 F8250 X117.28 Y103.902
G1 F1650 X117.421 Y103.761 E133.47402
G0 F8250 X117.472 Y103.758
G0 X117.502 Y101.377
G0 X117.582 Y101.337
;TYPE:SKIN
G1 F1650 X117.435 Y101.201 E133.56558
G1 X117.386 Y100.684 E133.80302
G1 F2700 E128.80302
G0 F8250 X117.416 Y100.796
G0 X117.685 Y118.436
G0 X117.834 Y143.355
G0 X117.859 Y159.892
G0 X117.719 Y160.031
G1 F2700 E133.80302
G1 F1650 X117.799 Y160.234 E133.99203
G1 X117.826 Y160.489 E134.21416
G0 F8250 X117.931 Y160.668
G1 F1650 X117.998 Y160.601 E134.2378
G1 F2700 E129.2378
;MESH:NONMESH
G0 F300 X117.998 Y160.601 Z6.28
G0 F8250 X117.876 Y160.544
G0 X117.627 Y160.63
G0 X116.55 Y160.649
G0 X117.382 Y203.039
;TIME_ELAPSED:26.755407
;LAYER:2
M106 S170
;TYPE:WALL-OUTER
;MESH:Boat.stl
G1 F2700 E134.2378
G1 F2100 X117.227 Y202.653 E134.44532
G1 X117.261 Y201.61 E134.96595
G1 X117.417 Y200.628 E135.46202
G1 X117.791 Y200.627 E135.64861
G1 X117.943 Y202.715 E136.69307
G1 X117.871 Y202.999 E136.83924
G1 X117.852 Y203.038 E136.86089
G1 X117.382 Y203.039 E137.09537
G0 F10500 X117.565 Y202.7
;TYPE:SKIN
G1 F2100 X117.587 Y202.439 E137.2072
G1 X117.593 Y201.031 E137.80833
G1 F2700 E132.80833
G0 F10500 X117.563 Y200.98
G0 X117.685 Y200.741
G0 X117.683 Y199.763
G0 X117.676 Y196.45
G0 X117.674 Y195.385
G0 X117.866 Y195.186
;TYPE:WALL-INNER
G1 F2700 E137.80833
G1 F2100 X117.354 Y195.186 E138.06377
G1 X117.449 Y189.428 E140.93684
G1 X117.537 Y186.922 E142.18786
G1 X117.328 Y174.473 E148.39956
G1 X117.345 Y169.697 E150.78233
G1 X117.355 Y158.92 E156.159
G1 X117.342 Y155.366 E157.93211
G1 X116.488 Y148.474 E161.39684
G1 X115.9 Y144.025 E163.63576
G1 X114.763 Y135.084 E168.13236
G1 X114.152 Y126.28 E172.53526
G1 X113.663 Y120.83 E175.2652
G1 X113.763 Y117.017 E177.16817
G1 X114.296 Y109.435 E180.96018
G1 X116.11 Y102.831 E184.37696
G1 X116.953 Y102.465 E184.83547
G1 X117.115 Y98.728 E186.70161
G1 X117.265 Y95.16 E188.48327
G1 X117.408 Y91.655 E190.23337
G1 X117.598 Y90.948 E190.59861
G1 X117.629 Y90.948 E190.61408
G1 X117.752 Y91.41 E190.67043
G1 X117.844 Y91.778 E190.85968
G1 X117.903 Y93.772 E191.85492
G1 X117.948 Y95.145 E192.54028
G1 X117.875 Y102.253 E196.08666
G1 X119.175 Y102.693 E196.77138
G1 X120.932 Y108.822 E199.95231
G1 X120.714 Y114.452 E202.76324
G1 X120.857 Y120.847 E205.95451
G1 X120.203 Y129.455 E210.26144
G1 X120.512 Y135.173 E213.11832
G1 X119.371 Y143.992 E217.55481
G1 X118.733 Y148.47 E219.81145
G1 X118.442 Y150.829 E220.99728
G1 X118.468 Y152.78 E221.97073
G1 X118.175 Y163.88 E227.51047
G1 X118.156 Y169.698 E230.4131
G1 X118.398 Y186.083 E238.5885
G1 X118.392 Y186.862 E238.97716
G1 X117.866 Y195.186 E243.1383
G0 F10500 X118.27 Y195.585
;TYPE:WALL-OUTER
G1 F2100 X116.947 Y195.587 E243.79835
G1 X117.049 Y189.414 E246.87849
G1 X117.137 Y186.918 E248.12452
G1 X116.928 Y174.472 E254.33473
G1 X116.945 Y169.696 E256.7175
G1 X116.955 Y158.921 E262.09318
G1 X116.942 Y155.391 E263.85431
G1 X116.091 Y148.525 E267.30598
G1 X115.503 Y144.077 E269.54441
G1 X114.366 Y135.134 E274.042
G1 X113.753 Y126.312 E278.45393
G1 X113.262 Y120.838 E281.19588
G1 X113.363 Y117.006 E283.10834
G1 X113.9 Y109.366 E286.92935
G1 X115.775 Y102.54 E290.461
G1 X116.564 Y102.198 E290.89002
G1 X116.715 Y98.711 E292.63132
G1 X116.865 Y95.143 E294.41298
G1 X117.01 Y91.598 E296.18306
G1 X117.235 Y90.758 E296.61692
G1 X117.334 Y90.548 E296.73274
G1 X117.935 Y90.547 E297.03258
G1 X118.14 Y91.313 E297.42819
G1 X118.243 Y91.724 E297.63958
G1 X118.303 Y93.76 E298.65579
G1 X118.348 Y95.132 E299.34065
G1 X118.278 Y101.967 E302.75082
G1 X119.502 Y102.382 E303.39562
G1 X121.334 Y108.773 E306.71252
G1 X121.114 Y114.455 E309.5494
G1 X121.257 Y120.858 E312.74467
G1 X120.604 Y129.459 E317.04808
G1 X120.913 Y135.192 E319.91243
G1 X119.767 Y144.048 E324.36755
G1 X119.13 Y148.523 E326.62264
G1 X118.842 Y150.851 E327.79294
G1 X118.868 Y152.791 E328.7609
G1 X118.575 Y163.886 E334.29814
G1 X118.556 Y169.696 E337.19678
G1 X118.798 Y186.086 E345.37468
G1 X118.792 Y186.872 E345.76682
G1 X118.259 Y195.306 E349.98296
G1 X118.27 Y195.585 E350.12226
G0 F10500 X117.99 Y195.316
G0 X118.119 Y189.405
G0 X117.841 Y189.387
;TYPE:SKIN
G1 F2100 X117.927 Y186.926 E351.35081
G1 X117.718 Y174.475 E357.56351
G1 X117.735 Y169.699 E359.94628
G1 X117.745 Y158.92 E365.32395
G1 X117.732 Y155.341 E367.10953
G1 X116.874 Y148.425 E370.58639
G1 X116.286 Y143.974 E372.82629
G1 X115.153 Y135.057 E377.31077
G1 X114.54 Y126.249 E381.71573
G1 X114.053 Y120.823 E384.43365
G1 X114.153 Y117.044 E386.31966
G1 X114.684 Y109.495 E390.09518
G1 X116.437 Y103.114 E393.39662
G1 X117.332 Y102.726 E393.88329
G1 X117.527 Y98.23 E396.12847
G1 X117.483 Y102.532 E398.27485
G1 X118.857 Y102.996 E398.99838
G1 X120.54 Y108.868 E402.04588
G1 X120.324 Y114.448 E404.83184
G1 X120.467 Y120.855 E408.0291
G1 X119.813 Y129.451 E412.33006
G1 X120.12 Y135.166 E415.1854
G1 X118.985 Y143.937 E419.59775
G1 X118.347 Y148.419 E421.85637
G1 X118.052 Y150.808 E423.0573
G1 X118.078 Y152.77 E424.03623
G1 X117.785 Y163.874 E429.57797
G1 X117.766 Y169.7 E432.48459
G1 X118.008 Y186.08 E440.65749
G1 X118.002 Y186.837 E441.03517
G1 X117.841 Y189.387 E442.30991
G1 F2700 E437.30991
G0 F10500 X118.119 Y189.405
G0 X118.207 Y186.714
G0 X118.322 Y154.098
G1 F2700 E442.30991
G0 F10500 X117.883 Y154.087
G1 F2100 X117.717 Y153.92 E442.42738
G0 F10500 X117.898 Y153.536
G1 F2100 X117.637 Y153.275 E442.61153
G0 F10500 X117.912 Y152.984
G1 F2100 X117.556 Y152.628 E442.86271
G0 F10500 X117.913 Y152.42
G1 F2100 X117.475 Y151.982 E443.17174
G0 F10500 X117.906 Y151.847
G1 F2100 X117.395 Y151.337 E443.53193
G0 F10500 X117.898 Y151.274
G1 F2100 X117.315 Y150.69 E443.94362
G0 F10500 X117.903 Y150.713
G1 F2100 X117.235 Y150.045 E444.41493
G0 F10500 X117.154 Y149.398
G1 F2100 X117.965 Y150.209 E444.98713
G0 F10500 X118.028 Y149.706
G1 F2100 X117.074 Y148.753 E445.65988
G0 F10500 X116.992 Y148.104
G1 F2100 X118.09 Y149.203 E446.43493
G0 F10500 X118.152 Y148.699
G1 F2100 X116.905 Y147.452 E447.31476
G0 F10500 X116.819 Y146.801
G1 F2100 X118.217 Y148.198 E448.30077
G0 F10500 X118.288 Y147.703
G1 F2100 X116.734 Y146.149 E449.3972
G0 F10500 X116.647 Y145.497
G1 F2100 X118.358 Y147.208 E450.6044
G0 F10500 X118.429 Y146.713
G1 F2100 X116.561 Y144.845 E451.92238
G0 F10500 X116.476 Y144.194
G1 F2100 X118.499 Y146.217 E453.34971
G0 F10500 X118.569 Y145.722
G1 F2100 X116.391 Y143.544 E454.88641
G0 F10500 X116.309 Y142.897
G1 F2100 X118.639 Y145.227 E456.53035
G0 F10500 X118.71 Y144.732
G1 F2100 X116.227 Y142.249 E458.28224
G0 F10500 X116.145 Y141.6
G1 F2100 X118.781 Y144.237 E460.14243
G0 F10500 X118.849 Y143.739
G1 F2100 X116.063 Y140.953 E462.10811
G0 F10500 X115.98 Y140.304
G1 F2100 X118.914 Y143.238 E464.1782
G0 F10500 X118.979 Y142.737
G1 F2100 X115.898 Y139.657 E466.35166
G0 F10500 X115.815 Y139.008
G1 F2100 X119.043 Y142.236 E468.62919
G0 F10500 X119.108 Y141.736
G1 F2100 X115.733 Y138.36 E471.01079
G0 F10500 X115.651 Y137.713
G1 F2100 X119.173 Y141.235 E473.49575
G0 F10500 X119.238 Y140.734
G1 F2100 X115.568 Y137.064 E476.08513
G0 F10500 X115.486 Y136.417
G1 F2100 X119.303 Y140.233 E478.77788
G0 F10500 X119.368 Y139.732
G1 F2100 X115.404 Y135.768 E481.5747
G0 F10500 X115.322 Y135.121
G1 F2100 X119.433 Y139.232 E484.47523
G0 F10500 X119.497 Y138.73
G1 F2100 X115.274 Y134.507 E487.45478
G0 F10500 X115.232 Y133.9
G1 F2100 X119.562 Y138.23 E490.50983
G0 F10500 X119.627 Y137.729
G1 F2100 X115.19 Y133.292 E493.64037
G0 F10500 X115.148 Y132.684
G1 F2100 X119.691 Y137.228 E496.84606
G0 F10500 X119.757 Y136.727
G1 F2100 X115.105 Y132.076 E500.12794
G0 F10500 X115.063 Y131.468
G1 F2100 X119.822 Y136.226 E503.48532
G0 F10500 X119.887 Y135.726
G1 F2100 X115.02 Y130.86 E506.9189
G0 F10500 X114.978 Y130.251
G1 F2100 X119.951 Y135.224 E510.42762
G0 F10500 X119.931 Y134.639
G1 F2100 X114.935 Y129.643 E513.95257
G0 F10500 X114.893 Y129.035
G1 F2100 X119.899 Y134.041 E517.48457
G0 F10500 X119.867 Y133.443
G1 F2100 X114.851 Y128.428 E521.02328
G0 F10500 X114.809 Y127.82
G1 F2100 X119.835 Y132.846 E524.56939
G0 F10500 X119.803 Y132.248
G1 F2100 X114.766 Y127.212 E528.12292
G0 F10500 X114.724 Y126.603
G1 F2100 X119.771 Y131.65 E531.68385
G0 F10500 X119.739 Y131.053
G1 F2100 X114.677 Y125.99 E535.25571
G0 F10500 X114.621 Y125.369
G1 F2100 X119.707 Y130.455 E538.84416
G0 F10500 X119.674 Y129.857
G1 F2100 X114.565 Y124.747 E542.44919
G0 F10500 X114.509 Y124.126
G1 F2100 X119.666 Y129.283 E546.08773
G0 F10500 X119.706 Y128.757
G1 F2100 X114.453 Y123.504 E549.79401
G0 F10500 X114.397 Y122.883
G1 F2100 X119.746 Y128.231 E553.56766
G0 F10500 X119.786 Y127.705
G1 F2100 X114.342 Y122.262 E557.40835
G0 F10500 X114.286 Y121.64
G1 F2100 X119.826 Y127.18 E561.31712
G0 F10500 X119.865 Y126.654
G1 F2100 X114.23 Y121.019 E565.29291
G0 F10500 X114.222 Y120.445
G1 F2100 X119.906 Y126.128 E569.30293
G0 F10500 X119.945 Y125.602
G1 F2100 X114.237 Y119.894 E573.33023
G0 F10500 X114.252 Y119.343
G1 F2100 X119.986 Y125.077 E577.37588
G0 F10500 X120.025 Y124.551
G1 F2100 X114.266 Y118.791 E581.43952
G0 F10500 X114.281 Y118.24
G1 F2100 X120.066 Y124.025 E585.52115
G0 F10500 X120.106 Y123.5
G1 F2100 X114.296 Y117.69 E589.62041
G0 F10500 X114.31 Y117.138
G1 F2100 X120.145 Y122.974 E593.73768
G0 F10500 X120.186 Y122.448
G1 F2100 X114.344 Y116.606 E597.85952
G0 F10500 X114.38 Y116.077
G1 F2100 X120.225 Y121.922 E601.98348
G0 F10500 X120.266 Y121.397
G1 F2100 X114.418 Y115.549 E606.10956
G0 F10500 X114.455 Y115.02
G1 F2100 X120.305 Y120.871 E610.23741
G0 F10500 X120.294 Y120.294
G1 F2100 X114.492 Y114.492 E614.33103
G0 F10500 X114.529 Y113.963
G1 F2100 X120.28 Y119.715 E618.38903
G0 F10500 X120.268 Y119.136
G1 F2100 X114.566 Y113.435 E622.41174
G0 F10500 X114.603 Y112.906
G1 F2100 X120.255 Y118.558 E626.39953
G0 F10500 X120.242 Y117.979
G1 F2100 X114.641 Y112.378 E630.35134
G0 F10500 X114.677 Y111.849
G1 F2100 X120.229 Y117.4 E634.26823
G0 F10500 X120.216 Y116.822
G1 F2100 X114.715 Y111.321 E638.14948
G0 F10500 X114.752 Y110.792
G1 F2100 X120.203 Y116.243 E641.99545
G0 F10500 X120.19 Y115.664
G1 F2100 X114.789 Y110.264 E645.8058
G0 F10500 X114.826 Y109.735
G1 F2100 X120.177 Y115.086 E649.58122
G0 F10500 X120.164 Y114.507
G1 F2100 X114.914 Y109.257 E653.28538
G0 F10500 X115.035 Y108.813
G1 F2100 X120.181 Y113.959 E656.91616
G0 F10500 X120.203 Y113.414
G1 F2100 X115.157 Y108.369 E660.47603
G0 F10500 X115.279 Y107.925
G1 F2100 X120.224 Y112.87 E663.96499
G0 F10500 X120.245 Y112.326
G1 F2100 X115.401 Y107.482 E667.3827
G0 F10500 X115.523 Y107.038
G1 F2100 X120.266 Y111.78 E670.72879
G0 F10500 X120.287 Y111.236
G1 F2100 X115.645 Y106.594 E674.00397
G0 F10500 X115.767 Y106.15
G1 F2100 X120.308 Y110.691 E677.20789
G0 F10500 X120.329 Y110.147
G1 F2100 X115.889 Y105.707 E680.34055
G0 F10500 X116.011 Y105.263
G1 F2100 X120.35 Y109.602 E683.40195
G0 F10500 X120.371 Y109.057
G1 F2100 X116.133 Y104.82 E686.39173
G0 F10500 X116.256 Y104.376
G1 F2100 X120.223 Y108.343 E689.19067
G0 F10500 X119.995 Y107.55
G1 F2100 X116.377 Y103.932 E691.74336
G0 F10500 X116.5 Y103.489
G1 F2100 X119.768 Y106.757 E694.04911
G0 F10500 X119.541 Y105.964
G1 F2100 X116.735 Y103.159 E696.02854
G0 F10500 X117.13 Y102.987
G1 F2100 X119.314 Y105.172 E697.56983
G0 F10500 X119.087 Y104.379
G1 F2100 X117.487 Y102.78 E698.69836
G0 F10500 X118.225 Y102.951
G1 F2100 X118.86 Y103.586 E699.14639
G0 F10500 X119.282 Y103.466
G0 X118.823 Y102.396
G0 X118.045 Y102.133
G0 X117.807 Y98.058
G0 X117.572 Y98.055
;TYPE:SKIN
G1 F2100 X117.313 Y97.797 E699.23758
G0 F10500 X117.325 Y97.526
G1 F2100 X117.759 Y97.96 E699.39068
G0 F10500 X117.762 Y97.68
G1 F2100 X117.336 Y97.254 E699.54097
G0 F10500 X117.347 Y96.983
G1 F2100 X117.765 Y97.4 E699.68825
G0 F10500 X117.767 Y97.12
G1 F2100 X117.359 Y96.711 E699.83236
G0 F10500 X117.37 Y96.44
G1 F2100 X117.77 Y96.84 E699.97347
G0 F10500 X117.773 Y96.56
G1 F2100 X117.381 Y96.168 E700.11176
G0 F10500 X117.393 Y95.897
G1 F2100 X117.776 Y96.28 E700.24687
G0 F10500 X117.778 Y95.999
G1 F2100 X117.404 Y95.625 E700.37881
G0 F10500 X117.415 Y95.354
G1 F2100 X117.781 Y95.719 E700.50775
G0 F10500 X117.784 Y95.439
G1 F2100 X117.427 Y95.082 E700.63369
G0 F10500 X117.438 Y94.81
G1 F2100 X117.787 Y95.159 E700.75681
G0 F10500 X117.778 Y94.868
G1 F2100 X117.449 Y94.539 E700.87288
G0 F10500 X117.46 Y94.267
G1 F2100 X117.768 Y94.575 E700.98153
G0 F10500 X117.759 Y94.283
G1 F2100 X117.471 Y93.995 E701.08313
G0 F10500 X117.482 Y93.724
G1 F2100 X117.749 Y93.99 E701.17715
G0 F10500 X117.74 Y93.698
G1 F2100 X117.493 Y93.451 E701.26428
G0 F10500 X117.731 Y93.407
G1 F2100 X117.504 Y93.18 E701.34436
G0 F10500 X117.723 Y93.116
G1 F2100 X117.516 Y92.908 E701.41757
G0 F10500 X117.714 Y92.824
G1 F2100 X117.526 Y92.636 E701.48389
G0 F10500 X117.706 Y92.533
G1 F2100 X117.538 Y92.365 E701.54315
G0 F10500 X117.697 Y92.242
G1 F2100 X117.549 Y92.093 E701.59554
G0 F10500 X117.689 Y91.95
G1 F2100 X117.56 Y91.821 E701.64105
G1 F2700 E696.64105
G0 F10500 X117.513 Y91.819
G0 X117.125 Y102.583
G0 X116.255 Y102.958
G0 X114.465 Y109.465
G0 X113.934 Y117.022
G0 X113.834 Y120.826
G0 X114.932 Y135.061
G0 X117.541 Y155.311
G0 X117.518 Y166.175
G0 X117.558 Y189.552
G1 F2700 E701.64105
G0 F10500 X117.712 Y189.554
G1 F2100 X118.04 Y189.882 E701.75676
G0 F10500 X118.057 Y189.617
G1 F2100 X118.011 Y189.57 E701.77317
G0 F10500 X117.603 Y189.728
G1 F2100 X118.023 Y190.148 E701.92133
G0 F10500 X118.006 Y190.414
G1 F2100 X117.598 Y190.006 E702.06527
G0 F10500 X117.593 Y190.284
G1 F2100 X117.99 Y190.681 E702.20532
G0 F10500 X117.973 Y190.947
G1 F2100 X117.589 Y190.563 E702.34078
G0 F10500 X117.584 Y190.841
G1 F2100 X117.956 Y191.212 E702.47184
G0 F10500 X117.939 Y191.478
G1 F2100 X117.58 Y191.119 E702.59849
G0 F10500 X117.575 Y191.397
G1 F2100 X117.922 Y191.744 E702.7209
G0 F10500 X117.906 Y192.011
G1 F2100 X117.571 Y191.676 E702.83908
G0 F10500 X117.566 Y191.954
G1 F2100 X117.889 Y192.277 E702.95303
G0 F10500 X117.872 Y192.543
G1 F2100 X117.562 Y192.232 E703.06257
G0 F10500 X117.557 Y192.51
G1 F2100 X117.855 Y192.808 E703.16769
G0 F10500 X117.839 Y193.075
G1 F2100 X117.552 Y192.789 E703.26876
G0 F10500 X117.548 Y193.067
G1 F2100 X117.822 Y193.341 E703.36543
G0 F10500 X117.805 Y193.607
G1 F2100 X117.543 Y193.345 E703.45785
G0 F10500 X117.538 Y193.623
G1 F2100 X117.788 Y193.873 E703.54605
G0 F10500 X117.534 Y193.902
G1 F2100 X117.772 Y194.139 E703.62983
G0 F10500 X117.529 Y194.18
G1 F2100 X117.755 Y194.405 E703.70938
G0 F10500 X117.525 Y194.458
G1 F2100 X117.738 Y194.671 E703.78453
G0 F10500 X117.52 Y194.736
G1 F2100 X117.721 Y194.937 E703.85543
G0 F10500 X117.682 Y194.934
G1 F2700 E698.85543
;MESH:NONMESH
G0 F300 X117.682 Y194.934 Z9.28
G0 F10500 X117.769 Y194.94
G0 X117.537 Y195.386
G0 X117.539 Y196.451
G0 X116.688 Y199.774
G0 X116.399 Y201.526
G0 X116.358 Y202.806
G0 X116.716 Y203.689
G0 X117.558 Y205.351
;TIME_ELAPSED:77.198525
;LAYER:3
M106 S255
;TYPE:WALL-INNER
;MESH:Boat.stl
G1 F2700 E703.85543
G1 F2100 X117.255 Y204.918 E704.1191
G1 X117.33 Y203.5 E704.82753
G1 X117.332 Y203.144 E705.00514
G1 X117.311 Y200.354 E706.39712
G1 X117.93 Y200.354 E706.70594
G1 X117.874 Y202.877 E707.96498
G1 X117.848 Y203.218 E708.1356
G1 X117.896 Y205.143 E709.09628
G1 X117.712 Y205.351 E709.23483
G1 X117.558 Y205.351 E709.31166
G0 F10500 X117.35 Y205.751
;TYPE:WALL-OUTER
G1 F2100 X116.849 Y205.035 E709.74764
G1 X116.93 Y203.488 E710.5205
G1 X116.932 Y203.144 E710.69212
G1 X116.909 Y200.085 E712.21831
G1 X116.897 Y199.954 E712.28393
G1 X118.339 Y199.954 E713.00335
G1 X118.274 Y202.899 E714.47298
G1 X118.248 Y203.229 E714.63812
G1 X118.3 Y205.29 E715.66669
G1 X117.891 Y205.751 E715.97415
G1 X117.35 Y205.751 E716.24406
G0 F10500 X117.594 Y205.333
G0 X117.48 Y204.959
;TYPE:SKIN
G1 F2100 X117.724 Y204.715 E716.41621
G0 F10500 X117.441 Y204.433
G1 F2100 X117.711 Y204.163 E716.60671
G0 F10500 X117.473 Y203.836
G1 F2100 X117.697 Y203.612 E716.76476
G0 F10500 X117.491 Y203.252
G1 F2100 X117.7 Y203.042 E716.91257
G0 F10500 X117.488 Y202.689
G1 F2100 X117.722 Y202.455 E717.07767
G0 F10500 X117.484 Y202.127
G1 F2100 X117.735 Y201.876 E717.25476
G0 F10500 X117.48 Y201.565
G1 F2100 X117.748 Y201.298 E717.4435
G0 F10500 X117.476 Y201.004
G1 F2100 X117.76 Y200.72 E717.64388
G0 F10500 X117.722 Y200.719
G1 F2700 E712.64388
G0 F10500 X117.811 Y200.721
G0 X118.12 Y200.167
G0 X118.122 Y198.208
G0 X118.466 Y198.028
;TYPE:WALL-INNER
G1 F2700 E717.64388
G1 F2100 X116.74 Y198.027 E718.50498
G1 X116.741 Y197.946 E718.5454
G1 X117.14 Y186.546 E724.23636
G1 X117.064 Y182.067 E726.47127
G1 X112.129 Y172.633 E731.78298
G1 X111.544 Y170.649 E732.81494
G1 X111.223 Y168.984 E733.6609
G1 X109.739 Y160.26 E738.07585
G1 X109.141 Y154.821 E740.80573
G1 X108.546 Y148.574 E743.93647
G1 X107.971 Y138.286 E749.07719
G1 X107.72 Y134.447 E750.99656
G1 X107.51 Y123.419 E756.49945
G1 X107.454 Y120.815 E757.79889
G1 X108.462 Y109.586 E763.42359
G1 X108.544 Y107.928 E764.25178
G1 X111.146 Y98.589 E769.08849
G1 X111.833 Y95.505 E770.66481
G1 X113.172 Y93.257 E771.97023
G1 X113.711 Y92.259 E772.53611
G1 X114.637 Y91.353 E773.18243
G1 X116.567 Y90.458 E774.24381
G1 X117.234 Y90.085 E774.62507
G1 X117.45 Y84.797 E777.26547
G1 X117.459 Y84.764 E777.28253
G1 X117.653 Y84.348 E777.51153
G1 X117.863 Y85.188 E777.94351
G1 X118.01 Y90.093 E780.39172
G1 X118.624 Y90.423 E780.73949
G1 X120.594 Y91.245 E781.80445
G1 X121.645 Y92.218 E782.519
G1 X122.118 Y93.058 E782.99995
G1 X123.402 Y95.476 E784.36583
G1 X123.835 Y97.985 E785.63608
G1 X126.877 Y108.132 E790.92104
G1 X127.071 Y110.37 E792.04177
G1 X127.809 Y120.621 E797.16925
G1 X127.777 Y122.646 E798.17965
G1 X127.869 Y135.363 E804.52435
G1 X126.777 Y149.356 E811.52672
G1 X126.177 Y155.394 E814.55392
G1 X125.488 Y160.232 E816.99196
G1 X124.005 Y168.988 E821.42256
G1 X123.698 Y170.696 E822.28834
G1 X123.101 Y172.639 E823.30244
G1 X118.428 Y181.555 E828.32457
G1 X118.391 Y186.502 E830.79271
G1 X118.138 Y190.507 E832.7948
G1 X118.466 Y198.028 E836.5506
G0 F10500 X118.884 Y198.428
;TYPE:WALL-OUTER
G1 F2100 X116.333 Y198.427 E837.8233
G1 X116.341 Y197.932 E838.07029
G1 X116.74 Y186.542 E843.75627
G1 X116.666 Y182.168 E845.93878
G1 X111.755 Y172.78 E851.22461
G1 X111.155 Y170.744 E852.28357
G1 X110.831 Y169.06 E853.13913
G1 X109.341 Y160.304 E857.57031
G1 X108.744 Y154.865 E860.30013
G1 X108.148 Y148.612 E863.43391
G1 X107.572 Y138.31 E868.58162
G1 X107.32 Y134.459 E870.507
G1 X107.11 Y123.427 E876.01189
G1 X107.054 Y120.805 E877.32031
G1 X108.063 Y109.558 E882.95399
G1 X108.146 Y107.868 E883.79815
G1 X110.758 Y98.492 E888.65398
G1 X111.458 Y95.353 E890.2585
G1 X112.824 Y93.06 E891.5901
G1 X113.388 Y92.015 E892.18254
G1 X114.406 Y91.019 E892.89307
G1 X116.385 Y90.101 E893.98145
G1 X116.843 Y89.845 E894.24322
G1 X117.052 Y84.737 E896.79374
G1 X117.08 Y84.631 E896.84844
G1 X117.416 Y83.911 E897.24484
G1 X117.956 Y83.91 E897.51425
G1 X118.262 Y85.134 E898.1437
G1 X118.403 Y89.85 E900.49757
G1 X118.796 Y90.061 E900.72011
G1 X120.815 Y90.904 E901.81167
G1 X121.963 Y91.966 E902.5919
G1 X122.467 Y92.862 E903.10478
G1 X123.785 Y95.345 E904.50726
G1 X124.225 Y97.893 E905.79727
G1 X127.271 Y108.055 E911.08997
G1 X127.47 Y110.341 E912.23477
G1 X128.209 Y120.61 E917.37125
G1 X128.177 Y122.648 E918.38814
G1 X128.269 Y135.379 E924.73982
G1 X127.968 Y139.255 E926.67939
G1 X127.175 Y149.396 E931.7542
G1 X126.573 Y155.45 E934.78945
G1 X125.882 Y160.299 E937.23306
G1 X124.399 Y169.059 E941.66563
G1 X124.089 Y170.786 E942.54101
G1 X123.472 Y172.792 E943.58807
G1 X118.827 Y181.655 E948.58031
G1 X118.791 Y186.512 E951.00354
G1 X118.539 Y190.511 E953.00261
G1 X118.884 Y198.428 E956.95616
G0 F10500 X118.603 Y198.159
G0 X118.057 Y197.917
G0 X118.058 Y197.638
;TYPE:SKIN
G1 F2100 X117.142 Y197.637 E957.41316
G1 X117.53 Y186.55 E962.94787
G1 X117.452 Y181.968 E965.23417
G1 X112.493 Y172.488 E970.57177
G1 X111.922 Y170.553 E971.5783
G1 X111.605 Y168.91 E972.41311
G1 X110.126 Y160.211 E976.81534
G1 X109.529 Y154.778 E979.54219
G1 X108.936 Y148.552 E982.66241
G1 X108.361 Y138.263 E987.80363
G1 X108.11 Y134.422 E989.724
G1 X107.9 Y123.411 E995.2184
G1 X107.844 Y120.824 E996.50937
G1 X108.852 Y109.613 E1002.12512
G1 X108.932 Y107.99 E1002.93582
G1 X111.524 Y98.684 E1007.75533
G1 X112.199 Y95.652 E1009.30503
G1 X113.511 Y93.45 E1010.58383
G1 X114.024 Y92.498 E1011.12336
G1 X114.865 Y91.677 E1011.70972
G1 X116.744 Y90.805 E1012.74318
G1 X117.615 Y90.319 E1013.24079
G1 X117.622 Y90.154 E1013.32319
G1 X117.627 Y90.329 E1013.41053
G1 X118.456 Y90.776 E1013.88041
G1 X120.38 Y91.578 E1014.92035
G1 X121.335 Y92.463 E1015.56993
G1 X121.764 Y93.224 E1016.00577
G1 X123.029 Y95.606 E1017.35134
G1 X123.455 Y98.075 E1018.60133
G1 X126.493 Y108.21 E1023.87998
G1 X126.682 Y110.398 E1024.97564
G1 X127.419 Y120.632 E1030.09463
G1 X127.387 Y122.644 E1031.09855
G1 X127.479 Y135.365 E1037.44524
G1 X126.389 Y149.317 E1044.42713
G1 X125.791 Y155.339 E1047.4463
G1 X125.104 Y160.167 E1049.87926
G1 X123.621 Y168.919 E1054.30789
G1 X123.318 Y170.601 E1055.16055
G1 X122.737 Y172.493 E1056.14798
G1 X118.038 Y181.458 E1061.19779
G1 X118.001 Y186.477 E1063.70185
G1 X117.748 Y190.503 E1065.71439
G1 X118.058 Y197.638 E1069.27741
G0 F10500 X117.878 Y197.207
G1 F2100 X117.609 Y197.477 E1069.46756
G0 F10500 X117.317 Y197.203
G1 F2100 X117.855 Y196.665 E1069.84715
G0 F10500 X117.338 Y196.617
G1 F2100 X117.831 Y196.123 E1070.19534
G0 F10500 X117.358 Y196.031
G1 F2100 X117.808 Y195.581 E1070.51284
G0 F10500 X117.379 Y195.445
G1 F2100 X117.784 Y195.039 E1070.79894
G0 F10500 X117.399 Y194.858
G1 F2100 X117.76 Y194.497 E1071.05365
G0 F10500 X117.42 Y194.272
G1 F2100 X117.737 Y193.955 E1071.27731
G0 F10500 X117.44 Y193.686
G1 F2100 X117.714 Y193.412 E1071.47063
G0 F10500 X117.461 Y193.1
G1 F2100 X117.69 Y192.871 E1071.6322
G0 F10500 X117.481 Y192.514
G1 F2100 X117.666 Y192.328 E1071.76308
G0 F10500 X117.502 Y191.927
G1 F2100 X117.643 Y191.786 E1071.86256
G0 F10500 X117.522 Y191.341
G1 F2100 X117.619 Y191.244 E1071.931
G0 F10500 X118.059 Y191.226
G0 X118.274 Y197.845
G0 X116.928 Y197.844
G0 X117.187 Y188.395
G0 X117.625 Y188.41
G1 F2100 X117.724 Y188.311 E1072.00085
G0 F10500 X117.645 Y187.824
G1 F2100 X117.762 Y187.707 E1072.0834
G0 F10500 X117.666 Y187.238
G1 F2100 X117.8 Y187.103 E1072.1783
G0 F10500 X117.685 Y186.652
G1 F2100 X117.837 Y186.5 E1072.28555
G0 F10500 X117.681 Y186.091
G1 F2100 X117.844 Y185.928 E1072.40055
G0 F10500 X117.672 Y185.534
G1 F2100 X117.848 Y185.358 E1072.52473
G0 F10500 X117.663 Y184.978
G1 F2100 X117.852 Y184.788 E1072.65843
G0 F10500 X117.653 Y184.422
G1 F2100 X117.857 Y184.218 E1072.80236
G0 F10500 X117.644 Y183.866
G1 F2100 X117.861 Y183.649 E1072.95547
G0 F10500 X117.634 Y183.309
G1 F2100 X117.865 Y183.079 E1073.1181
G0 F10500 X117.625 Y182.753
G1 F2100 X117.869 Y182.509 E1073.29025
G0 F10500 X117.615 Y182.197
G1 F2100 X117.873 Y181.939 E1073.47229
G0 F10500 X117.511 Y181.735
G1 F2100 X117.93 Y181.317 E1073.76756
G0 F10500 X117.317 Y181.364
G1 F2100 X118.553 Y180.128 E1074.63963
G0 F10500 X118.943 Y180.333
G0 X119.566 Y179.144
G0 X119.176 Y178.939
G1 F2100 X117.123 Y180.993 E1076.08848
G0 F10500 X116.928 Y180.621
G1 F2100 X119.798 Y177.751 E1078.11342
G0 F10500 X120.189 Y177.957
G0 X120.812 Y176.768
G0 X120.421 Y176.563
G1 F2100 X116.734 Y180.25 E1080.7148
G0 F10500 X116.54 Y179.878
G1 F2100 X121.044 Y175.374 E1083.89262
G0 F10500 X121.435 Y175.58
G0 X122.058 Y174.392
G0 X121.666 Y174.186
G1 F2100 X116.345 Y179.507 E1087.64687
G0 F10500 X116.151 Y179.136
G1 F2100 X122.289 Y172.997 E1091.97791
G0 F10500 X122.681 Y173.203
G0 X123.14 Y172.133
G0 X122.718 Y172.003
G1 F2100 X115.957 Y178.764 E1096.74816
G0 F10500 X115.763 Y178.393
G1 F2100 X122.97 Y171.186 E1101.83309
G0 F10500 X123.19 Y170.4
G1 F2100 X115.568 Y178.021 E1107.21047
G0 F10500 X115.374 Y177.65
G1 F2100 X123.315 Y169.709 E1112.81327
G0 F10500 X123.439 Y169.019
G1 F2100 X115.18 Y177.278 E1118.64044
G0 F10500 X114.986 Y176.907
G1 F2100 X123.556 Y168.337 E1124.68704
G0 F10500 X123.671 Y167.656
G1 F2100 X114.791 Y176.536 E1130.95236
G0 F10500 X114.597 Y176.165
G1 F2100 X123.787 Y166.974 E1137.43676
G0 F10500 X123.902 Y166.293
G1 F2100 X114.403 Y175.793 E1144.13917
G0 F10500 X114.209 Y175.421
G1 F2100 X124.018 Y165.612 E1151.05995
G0 F10500 X124.134 Y164.931
G1 F2100 X114.014 Y175.05 E1158.1998
G0 F10500 X113.82 Y174.679
G1 F2100 X124.249 Y164.25 E1165.55802
G0 F10500 X124.364 Y163.569
G1 F2100 X113.626 Y174.307 E1173.13426
G0 F10500 X113.431 Y173.936
G1 F2100 X124.48 Y162.887 E1180.92993
G0 F10500 X124.595 Y162.206
G1 F2100 X113.237 Y173.565 E1188.94396
G0 F10500 X113.043 Y173.193
G1 F2100 X124.711 Y161.525 E1197.17637
G0 F10500 X124.826 Y160.844
G1 F2100 X112.849 Y172.821 E1205.62679
G0 F10500 X112.654 Y172.45
G1 F2100 X124.942 Y160.163 E1214.29628
G0 F10500 X125.036 Y159.502
G1 F2100 X112.521 Y172.017 E1223.12629
G0 F10500 X112.393 Y171.58
G1 F2100 X125.13 Y158.843 E1232.11293
G0 F10500 X125.224 Y158.184
G1 F2100 X112.264 Y171.143 E1241.25656
G0 F10500 X112.135 Y170.707
G1 F2100 X125.318 Y157.524 E1250.55788
G0 F10500 X125.412 Y156.864
G1 F2100 X112.026 Y170.25 E1260.00242
G0 F10500 X111.935 Y169.776
G1 F2100 X125.505 Y156.205 E1269.57714
G0 F10500 X125.599 Y155.545
G1 F2100 X111.843 Y169.301 E1279.28275
G0 F10500 X111.753 Y168.826
G1 F2100 X125.673 Y154.906 E1289.10406
G0 F10500 X125.735 Y154.278
G1 F2100 X111.671 Y168.343 E1299.02732
G0 F10500 X111.589 Y167.859
G1 F2100 X125.797 Y153.65 E1309.05219
G0 F10500 X125.86 Y153.022
G1 F2100 X111.506 Y167.376 E1319.17971
G0 F10500 X111.424 Y166.892
G1 F2100 X125.922 Y152.394 E1329.40883
G0 F10500 X125.985 Y151.766
G1 F2100 X111.342 Y166.409 E1339.74026
G0 F10500 X111.26 Y165.925
G1 F2100 X126.047 Y151.138 E1350.17329
G0 F10500 X126.109 Y150.51
G1 F2100 X111.177 Y165.442 E1360.70862
G0 F10500 X111.095 Y164.958
G1 F2100 X126.172 Y149.881 E1371.34626
G0 F10500 X126.233 Y149.255
G1 F2100 X111.013 Y164.475 E1382.08479
G0 F10500 X110.931 Y163.991
G1 F2100 X126.281 Y148.641 E1392.91504
G0 F10500 X126.329 Y148.027
G1 F2100 X110.849 Y163.507 E1403.83702
G0 F10500 X110.766 Y163.024
G1 F2100 X126.377 Y147.414 E1414.85107
G0 F10500 X126.425 Y146.8
G1 F2100 X110.684 Y162.541 E1425.95719
G0 F10500 X110.602 Y162.057
G1 F2100 X126.473 Y146.187 E1437.15469
G0 F10500 X126.521 Y145.573
G1 F2100 X110.52 Y161.573 E1448.44391
G0 F10500 X110.438 Y161.09
G1 F2100 X126.569 Y144.959 E1459.8252
G0 F10500 X126.617 Y144.345
G1 F2100 X110.356 Y160.607 E1471.29856
G0 F10500 X110.277 Y160.12
G1 F2100 X126.664 Y143.732 E1482.86083
G0 F10500 X126.712 Y143.119
G1 F2100 X110.221 Y159.61 E1494.49612
G0 F10500 X110.165 Y159.1
G1 F2100 X126.76 Y142.505 E1506.20479
G0 F10500 X126.808 Y141.891
G1 F2100 X110.109 Y158.591 E1517.98719
G0 F10500 X110.053 Y158.081
G1 F2100 X126.857 Y141.277 E1529.84332
G0 F10500 X126.904 Y140.664
G1 F2100 X109.997 Y157.571 E1541.77212
G0 F10500 X109.941 Y157.061
G1 F2100 X126.952 Y140.05 E1553.7743
G0 F10500 X127 Y139.437
G1 F2100 X109.885 Y156.552 E1565.84986
G0 F10500 X109.829 Y156.042
G1 F2100 X127.048 Y138.823 E1577.99879
G0 F10500 X127.096 Y138.21
G1 F2100 X109.773 Y155.533 E1590.2211
G0 F10500 X109.717 Y155.023
G1 F2100 X127.144 Y137.596 E1602.51679
G0 F10500 X127.192 Y136.982
G1 F2100 X109.664 Y154.51 E1614.88374
G0 F10500 X109.615 Y153.993
G1 F2100 X127.24 Y136.369 E1627.31878
G0 F10500 X127.288 Y135.755
G1 F2100 X109.566 Y153.477 E1639.82261
G0 F10500 X109.516 Y152.961
G1 F2100 X127.316 Y135.161 E1652.38147
G0 F10500 X127.313 Y134.599
G1 F2100 X109.467 Y152.444 E1664.97243
G0 F10500 X109.418 Y151.928
G1 F2100 X127.308 Y134.037 E1677.59515
G0 F10500 X127.304 Y133.476
G1 F2100 X109.369 Y151.411 E1690.24926
G0 F10500 X109.32 Y150.895
G1 F2100 X127.3 Y132.914 E1702.93547
G0 F10500 X127.296 Y132.353
G1 F2100 X109.271 Y150.378 E1715.65309
G0 F10500 X109.221 Y149.862
G1 F2100 X127.292 Y131.791 E1728.40315
G0 F10500 X127.288 Y131.229
G1 F2100 X109.173 Y149.345 E1741.18462
G0 F10500 X109.123 Y148.829
G1 F2100 X127.284 Y130.668 E1753.99818
G0 F10500 X127.279 Y130.106
G1 F2100 X109.083 Y148.303 E1766.8368
G0 F10500 X109.052 Y147.768
G1 F2100 X127.276 Y129.544 E1779.69481
G0 F10500 X127.272 Y128.983
G1 F2100 X109.023 Y147.232 E1792.57047
G0 F10500 X108.993 Y146.696
G1 F2100 X127.267 Y128.421 E1805.46411
G0 F10500 X127.263 Y127.86
G1 F2100 X108.963 Y146.161 E1818.3761
G0 F10500 X108.933 Y145.625
G1 F2100 X127.259 Y127.299 E1831.30609
G0 F10500 X127.255 Y126.736
G1 F2100 X108.903 Y145.089 E1844.25477
G0 F10500 X108.873 Y144.553
G1 F2100 X127.251 Y126.175 E1857.22144
G0 F10500 X127.247 Y125.613
G1 F2100 X108.843 Y144.017 E1870.20646
G0 F10500 X108.813 Y143.481
G1 F2100 X127.243 Y125.052 E1883.20946
G0 F10500 X127.239 Y124.49
G1 F2100 X108.783 Y142.946 E1896.23117
G0 F10500 X108.753 Y142.41
G1 F2100 X127.235 Y123.928 E1909.27122
G0 F10500 X127.231 Y123.367
G1 F2100 X108.724 Y141.874 E1922.3289
G0 F10500 X108.693 Y141.339
G1 F2100 X127.226 Y122.806 E1935.40494
G0 F10500 X127.232 Y122.234
G1 F2100 X108.663 Y140.803 E1948.50637
G0 F10500 X108.634 Y140.267
G1 F2100 X127.241 Y121.66 E1961.63461
G0 F10500 X127.25 Y121.085
G1 F2100 X108.603 Y139.732 E1974.79108
G0 F10500 X108.574 Y139.196
G1 F2100 X127.249 Y120.52 E1987.96765
G0 F10500 X127.212 Y119.992
G1 F2100 X108.544 Y138.66 E2001.13894
G0 F10500 X108.513 Y138.125
G1 F2100 X127.173 Y119.464 E2014.30493
G0 F10500 X127.135 Y118.937
G1 F2100 X108.478 Y137.594 E2027.46845
G0 F10500 X108.444 Y137.063
G1 F2100 X127.098 Y118.409 E2040.62985
G0 F10500 X127.06 Y117.881
G1 F2100 X108.409 Y136.532 E2053.78914
G0 F10500 X108.374 Y136.001
G1 F2100 X127.021 Y117.354 E2066.94561
G0 F10500 X126.984 Y116.826
G1 F2100 X108.34 Y135.47 E2080.09995
G0 F10500 X108.305 Y134.939
G1 F2100 X126.946 Y116.298 E2093.25219
G0 F10500 X126.907 Y115.771
G1 F2100 X108.27 Y134.408 E2106.4016
G0 F10500 X108.26 Y133.853
G1 F2100 X126.869 Y115.243 E2119.5316
G0 F10500 X126.832 Y114.715
G1 F2100 X108.249 Y133.298 E2132.64291
G0 F10500 X108.238 Y132.743
G1 F2100 X126.794 Y114.187 E2145.73517
G0 F10500 X126.755 Y113.66
G1 F2100 X108.228 Y132.187 E2158.80697
G0 F10500 X108.217 Y131.632
G1 F2100 X126.718 Y113.132 E2171.86008
G0 F10500 X126.68 Y112.604
G1 F2100 X108.207 Y131.077 E2184.89377
G0 F10500 X108.196 Y130.522
G1 F2100 X126.642 Y112.077 E2197.90807
G0 F10500 X126.604 Y111.548
G1 F2100 X108.185 Y129.967 E2210.90367
G0 F10500 X108.175 Y129.412
G1 F2100 X126.566 Y111.021 E2223.87951
G0 F10500 X126.528 Y110.493
G1 F2100 X108.164 Y128.857 E2236.83631
G0 F10500 X108.154 Y128.302
G1 F2100 X126.484 Y109.972 E2249.76911
G0 F10500 X126.439 Y109.451
G1 F2100 X108.143 Y127.747 E2262.67793
G0 F10500 X108.132 Y127.192
G1 F2100 X126.393 Y108.931 E2275.56205
G0 F10500 X126.347 Y108.411
G1 F2100 X108.122 Y126.637 E2288.42113
G0 F10500 X108.111 Y126.082
G1 F2100 X126.245 Y107.948 E2301.21564
G0 F10500 X126.115 Y107.512
G1 F2100 X108.101 Y125.527 E2313.92584
G0 F10500 X108.09 Y124.971
G1 F2100 X125.984 Y107.077 E2326.55103
G0 F10500 X125.854 Y106.642
G1 F2100 X108.079 Y124.416 E2339.0919
G0 F10500 X108.069 Y123.861
G1 F2100 X125.723 Y106.207 E2351.54775
G0 F10500 X125.593 Y105.771
G1 F2100 X108.057 Y123.307 E2363.92034
G0 F10500 X108.045 Y122.753
G1 F2100 X125.462 Y105.336 E2376.20898
G0 F10500 X125.332 Y104.901
G1 F2100 X108.034 Y122.199 E2388.41365
G0 F10500 X108.022 Y121.645
G1 F2100 X125.201 Y104.466 E2400.53436
G0 F10500 X125.071 Y104.03
G1 F2100 X108.01 Y121.092 E2412.57217
G0 F10500 X108.033 Y120.503
G1 F2100 X124.94 Y103.596 E2424.50098
G0 F10500 X124.81 Y103.16
G1 F2100 X108.089 Y119.881 E2436.29854
G0 F10500 X108.145 Y119.259
G1 F2100 X124.679 Y102.725 E2447.96417
G0 F10500 X124.549 Y102.29
G1 F2100 X108.201 Y118.638 E2459.49857
G0 F10500 X108.257 Y118.016
G1 F2100 X124.418 Y101.855 E2470.90103
G0 F10500 X124.288 Y101.419
G1 F2100 X108.313 Y117.395 E2482.17261
G0 F10500 X108.369 Y116.773
G1 F2100 X124.158 Y100.984 E2493.3126
G0 F10500 X124.027 Y100.549
G1 F2100 X108.424 Y116.152 E2504.32136
G0 F10500 X108.48 Y115.53
G1 F2100 X123.897 Y100.113 E2515.19888
G0 F10500 X123.767 Y99.678
G1 F2100 X108.536 Y114.909 E2525.94518
G0 F10500 X108.592 Y114.287
G1 F2100 X123.636 Y99.243 E2536.55953
G0 F10500 X123.506 Y98.808
G1 F2100 X108.648 Y113.666 E2547.04265
G0 F10500 X108.704 Y113.044
G1 F2100 X123.375 Y98.372 E2557.39419
G0 F10500 X123.264 Y97.918
G1 F2100 X108.76 Y112.422 E2567.62755
G0 F10500 X108.815 Y111.801
G1 F2100 X123.18 Y97.436 E2577.76283
G0 F10500 X123.098 Y96.953
G1 F2100 X108.871 Y111.179 E2587.80039
G0 F10500 X108.928 Y110.557
G1 F2100 X123.014 Y96.471 E2597.73883
G0 F10500 X122.931 Y95.989
G1 F2100 X108.984 Y109.936 E2607.57919
G0 F10500 X109.026 Y109.327
G1 F2100 X122.812 Y95.542 E2617.3056
G0 F10500 X122.615 Y95.173
G1 F2100 X109.055 Y108.733 E2626.87292
G0 F10500 X109.084 Y108.138
G1 F2100 X122.419 Y94.803 E2636.28148
G0 F10500 X122.223 Y94.434
G1 F2100 X109.264 Y107.393 E2645.42475
G0 F10500 X109.482 Y106.609
G1 F2100 X122.026 Y94.065 E2654.27522
G0 F10500 X121.83 Y93.695
G1 F2100 X109.7 Y105.825 E2662.83359
G0 F10500 X109.919 Y105.041
G1 F2100 X121.636 Y93.323 E2671.10092
G0 F10500 X121.432 Y92.962
G1 F2100 X110.136 Y104.257 E2679.07051
G0 F10500 X110.355 Y103.473
G1 F2100 X121.228 Y92.6 E2686.742
G0 F10500 X120.944 Y92.319
G1 F2100 X110.573 Y102.69 E2694.0593
G0 F10500 X110.791 Y101.906
G1 F2100 X120.65 Y92.047 E2701.01535
G0 F10500 X120.356 Y91.775
G1 F2100 X111.009 Y101.122 E2707.61017
G0 F10500 X111.227 Y100.338
G1 F2100 X119.981 Y91.585 E2713.78623
G0 F10500 X119.581 Y91.419
G1 F2100 X111.446 Y99.554 E2719.52592
G0 F10500 X111.664 Y98.77
G1 F2100 X119.182 Y91.252 E2724.83027
G0 F10500 X118.783 Y91.085
G1 F2100 X111.83 Y98.038 E2729.73599
G0 F10500 X111.992 Y97.311
G1 F2100 X118.383 Y90.919 E2734.24554
G0 F10500 X118.016 Y90.721
G1 F2100 X112.154 Y96.583 E2738.38149
G0 F10500 X112.317 Y95.854
G1 F2100 X117.649 Y90.523 E2742.14315
G0 F10500 X117.889 Y90.169
G0 X117.693 Y85.213
G0 X117.429 Y89.686
G0 X116.338 Y90.686
G0 X116.522 Y91.083
G1 F2100 X113.021 Y94.585 E2744.61365
G0 F10500 X112.644 Y94.359
G0 X113.426 Y93.02
G0 X113.812 Y93.228
G1 F2100 X115.467 Y91.573 E2745.78134
G0 F10500 X115.283 Y91.176
G0 X117.352 Y89.922
G0 X117.399 Y89.924
;TYPE:SKIN
G1 F2100 X117.83 Y89.492 E2745.93357
G0 F10500 X117.822 Y89.218
G1 F2100 X117.411 Y89.629 E2746.07856
G0 F10500 X117.423 Y89.334
G1 F2100 X117.814 Y88.943 E2746.21649
G0 F10500 X117.806 Y88.669
G1 F2100 X117.435 Y89.039 E2746.3472
G0 F10500 X117.447 Y88.744
G1 F2100 X117.797 Y88.394 E2746.47067
G0 F10500 X117.789 Y88.119
G1 F2100 X117.459 Y88.449 E2746.58709
G0 F10500 X117.471 Y88.155
G1 F2100 X117.781 Y87.845 E2746.69645
G0 F10500 X117.772 Y87.57
G1 F2100 X117.483 Y87.86 E2746.79858
G0 F10500 X117.495 Y87.565
G1 F2100 X117.765 Y87.295 E2746.89383
G0 F10500 X117.507 Y87.27
G1 F2100 X117.756 Y87.021 E2746.98167
G0 F10500 X117.519 Y86.975
G1 F2100 X117.748 Y86.746 E2747.06245
G0 F10500 X117.531 Y86.68
G1 F2100 X117.74 Y86.472 E2747.13601
G0 F10500 X117.544 Y86.385
G1 F2100 X117.731 Y86.197 E2747.20215
G0 F10500 X117.556 Y86.09
G1 F2100 X117.724 Y85.922 E2747.26142
G0 F10500 X117.568 Y85.795
G1 F2100 X117.715 Y85.648 E2747.31328
G0 F10500 X117.58 Y85.5
G1 F2100 X117.707 Y85.373 E2747.35808
G0 F10500 X117.592 Y85.205
G1 F2100 X117.678 Y85.119 E2747.38842
G0 F10500 X117.636 Y85.083
G0 X117.89 Y89.767
G0 X117.838 Y89.767
G1 F2100 X117.627 Y89.979 E2747.46303
G0 F10500 X117.896 Y89.972
G0 X117.72 Y84.203
G0 X117.79 Y84.159
G1 F2100 X117.537 Y84.128 E2747.52036
G0 F10500 X117.473 Y84.451
G1 F2700 E2742.52036
;MESH:NONMESH
G0 F300 X117.473 Y84.451 Z12.28
G0 F10500 X117.489 Y84.461
G0 X117.405 Y90.191
G0 X114.736 Y91.497
G0 X113.85 Y92.362
G0 X111.994 Y95.567
G0 X108.714 Y107.953
G0 X107.625 Y120.82
G0 X107.891 Y134.434
G0 X108.717 Y148.565
G0 X109.311 Y154.802
G0 X109.908 Y160.237
G0 X111.711 Y170.612
G0 X112.287 Y172.567
G0 X117.235 Y182.023
G0 X116.928 Y197.844
G0 X117.562 Y197.837
G0 X117.562 Y200.174
G0 X117.495 Y200.536
G0 X117.431 Y204.869
G0 X117.558 Y205.451
G1 F2700 E2747.52036
G0 F10500 X117.558 Y205.908
;TIME_ELAPSED:220.384126
;LAYER:4
;TYPE:WALL-INNER
;MESH:Boat.stl
G1 F2100 X117.307 Y205.548 E2747.73931
G1 X117.363 Y204.462 E2748.28184
G1 X117.369 Y203.683 E2748.67049
G1 X117.349 Y200.894 E2750.06197
G1 X116.756 Y200.894 E2750.35781
G1 X116.321 Y198.849 E2751.4009
G1 X116.214 Y198.322 E2751.66918
G1 X116.643 Y198.322 E2751.88321
G1 X116.678 Y196.154 E2752.96497
G1 X116.718 Y192.394 E2754.84095
G1 X115.273 Y192.212 E2755.56756
G1 X112.832 Y189.172 E2757.51264
G1 X111.572 Y186.126 E2759.15718
G1 X110.34 Y182.926 E2760.8679
G1 X107.875 Y174.638 E2765.18181
G1 X106.301 Y172.496 E2766.50795
G1 X106.225 Y172.398 E2766.56982
G1 X106.022 Y171.594 E2766.98353
G1 X105.866 Y170.777 E2767.3985
G1 X104.061 Y160.676 E2772.51773
G1 X103.302 Y154.701 E2775.52263
G1 X102.888 Y148.668 E2778.53958
G1 X102.301 Y139.858 E2782.94465
G1 X101.866 Y135.091 E2785.3328
G1 X102.059 Y122.238 E2791.74591
G1 X102.004 Y120.328 E2792.69921
G1 X102.176 Y119.62 E2793.06271
G1 X102.343 Y118.878 E2793.44215
G1 X103.92 Y109.835 E2798.02181
G1 X104.237 Y106.798 E2799.54521
G1 X107.323 Y95.822 E2805.23348
G1 X107.822 Y94.152 E2806.10304
G1 X109.772 Y91.064 E2807.92511
G1 X110.555 Y89.624 E2808.74287
G1 X113.053 Y86.888 E2810.59121
G1 X113.673 Y86.3 E2811.01751
G1 X117.169 Y85.251 E2812.8385
G1 X117.205 Y84.35 E2813.28837
G1 X117.442 Y81.514 E2814.70819
G1 X117.595 Y81.207 E2814.87932
G1 X117.692 Y81.251 E2814.93246
G1 X117.851 Y81.557 E2815.04553
G1 X117.883 Y81.624 E2815.08257
G1 X117.96 Y82.71 E2815.62574
G1 X118.051 Y84.25 E2816.39539
G1 X118.079 Y85.182 E2816.86058
G1 X120.411 Y85.889 E2818.07631
G1 X121.436 Y86.243 E2818.61732
G1 X124.488 Y89.236 E2820.74996
G1 X124.98 Y89.687 E2821.08294
G1 X127.387 Y94.16 E2823.61712
G1 X127.935 Y96.014 E2824.58164
G1 X131.564 Y107.229 E2830.46247
G1 X131.57 Y107.3 E2830.49801
G1 X132.911 Y119.713 E2836.72692
G1 X133.014 Y121.615 E2837.67722
G1 X133.32 Y135.472 E2844.59219
G1 X132.964 Y140.226 E2846.97061
G1 X132.626 Y149.3 E2851.50079
G1 X131.941 Y154.683 E2854.20803
G1 X131.178 Y160.729 E2857.24832
G1 X129.483 Y170.74 E2862.31391
G1 X129.296 Y171.729 E2862.81607
G1 X129.048 Y172.702 E2863.31702
G1 X128.942 Y172.832 E2863.40071
G1 X127.403 Y174.963 E2864.71213
G1 X124.89 Y182.91 E2868.87041
G1 X123.658 Y186.126 E2870.58859
G1 X122.407 Y189.169 E2872.23003
G1 X121.341 Y190.63 E2873.13232
G1 X119.989 Y192.197 E2874.16487
G1 X119.362 Y192.243 E2874.47852
G1 X118.49 Y192.399 E2874.92047
G1 X118.582 Y198.322 E2877.87582
G1 X118.996 Y198.322 E2878.08237
G1 X118.74 Y199.473 E2878.67064
G1 X118.461 Y200.894 E2879.39311
G1 X117.931 Y200.894 E2879.65753
G1 X117.885 Y202.943 E2880.68004
G1 X117.825 Y203.737 E2881.0773
G1 X117.867 Y205.474 E2881.94414
G1 X117.878 Y205.729 E2882.07148
G1 X117.719 Y205.908 E2882.19093
G1 X117.558 Y205.908 E2882.27125
G0 F10500 X117.35 Y206.308
;TYPE:WALL-OUTER
G1 F2100 X116.922 Y205.696 E2882.64384
G1 X116.9 Y205.673 E2882.65972
G1 X116.963 Y204.45 E2883.27068
G1 X116.969 Y203.683 E2883.65335
G1 X116.952 Y201.294 E2884.84526
G1 X116.432 Y201.294 E2885.10469
G1 X115.93 Y198.932 E2886.30941
G1 X115.724 Y197.922 E2886.82368
G1 X116.249 Y197.922 E2887.0856
G1 X116.278 Y196.149 E2887.97027
G1 X116.314 Y192.746 E2889.66813
G1 X115.063 Y192.589 E2890.29715
G1 X112.483 Y189.376 E2892.35296
G1 X111.202 Y186.279 E2894.02501
G1 X109.962 Y183.058 E2895.74694
G1 X107.511 Y174.819 E2900.03543
G1 X105.982 Y172.737 E2901.32416
G1 X105.857 Y172.576 E2901.42585
G1 X105.632 Y171.682 E2901.88577
G1 X105.473 Y170.852 E2902.30739
G1 X103.667 Y160.746 E2907.42917
G1 X102.905 Y154.751 E2910.44415
G1 X102.489 Y148.695 E2913.47262
G1 X101.902 Y139.89 E2917.87521
G1 X101.466 Y135.102 E2920.27383
G1 X101.659 Y122.241 E2926.69093
G1 X101.602 Y120.285 E2927.6672
G1 X101.787 Y119.529 E2928.0555
G1 X101.951 Y118.8 E2928.42829
G1 X103.524 Y109.78 E2932.9963
G1 X103.842 Y106.724 E2934.52918
G1 X106.94 Y95.707 E2940.23876
G1 X107.455 Y93.984 E2941.13595
G1 X109.427 Y90.862 E2942.97822
G1 X110.225 Y89.392 E2943.8127
G1 X112.765 Y86.61 E2945.69212
G1 X113.467 Y85.944 E2946.17488
G1 X116.781 Y84.95 E2947.90101
G1 X116.806 Y84.317 E2948.21706
G1 X117.049 Y81.404 E2949.67541
G1 X117.355 Y80.792 E2950.01678
G1 X117.412 Y80.701 E2950.07035
G1 X117.476 Y80.712 E2950.10275
G1 X117.984 Y80.946 E2950.38179
G1 X118.211 Y81.382 E2950.62702
G1 X118.277 Y81.518 E2950.70244
G1 X118.359 Y82.686 E2951.2866
G1 X118.451 Y84.238 E2952.06225
G1 X118.47 Y84.883 E2952.38418
G1 X120.531 Y85.507 E2953.45851
G1 X121.652 Y85.894 E2954.05017
G1 X124.763 Y88.946 E2956.22444
G1 X125.3 Y89.438 E2956.58779
G1 X127.759 Y94.008 E2959.17688
G1 X128.317 Y95.896 E2960.15908
G1 X131.958 Y107.146 E2966.05836
G1 X131.968 Y107.261 E2966.11595
G1 X133.309 Y119.67 E2972.34287
G1 X133.414 Y121.606 E2973.31016
G1 X133.72 Y135.483 E2980.23511
G1 X133.363 Y140.248 E2982.61904
G1 X133.025 Y149.331 E2987.1537
G1 X132.338 Y154.733 E2989.87048
G1 X131.575 Y160.779 E2992.91077
G1 X129.876 Y170.814 E2997.9885
G1 X129.684 Y171.828 E2998.50337
G1 X129.414 Y172.886 E2999.04813
G1 X129.259 Y173.076 E2999.17046
G1 X127.765 Y175.145 E3000.44367
G1 X125.264 Y183.053 E3004.58159
G1 X124.031 Y186.271 E3006.30087
G1 X122.759 Y189.366 E3007.9703
G1 X121.655 Y190.878 E3008.90432
G1 X120.183 Y192.584 E3010.02848
G1 X119.412 Y192.64 E3010.41414
G1 X118.895 Y192.733 E3010.67622
G1 X118.976 Y197.922 E3013.26533
G1 X119.495 Y197.922 E3013.52426
G1 X119.132 Y199.555 E3014.35886
G1 X118.789 Y201.294 E3015.24316
G1 X118.322 Y201.294 E3015.47615
G1 X118.285 Y202.964 E3016.30952
G1 X118.225 Y203.747 E3016.70131
G1 X118.267 Y205.46 E3017.55618
G1 X118.285 Y205.873 E3017.76242
G1 X117.938 Y206.265 E3018.02361
G1 X117.895 Y206.308 E3018.05395
G1 X117.35 Y206.308 E3018.32585
G0 F10500 X117.594 Y205.89
G0 X117.483 Y205.499
G0 X117.179 Y201.066
G0 X117.072 Y200.784
G0 X117.072 Y200.504
;TYPE:SKIN
G1 F2100 X116.691 Y198.712 E3019.23987
G1 X117.027 Y198.712 E3019.4075
G1 X117.068 Y196.16 E3020.68086
G1 X117.112 Y192.051 E3022.73097
G1 X115.478 Y191.845 E3023.55262
G1 X113.173 Y188.973 E3025.38987
G1 X111.932 Y185.977 E3027.00774
G1 X110.71 Y182.802 E3028.70502
G1 X108.23 Y174.462 E3033.04593
G1 X106.613 Y172.26 E3034.4089
G1 X106.583 Y172.223 E3034.43267
G1 X106.403 Y171.509 E3034.80003
G1 X106.249 Y170.706 E3035.20795
G1 X104.445 Y160.608 E3040.32562
G1 X103.692 Y154.686 E3043.30391
G1 X103.278 Y148.641 E3046.32683
G1 X102.689 Y139.827 E3050.73396
G1 X102.256 Y135.08 E3053.11208
G1 X102.449 Y122.236 E3059.52071
G1 X102.396 Y120.368 E3060.45303
G1 X102.556 Y119.709 E3060.79136
G1 X102.725 Y118.954 E3061.17735
G1 X104.306 Y109.889 E3065.76816
G1 X104.621 Y106.873 E3067.28104
G1 X107.697 Y95.933 E3072.95067
G1 X108.18 Y94.315 E3073.79309
G1 X110.109 Y91.261 E3075.59522
G1 X110.877 Y89.85 E3076.39669
G1 X113.328 Y87.165 E3078.21044
G1 X113.874 Y86.647 E3078.58592
G1 X117.547 Y85.545 E3080.49909
G1 X117.595 Y84.366 E3081.08778
G1 X117.637 Y83.86 E3081.34109
G1 X117.661 Y84.262 E3081.54201
G1 X117.697 Y85.474 E3082.14694
G1 X120.284 Y86.258 E3083.49557
G1 X121.226 Y86.583 E3083.99272
G1 X124.219 Y89.519 E3086.08443
G1 X124.667 Y89.929 E3086.38741
G1 X127.023 Y94.307 E3088.86779
G1 X127.562 Y96.129 E3089.81573
G1 X131.18 Y107.308 E3095.67778
G1 X132.521 Y119.734 E3101.91313
G1 X132.624 Y121.623 E3102.85696
G1 X132.93 Y135.48 E3109.77193
G1 X132.574 Y140.204 E3112.13542
G1 X132.236 Y149.281 E3116.66709
G1 X131.555 Y154.634 E3119.35924
G1 X130.794 Y160.664 E3122.39148
G1 X129.108 Y170.623 E3127.43075
G1 X128.912 Y171.655 E3127.95482
G1 X128.691 Y172.522 E3128.4012
G1 X128.632 Y172.594 E3128.44764
G1 X127.05 Y174.786 E3129.7963
G1 X124.523 Y182.778 E3133.97809
G1 X123.297 Y185.978 E3135.68774
G1 X122.064 Y188.978 E3137.30592
G1 X121.036 Y190.386 E3138.17568
G1 X119.8 Y191.82 E3139.12018
G1 X119.313 Y191.855 E3139.36378
G1 X118.095 Y192.073 E3139.98109
G1 X118.198 Y198.712 E3143.2937
G1 X118.51 Y198.712 E3143.44936
G1 X118.358 Y199.393 E3143.79747
G1 X118.141 Y200.504 E3144.36223
G1 X117.072 Y200.504 E3144.89555
G0 F10500 X117.753 Y200.343
G1 F2100 X117.052 Y199.642 E3145.39015
G0 F10500 X116.9 Y198.924
G1 F2100 X118.06 Y200.085 E3146.20894
G0 F10500 X118.153 Y199.612
G1 F2100 X117.188 Y198.647 E3146.8898
G0 F10500 X117.197 Y198.09
G1 F2100 X118.25 Y199.143 E3147.63275
G0 F10500 X118.032 Y198.359
G1 F2100 X117.206 Y197.533 E3148.21554
G0 F10500 X117.214 Y196.976
G1 F2100 X118.023 Y197.785 E3148.78633
G0 F10500 X118.014 Y197.21
G1 F2100 X117.224 Y196.42 E3149.34372
G0 F10500 X117.231 Y195.861
G1 F2100 X118.005 Y196.635 E3149.88982
G0 F10500 X117.997 Y196.061
G1 F2100 X117.236 Y195.301 E3150.42639
G0 F10500 X117.243 Y194.742
G1 F2100 X117.987 Y195.486 E3150.95132
G0 F10500 X117.979 Y194.912
G1 F2100 X117.248 Y194.182 E3151.46673
G0 F10500 X117.255 Y193.622
G1 F2100 X117.97 Y194.337 E3151.9712
G0 F10500 X117.96 Y193.762
G1 F2100 X117.26 Y193.062 E3152.46509
G0 F10500 X117.267 Y192.503
G1 F2100 X117.952 Y193.188 E3152.94839
G0 F10500 X117.943 Y192.613
G1 F2100 X117.272 Y191.943 E3153.42147
G1 X117.234 Y191.905
G1 X112.67 Y187.34 E3156.64197
G0 F10500 X112.262 Y187.508
G0 X111.863 Y186.542
G0 X112.27 Y186.375
G1 F2100 X117.934 Y192.039 E3160.63823
G0 F10500 X118.328 Y191.867
G1 F2100 X111.894 Y185.433 E3165.17776
G0 F10500 X111.54 Y184.513
G1 F2100 X118.808 Y191.781 E3170.30573
G0 F10500 X119.288 Y191.695
G1 F2100 X111.186 Y183.593 E3176.02213
G0 F10500 X110.841 Y182.683
G1 F2100 X119.769 Y191.611 E3182.32131
G0 F10500 X120.03 Y191.307
G1 F2100 X110.602 Y181.878 E3188.97363
G0 F10500 X110.363 Y181.073
G1 F2100 X120.292 Y191.002 E3195.97908
G0 F10500 X120.554 Y190.699
G1 F2100 X110.123 Y180.268 E3203.33871
G0 F10500 X109.884 Y179.463
G1 F2100 X120.816 Y190.395 E3211.05183
G0 F10500 X121.063 Y190.076
G1 F2100 X109.644 Y178.658 E3219.10819
G0 F10500 X109.405 Y177.853
G1 F2100 X121.301 Y189.749 E3227.50146
G0 F10500 X121.54 Y189.422
G1 F2100 X109.165 Y177.048 E3236.23234
G0 F10500 X108.926 Y176.243
G1 F2100 X121.778 Y189.095 E3245.30012
G0 F10500 X121.988 Y188.739
G1 F2100 X108.687 Y175.438 E3254.6847
G0 F10500 X108.448 Y174.633
G1 F2100 X122.153 Y188.338 E3264.35431
G0 F10500 X122.318 Y187.937
G1 F2100 X107.282 Y172.901 E3274.96302
G0 F10500 X106.927 Y173.161
G0 X106.487 Y172.481
G0 X106.179 Y171.765
G0 X106.605 Y171.659
G1 F2100 X122.482 Y187.536 E3286.16511
G0 F10500 X122.647 Y187.135
G1 F2100 X106.457 Y170.945 E3297.58803
G0 F10500 X106.33 Y170.252
G1 F2100 X122.812 Y186.734 E3309.21697
G0 F10500 X122.977 Y186.333
G1 F2100 X106.207 Y169.564 E3321.04875
G0 F10500 X106.084 Y168.875
G1 F2100 X123.141 Y185.933 E3333.08374
G0 F10500 X123.298 Y185.524
G1 F2100 X105.961 Y168.186 E3345.31628
G0 F10500 X105.838 Y167.498
G1 F2100 X123.455 Y185.115 E3357.74603
G0 F10500 X123.612 Y184.706
G1 F2100 X105.715 Y166.809 E3370.37333
G0 F10500 X105.592 Y166.12
G1 F2100 X123.769 Y184.297 E3383.19819
G0 F10500 X123.926 Y183.888
G1 F2100 X105.469 Y165.431 E3396.2206
G0 F10500 X105.346 Y164.743
G1 F2100 X124.082 Y183.479 E3409.43986
G0 F10500 X124.239 Y183.07
G1 F2100 X105.223 Y164.054 E3422.85667
G0 F10500 X105.1 Y163.365
G1 F2100 X124.392 Y182.658 E3436.46857
G0 F10500 X124.529 Y182.229
G1 F2100 X104.977 Y162.676 E3450.26392
G0 F10500 X104.854 Y161.988
G1 F2100 X124.665 Y181.799 E3464.24165
G0 F10500 X124.8 Y181.369
G1 F2100 X104.73 Y161.299 E3478.40212
G0 F10500 X104.607 Y160.61
G1 F2100 X124.936 Y180.939 E3492.74532
G0 F10500 X125.072 Y180.509
G1 F2100 X104.523 Y159.96 E3507.24375
G0 F10500 X104.441 Y159.312
G1 F2100 X125.208 Y180.079 E3521.89599
G0 F10500 X125.344 Y179.65
G1 F2100 X104.358 Y158.664 E3536.70275
G0 F10500 X104.276 Y158.016
G1 F2100 X125.48 Y179.22 E3551.66332
G0 F10500 X125.616 Y178.79
G1 F2100 X104.193 Y157.368 E3566.77805
G0 F10500 X104.11 Y156.719
G1 F2100 X125.751 Y178.36 E3582.04694
G0 F10500 X125.887 Y177.93
G1 F2100 X104.028 Y156.071 E3597.46965
G0 F10500 X103.946 Y155.423
G1 F2100 X126.023 Y177.5 E3613.04616
G0 F10500 X126.159 Y177.071
G1 F2100 X103.863 Y154.775 E3628.77719
G0 F10500 X103.816 Y154.162
G1 F2100 X126.295 Y176.641 E3644.63734
G0 F10500 X126.431 Y176.211
G1 F2100 X103.774 Y153.554 E3660.62308
G0 F10500 X103.733 Y152.947
G1 F2100 X126.567 Y175.781 E3676.7337
G0 F10500 X126.702 Y175.351
G1 F2100 X103.691 Y152.34 E3692.9692
G0 F10500 X103.649 Y151.733
G1 F2100 X126.838 Y174.921 E3709.32994
G0 F10500 X127.026 Y174.544
G1 F2100 X103.608 Y151.125 E3725.85296
G0 F10500 X103.566 Y150.518
G1 F2100 X127.263 Y174.215 E3742.57247
G0 F10500 X127.5 Y173.886
G1 F2100 X103.525 Y149.911 E3759.48813
G0 F10500 X103.483 Y149.304
G1 F2100 X127.738 Y173.558 E3776.60099
G0 F10500 X127.975 Y173.229
G1 F2100 X103.441 Y148.696 E3793.9107
G0 F10500 X103.401 Y148.09
G1 F2100 X128.211 Y172.901 E3811.41585
G0 F10500 X128.449 Y172.572
G1 F2100 X103.36 Y147.484 E3829.11714
G0 F10500 X103.32 Y146.878
G1 F2100 X128.614 Y172.172 E3846.96342
G0 F10500 X128.73 Y171.722
G1 F2100 X103.28 Y146.272 E3864.91977
G0 F10500 X103.239 Y145.665
G1 F2100 X128.825 Y171.252 E3882.97243
G0 F10500 X128.916 Y170.776
G1 F2100 X103.198 Y145.059 E3901.11752
G0 F10500 X103.158 Y144.453
G1 F2100 X129.001 Y170.296 E3919.35115
G0 F10500 X129.083 Y169.812
G1 F2100 X103.117 Y143.846 E3937.67156
G0 F10500 X103.077 Y143.24
G1 F2100 X129.165 Y169.328 E3956.07806
G0 F10500 X129.247 Y168.845
G1 F2100 X103.036 Y142.634 E3974.57133
G0 F10500 X102.995 Y142.028
G1 F2100 X129.329 Y168.361 E3993.15104
G0 F10500 X129.411 Y167.877
G1 F2100 X102.955 Y141.422 E4011.81682
G0 F10500 X102.914 Y140.815
G1 F2100 X129.492 Y167.393 E4030.56904
G0 F10500 X129.574 Y166.909
G1 F2100 X102.874 Y140.209 E4049.40733
G0 F10500 X102.828 Y139.597
G1 F2100 X129.656 Y166.426 E4068.33629
G0 F10500 X129.738 Y165.942
G1 F2100 X102.771 Y138.975 E4087.36296
G0 F10500 X102.714 Y138.352
G1 F2100 X129.82 Y165.458 E4106.48771
G0 F10500 X129.902 Y164.975
G1 F2100 X102.657 Y137.73 E4125.71053
G0 F10500 X102.601 Y137.108
G1 F2100 X129.984 Y164.491 E4145.03071
G0 F10500 X130.065 Y164.007
G1 F2100 X102.543 Y136.485 E4164.44897
G0 F10500 X102.487 Y135.862
G92 E0
G1 F2100 X130.147 Y163.523 E19.51598
G0 F10500 X130.229 Y163.039
G1 F2100 X102.43 Y135.24 E39.12967
G0 F10500 X102.421 Y134.665
G1 F2100 X130.312 Y162.556 E58.80828
G0 F10500 X130.394 Y162.072
G1 F2100 X102.43 Y134.108 E78.53839
G0 F10500 X102.438 Y133.551
G1 F2100 X130.476 Y161.588 E98.32036
G0 F10500 X130.557 Y161.104
G1 F2100 X102.447 Y132.994 E118.15349
G0 F10500 X102.455 Y132.436
G1 F2100 X130.638 Y160.62 E138.03847
G0 F10500 X130.702 Y160.117
G1 F2100 X102.464 Y131.879 E157.9619
G0 F10500 X102.472 Y131.322
G1 F2100 X130.765 Y159.615 E177.92414
G0 F10500 X130.829 Y159.113
G1 F2100 X102.48 Y130.764 E197.92589
G0 F10500 X102.488 Y130.207
G1 F2100 X130.892 Y158.611 E217.96645
G0 F10500 X130.956 Y158.109
G1 F2100 X102.497 Y129.65 E238.04581
G0 F10500 X102.505 Y129.092
G1 F2100 X131.019 Y157.607 E258.16433
G0 F10500 X131.082 Y157.104
G1 F2100 X102.514 Y128.535 E278.32095
G0 F10500 X102.522 Y127.978
G1 F2100 X131.146 Y156.602 E298.51673
G0 F10500 X131.21 Y156.1
G1 F2100 X102.531 Y127.421 E318.75131
G0 F10500 X102.539 Y126.864
G1 F2100 X131.273 Y155.598 E339.0247
G0 F10500 X131.336 Y155.095
G1 F2100 X102.548 Y126.306 E359.33654
G0 F10500 X102.555 Y125.749
G1 F2100 X131.4 Y154.593 E379.68789
G0 F10500 X131.463 Y154.091
G1 F2100 X102.564 Y125.191 E400.07805
G0 F10500 X102.572 Y124.634
G1 F2100 X131.528 Y153.589 E420.50772
G0 F10500 X131.591 Y153.087
G1 F2100 X102.581 Y124.077 E440.97584
G0 F10500 X102.589 Y123.52
G1 F2100 X131.655 Y152.585 E461.48312
G0 F10500 X131.719 Y152.083
G1 F2100 X102.598 Y122.963 E482.02921
G0 F10500 X102.606 Y122.405
G1 F2100 X131.782 Y151.581 E502.61445
G0 F10500 X131.847 Y151.08
G1 F2100 X102.597 Y121.83 E523.25191
G0 F10500 X102.581 Y121.249
G1 F2100 X131.91 Y150.578 E543.9451
G0 F10500 X131.974 Y150.076
G1 F2100 X102.565 Y120.667 E564.69474
G0 F10500 X102.613 Y120.149
G1 F2100 X132.038 Y149.574 E585.45567
G0 F10500 X132.084 Y149.055
G1 F2100 X102.722 Y119.693 E606.17214
G0 F10500 X102.826 Y119.23
G1 F2100 X132.105 Y148.51 E626.83041
G0 F10500 X132.125 Y147.964
G1 F2100 X102.92 Y118.759 E647.43612
G0 F10500 X103.004 Y118.277
G1 F2100 X132.145 Y147.419 E667.99702
G0 F10500 X132.166 Y146.873
G1 F2100 X103.088 Y117.796 E688.51277
G0 F10500 X103.172 Y117.314
G1 F2100 X132.186 Y146.328 E708.98371
G0 F10500 X132.206 Y145.782
G1 F2100 X103.256 Y116.833 E729.40914
G0 F10500 X103.34 Y116.35
G1 F2100 X132.226 Y145.237 E749.79013
G0 F10500 X132.247 Y144.692
G1 F2100 X103.424 Y115.869 E770.12631
G0 F10500 X103.508 Y115.387
G1 F2100 X132.267 Y144.146 E790.41734
G0 F10500 X132.287 Y143.601
G1 F2100 X103.592 Y114.906 E810.66321
G0 F10500 X103.676 Y114.424
G1 F2100 X132.308 Y143.056 E830.86464
G0 F10500 X132.328 Y142.511
G1 F2100 X103.76 Y113.942 E851.02126
G0 F10500 X103.844 Y113.46
G1 F2100 X132.348 Y141.965 E871.13272
G0 F10500 X132.368 Y141.419
G1 F2100 X103.928 Y112.979 E891.19868
G0 F10500 X104.012 Y112.497
G1 F2100 X132.389 Y140.874 E911.22018
G0 F10500 X132.409 Y140.328
G1 F2100 X104.096 Y112.016 E931.19618
G0 F10500 X104.18 Y111.534
G1 F2100 X132.444 Y139.798 E951.13796
G0 F10500 X132.484 Y139.272
G1 F2100 X104.264 Y111.052 E971.04869
G0 F10500 X104.348 Y110.57
G1 F2100 X132.523 Y138.746 E990.92803
G0 F10500 X132.563 Y138.22
G1 F2100 X104.432 Y110.089 E1010.77597
G0 F10500 X104.497 Y109.588
G1 F2100 X132.603 Y137.694 E1030.60627
G0 F10500 X132.643 Y137.168
G1 F2100 X104.55 Y109.076 E1050.42705
G0 F10500 X104.604 Y108.564
G1 F2100 X132.682 Y136.642 E1070.23759
G0 F10500 X132.722 Y136.116
G1 F2100 X104.658 Y108.052 E1090.03826
G0 F10500 X104.711 Y107.54
G1 F2100 X132.762 Y135.59 E1109.8294
G0 F10500 X132.76 Y135.022
G1 F2100 X104.765 Y107.028 E1129.58104
G0 F10500 X104.872 Y106.569
G1 F2100 X132.747 Y134.444 E1149.24835
G0 F10500 X132.734 Y133.865
G1 F2100 X104.996 Y106.128 E1168.81866
G0 F10500 X105.12 Y105.686
G1 F2100 X132.721 Y133.287 E1188.29265
G0 F10500 X132.709 Y132.709
G1 F2100 X105.245 Y105.245 E1207.66999
G0 F10500 X105.368 Y104.803
G1 F2100 X132.696 Y132.13 E1226.95102
G0 F10500 X132.683 Y131.552
G1 F2100 X105.493 Y104.361 E1246.13538
G0 F10500 X105.617 Y103.919
G1 F2100 X132.67 Y130.973 E1265.22309
G0 F10500 X132.657 Y130.394
G1 F2100 X105.741 Y103.478 E1284.21378
G0 F10500 X105.865 Y103.036
G1 F2100 X132.644 Y129.816 E1303.10816
G0 F10500 X132.632 Y129.237
G1 F2100 X105.989 Y102.595 E1321.90589
G0 F10500 X106.113 Y102.153
G1 F2100 X132.619 Y128.659 E1340.6073
G0 F10500 X132.606 Y128.081
G1 F2100 X106.237 Y101.712 E1359.21206
G0 F10500 X106.361 Y101.27
G1 F2100 X132.593 Y127.502 E1377.72015
G0 F10500 X132.581 Y126.924
G1 F2100 X106.486 Y100.829 E1396.13158
G0 F10500 X106.609 Y100.387
G1 F2100 X132.568 Y126.345 E1414.4467
G0 F10500 X132.555 Y125.767
G1 F2100 X106.734 Y99.946 E1432.66481
G0 F10500 X106.857 Y99.504
G1 F2100 X132.542 Y125.189 E1450.78697
G0 F10500 X132.53 Y124.61
G1 F2100 X106.982 Y99.062 E1468.81246
G0 F10500 X107.106 Y98.62
G1 F2100 X132.517 Y124.032 E1486.74165
G0 F10500 X132.504 Y123.453
G1 F2100 X107.23 Y98.179 E1504.57382
G0 F10500 X107.354 Y97.737
G1 F2100 X132.492 Y122.875 E1522.31004
G0 F10500 X132.478 Y122.296
G1 F2100 X107.478 Y97.296 E1539.94889
G0 F10500 X107.602 Y96.854
G1 F2100 X132.465 Y121.717 E1557.49108
G0 F10500 X132.436 Y121.122
G1 F2100 X107.727 Y96.413 E1574.92461
G0 F10500 X107.85 Y95.971
G1 F2100 X132.402 Y120.523 E1592.24737
G0 F10500 X132.37 Y119.925
G1 F2100 X107.98 Y95.535 E1609.45584
G0 F10500 X108.11 Y95.1
G1 F2100 X132.312 Y119.301 E1626.5313
G0 F10500 X132.243 Y118.667
G1 F2100 X108.241 Y94.664 E1643.46636
G0 F10500 X108.402 Y94.26
G1 F2100 X132.175 Y118.033 E1660.2395
G0 F10500 X132.107 Y117.399
G1 F2100 X108.621 Y93.913 E1676.81014
G0 F10500 X108.839 Y93.566
G1 F2100 X132.038 Y116.765 E1693.17829
G0 F10500 X131.97 Y116.13
G1 F2100 X109.059 Y93.22 E1709.34288
G0 F10500 X109.278 Y92.873
G1 F2100 X131.901 Y115.496 E1725.30463
G0 F10500 X131.833 Y114.863
G1 F2100 X109.496 Y92.526 E1741.06459
G0 F10500 X109.716 Y92.179
G1 F2100 X131.765 Y114.228 E1756.62135
G0 F10500 X131.696 Y113.594
G1 F2100 X109.935 Y91.833 E1771.97491
G0 F10500 X110.154 Y91.486
G1 F2100 X131.627 Y112.96 E1787.12562
G0 F10500 X131.559 Y112.326
G1 F2100 X110.362 Y91.129 E1802.08125
G0 F10500 X110.561 Y90.762
G1 F2100 X131.491 Y111.692 E1816.8485
G0 F10500 X131.422 Y111.058
G1 F2100 X110.761 Y90.396 E1831.4263
G0 F10500 X110.96 Y90.03
G1 F2100 X131.354 Y110.423 E1845.81502
G0 F10500 X131.285 Y109.789
G1 F2100 X111.214 Y89.718 E1859.97619
G0 F10500 X111.483 Y89.422
G1 F2100 X131.217 Y109.155 E1873.89924
G0 F10500 X131.149 Y108.521
G1 F2100 X111.753 Y89.126 E1887.58382
G0 F10500 X112.024 Y88.83
G1 F2100 X131.08 Y107.887 E1901.02921
G0 F10500 X130.983 Y107.224
G1 F2100 X112.293 Y88.534 E1914.21601
G0 F10500 X112.563 Y88.239
G1 F2100 X130.712 Y106.388 E1927.02111
G0 F10500 X130.442 Y105.552
G1 F2100 X112.833 Y87.943 E1939.44521
G0 F10500 X113.103 Y87.648
G1 F2100 X130.171 Y104.716 E1951.48761
G0 F10500 X129.901 Y103.879
G1 F2100 X113.373 Y87.351 E1963.149
G0 F10500 X113.658 Y87.071
G1 F2100 X129.63 Y103.043 E1974.41811
G0 F10500 X129.36 Y102.207
G1 F2100 X113.948 Y86.795 E1985.29211
G0 F10500 X114.38 Y86.662
G1 F2100 X129.089 Y101.37 E1995.66975
G0 F10500 X128.818 Y100.534
G1 F2100 X114.815 Y86.531 E2005.54962
G0 F10500 X115.251 Y86.401
G1 F2100 X128.548 Y99.698 E2014.93138
G0 F10500 X128.277 Y98.862
G1 F2100 X115.686 Y86.27 E2023.81536
G0 F10500 X116.121 Y86.139
G1 F2100 X128.006 Y98.025 E2032.20122
G0 F10500 X127.736 Y97.189
G1 F2100 X116.556 Y86.009 E2040.08931
G0 F10500 X116.991 Y85.878
G1 F2100 X127.465 Y96.353 E2047.47964
G0 F10500 X127.221 Y95.542
G1 F2100 X117.426 Y85.748 E2054.39019
G0 F10500 X117.967 Y85.723
G1 F2100 X126.982 Y94.738 E2060.75076
G0 F10500 X127.406 Y94.614
G0 X126.907 Y93.501
G0 X126.519 Y93.709
G1 F2100 X118.779 Y85.969 E2066.21175
G0 F10500 X119.59 Y86.215
G1 F2100 X125.86 Y92.484 E2070.63522
G0 F10500 X126.248 Y92.276
G0 X125.589 Y91.051
G0 X125.201 Y91.259
G1 F2100 X120.413 Y86.472 E2074.01306
G1 F2700 E2069.01306
G0 F10500 X120.557 Y86.057
G0 X117.905 Y85.315
G0 X117.697 Y81.63
G0 X117.376 Y84.356
G0 X117.342 Y85.385
G0 X113.762 Y86.452
G0 X113.176 Y87.006
G0 X110.693 Y89.726
G0 X107.978 Y94.226
G0 X104.405 Y106.829
G0 X102.176 Y120.346
G0 X102.037 Y135.086
G0 X103.473 Y154.69
G0 X104.229 Y160.645
G0 X106.187 Y171.551
G0 X106.438 Y172.393
G0 X108.031 Y174.56
G0 X110.501 Y182.869
G0 X112.662 Y188.474
G1 F2700 E2074.01306
G0 F10500 X113.07 Y188.306
G1 F2100 X116.587 Y191.823 E2076.49449
G0 F10500 X115.94 Y191.741
G1 F2100 X114.221 Y190.023 E2077.70699
G0 F10500 X113.878 Y190.298
G0 X115.187 Y192.367
G0 X116.546 Y192.544
G0 X116.44 Y198.507
G0 X116.901 Y200.715
G0 X117.522 Y200.784
G0 X117.522 Y200.678
;TYPE:SKIN
G1 F2100 X117.77 Y200.925 E2077.7943
G0 F10500 X117.509 Y200.948
G1 F2100 X117.763 Y201.202 E2077.8839
G0 F10500 X117.511 Y201.233
G1 F2100 X117.758 Y201.479 E2077.97086
G0 F10500 X117.514 Y201.518
G1 F2100 X117.751 Y201.755 E2078.05447
G0 F10500 X117.515 Y201.802
G1 F2100 X117.746 Y202.033 E2078.13596
G0 F10500 X117.517 Y202.087
G1 F2100 X117.739 Y202.309 E2078.21428
G0 F10500 X117.519 Y202.372
G1 F2100 X117.733 Y202.586 E2078.28977
G0 F10500 X117.521 Y202.657
G1 F2100 X117.727 Y202.863 E2078.36245
G0 F10500 X117.523 Y202.941
G1 F2100 X117.711 Y203.129 E2078.42877
G0 F10500 X117.525 Y203.226
G1 F2100 X117.691 Y203.392 E2078.48733
G0 F10500 X117.527 Y203.511
G1 F2100 X117.671 Y203.655 E2078.53813
G0 F10500 X117.527 Y203.794
G1 F2100 X117.67 Y203.937 E2078.58858
G0 F10500 X117.525 Y204.075
G1 F2100 X117.677 Y204.227 E2078.6422
G0 F10500 X117.523 Y204.356
G1 F2100 X117.684 Y204.517 E2078.69899
G0 F10500 X117.514 Y204.629
G1 F2100 X117.691 Y204.807 E2078.76161
G0 F10500 X117.499 Y204.898
G1 F2100 X117.698 Y205.097 E2078.83182
G0 F10500 X117.485 Y205.167
G1 F2100 X117.704 Y205.386 E2078.90907
G0 F10500 X117.471 Y205.435
G1 F2100 X117.711 Y205.675 E2078.99374
G1 F2700 E2073.99374
G0 F10500 X117.758 Y205.688
G0 X118.152 Y200.716
G0 X118.765 Y198.507
G0 X118.307 Y192.249
G0 X119.904 Y192.029
G0 X121.203 Y190.528
G0 X122.257 Y189.083
G0 X123.501 Y186.06
G0 X124.731 Y182.848
G0 X127.248 Y174.884
G0 X128.892 Y172.622
G0 X129.316 Y170.708
G0 X131.01 Y160.699
G0 X132.455 Y149.29
G0 X133.149 Y135.472
G0 X132.843 Y121.619
G0 X132.74 Y119.721
G0 X131.396 Y107.266
G0 X127.229 Y94.228
G0 X124.843 Y89.794
G0 X121.343 Y86.392
G0 X117.905 Y85.315
G0 X117.697 Y81.63
G0 X117.374 Y83.663
G1 F2700 E2078.99374
G0 F10500 X117.625 Y83.684
G1 F2100 X117.436 Y83.495 E2079.06041
G0 F10500 X117.458 Y83.234
G1 F2100 X117.853 Y83.629 E2079.19976
G0 F10500 X117.835 Y83.328
G1 F2100 X117.48 Y82.973 E2079.325
G0 F10500 X117.501 Y82.711
G1 F2100 X117.818 Y83.028 E2079.43683
G0 F10500 X117.801 Y82.728
G1 F2100 X117.523 Y82.45 E2079.5349
G0 F10500 X117.779 Y82.423
G1 F2100 X117.545 Y82.189 E2079.61745
G0 F10500 X117.757 Y82.119
G1 F2100 X117.566 Y81.928 E2079.68483
G0 F10500 X117.736 Y81.815
G1 F2100 X117.588 Y81.667 E2079.73704
G0 F10500 X117.628 Y81.671
G1 F2700 E2074.73704
;MESH:NONMESH
G0 F300 X117.628 Y81.671 Z15.28
G0 F10500 X117.541 Y81.663
G0 X117.342 Y85.385
G0 X113.762 Y86.452
G0 X113.176 Y87.006
G0 X110.693 Y89.726
G0 X107.978 Y94.226
G0 X104.405 Y106.829
G0 X102.176 Y120.346
G0 X102.037 Y135.086
G0 X103.473 Y154.69
G0 X104.229 Y160.645
G0 X106.187 Y171.551
G0 X106.438 Y172.393
G0 X108.031 Y174.56
G0 X110.501 Y182.869
G0 X111.729 Y186.06
G0 X112.98 Y189.084
G0 X115.365 Y192.049
G0 X116.9 Y192.235
G0 X116.44 Y198.507
G0 X116.901 Y200.715
G0 X117.558 Y200.995
G0 X117.483 Y205.499
G0 X117.559 Y206.008
G1 F2700 E2079.73704
G0 F10500 X117.559 Y206.465
;TIME_ELAPSED:535.433507
;LAYER:5
;TYPE:WALL-INNER
;MESH:Boat.stl
G1 F2100 X117.356 Y206.177 E2079.91283
G1 X117.396 Y205.424 E2080.28903
G1 X117.406 Y204.222 E2080.88873
G1 X117.39 Y202.135 E2081.92997
G1 X117.333 Y201.468 E2082.26395
G1 X117.93 Y201.468 E2082.5618
G1 X117.896 Y203.008 E2083.3303
G1 X117.801 Y204.255 E2083.95423
G1 X117.836 Y205.662 E2084.6564
G1 X117.862 Y206.312 E2084.98095
G1 X117.727 Y206.465 E2085.08274
G1 X117.559 Y206.465 E2085.16656
G0 F10500 X117.35 Y206.865
;TYPE:WALL-OUTER
G1 F2100 X117.034 Y206.414 E2085.4413
G1 X116.948 Y206.327 E2085.50233
G1 X116.996 Y205.412 E2085.95945
G1 X117.006 Y204.222 E2086.55317
G1 X116.99 Y202.154 E2087.58493
G1 X116.897 Y201.068 E2088.12872
G1 X118.339 Y201.068 E2088.84814
G1 X118.296 Y203.03 E2089.82722
G1 X118.201 Y204.265 E2090.44518
G1 X118.236 Y205.649 E2091.13588
G1 X118.269 Y206.457 E2091.53933
G1 X118.024 Y206.734 E2091.72383
G1 X117.894 Y206.865 E2091.8159
G1 X117.35 Y206.865 E2092.0873
G0 F10500 X117.594 Y206.447
G0 X117.512 Y203.745
G0 X117.562 Y203.746
;TYPE:SKIN
G1 F2100 X117.688 Y203.62 E2092.1762
G0 F10500 X117.558 Y203.185
G1 F2100 X117.735 Y203.008 E2092.30109
G0 F10500 X117.554 Y202.623
G1 F2100 X117.748 Y202.429 E2092.43797
G0 F10500 X117.545 Y202.067
G1 F2100 X117.76 Y201.851 E2092.59001
G0 F10500 X117.811 Y201.852
G0 X117.688 Y205.364
G0 X117.612 Y205.394
;TYPE:SKIN
G1 F2100 X117.607 Y205.681 E2092.63847
G1 X117.648 Y206.206 E2092.72737
G0 F10500 X117.56 Y206.104
G1 F2700 E2087.72737
G0 F10500 X117.129 Y201.281
G0 X117.129 Y199.526
G0 X116.599 Y199.346
;TYPE:WALL-INNER
G1 F2700 E2092.72737
G1 F2100 X116.676 Y194.672 E2095.05956
G1 X114.25 Y194.556 E2096.27128
G1 X113.118 Y194.46 E2096.83806
G1 X111.812 Y194.128 E2097.51035
G1 X110.713 Y193.699 E2098.09894
G1 X109.541 Y193.497 E2098.69227
G1 X109.379 Y193.071 E2098.91965
G1 X108.173 Y192.103 E2099.69117
G1 X108.002 Y191.957 E2099.80335
G1 X106.794 Y187.965 E2101.88416
G1 X105.556 Y184.088 E2103.91462
G1 X103.796 Y177.152 E2107.48467
G1 X101.75 Y172.485 E2110.02697
G1 X101.662 Y172.051 E2110.2479
G1 X101.613 Y171.769 E2110.39069
G1 X99.813 Y160.96 E2115.85759
G1 X99.354 Y157.066 E2117.81376
G1 X98.462 Y148.833 E2121.94526
G1 X98.277 Y142.61 E2125.0513
G1 X98.017 Y135.001 E2128.84966
G1 X98.433 Y125.586 E2133.55141
G1 X98.659 Y120.214 E2136.23388
G1 X100.854 Y105.929 E2143.44434
G1 X103.264 Y98.399 E2147.38879
G1 X104.921 Y92.951 E2150.22974
G1 X107.058 Y89.439 E2152.28076
G1 X108.356 Y87.404 E2153.48497
G1 X110.422 Y85.719 E2154.81505
G1 X112.825 Y83.418 E2156.4749
G1 X115.283 Y82.843 E2157.73431
G1 X117.153 Y82.346 E2158.69964
G1 X117.431 Y79.016 E2160.36677
G1 X117.554 Y78.766 E2160.50577
G1 X117.619 Y78.662 E2160.56696
G1 X117.708 Y78.698 E2160.61485
G1 X117.75 Y78.779 E2160.62948
G1 X117.894 Y79.074 E2160.79325
G1 X118.089 Y81.82 E2162.16669
G1 X118.125 Y82.417 E2162.46507
G1 X119.725 Y82.848 E2163.29177
G1 X122.242 Y83.43 E2164.58064
G1 X124.271 Y85.217 E2165.92954
G1 X126.891 Y87.389 E2167.62742
G1 X128.088 Y89.502 E2168.839
G1 X130.299 Y93.011 E2170.90819
G1 X131.936 Y97.906 E2173.48325
G1 X134.61 Y106.215 E2177.83801
G1 X135.09 Y110.387 E2179.93316
G1 X136.378 Y120.015 E2184.77938
G1 X136.692 Y126.929 E2188.23234
G1 X137.305 Y135.328 E2192.43377
G1 X137.065 Y141.913 E2195.72122
G1 X136.761 Y148.819 E2199.16997
G1 X135.894 Y157.16 E2203.35373
G1 X135.424 Y161.077 E2205.32195
G1 X134.219 Y172.035 E2210.82187
G1 X134.087 Y172.936 E2211.27618
G1 X133.708 Y174.462 E2212.06064
G1 X133.348 Y175.106 E2212.42872
G1 X131.459 Y177.075 E2213.79003
G1 X129.671 Y184.1 E2217.40655
G1 X128.453 Y188.061 E2219.47402
G1 X127.22 Y192.088 E2221.57516
G1 X127.084 Y192.209 E2221.66598
G1 X125.894 Y192.986 E2222.37503
G1 X125.702 Y193.491 E2222.64457
G1 X124.422 Y193.719 E2223.29321
G1 X123.497 Y194.133 E2223.79881
G1 X122.175 Y194.46 E2224.47824
G1 X121.099 Y194.568 E2225.01775
G1 X118.552 Y194.679 E2226.28966
G1 X118.625 Y199.346 E2228.61832
G1 X116.599 Y199.346 E2229.6291
G0 F10500 X116.192 Y199.746
;TYPE:WALL-OUTER
G1 F2100 X116.27 Y195.053 E2231.97077
G1 X114.224 Y194.956 E2232.99267
G1 X113.051 Y194.856 E2233.58
G1 X111.691 Y194.51 E2234.28012
G1 X110.605 Y194.086 E2234.86176
G1 X109.254 Y193.853 E2235.54573
G1 X109.197 Y193.717 E2235.6193
G1 X109.044 Y193.315 E2235.83389
G1 X107.915 Y192.409 E2236.55609
G1 X107.653 Y192.184 E2236.72839
G1 X106.412 Y188.084 E2238.86553
G1 X105.171 Y184.198 E2240.90073
G1 X103.416 Y177.282 E2244.46049
G1 X101.366 Y172.606 E2247.0077
G1 X101.27 Y172.13 E2247.24996
G1 X101.218 Y171.835 E2247.39941
G1 X99.418 Y161.026 E2252.8663
G1 X98.956 Y157.109 E2254.83405
G1 X98.063 Y148.862 E2258.97254
G1 X97.877 Y142.623 E2262.08657
G1 X97.616 Y134.997 E2265.89343
G1 X98.033 Y125.568 E2270.60217
G1 X98.26 Y120.182 E2273.29165
G1 X100.464 Y105.835 E2280.53336
G1 X102.882 Y98.28 E2284.49091
G1 X104.553 Y92.786 E2287.35585
G1 X106.716 Y89.231 E2289.43194
G1 X108.054 Y87.134 E2290.67296
G1 X110.157 Y85.419 E2292.0268
G1 X112.627 Y83.053 E2293.73322
G1 X115.186 Y82.455 E2295.04431
G1 X116.778 Y82.032 E2295.86612
G1 X117.038 Y78.907 E2297.43058
G1 X117.202 Y78.575 E2297.61532
G1 X117.423 Y78.222 E2297.8231
G1 X117.756 Y78.28 E2297.99173
G1 X118 Y78.393 E2298.12589
G1 X118.11 Y78.604 E2298.2446
G1 X118.287 Y78.968 E2298.44653
G1 X118.488 Y81.796 E2299.86099
G1 X118.507 Y82.106 E2300.01594
G1 X119.822 Y82.46 E2300.69535
G1 X122.429 Y83.062 E2302.03021
G1 X124.531 Y84.913 E2303.42755
G1 X127.203 Y87.128 E2305.15909
G1 X128.431 Y89.297 E2306.4026
G1 X130.663 Y92.839 E2308.49131
G1 X132.317 Y97.783 E2311.09225
G1 X135.002 Y106.127 E2315.46531
G1 X135.487 Y110.338 E2317.58007
G1 X136.778 Y119.989 E2322.43786
G1 X137.091 Y126.905 E2325.8918
G1 X137.706 Y135.328 E2330.10524
G1 X137.465 Y141.931 E2333.40168
G1 X137.16 Y148.855 E2336.85943
G1 X136.291 Y157.208 E2341.04925
G1 X135.821 Y161.123 E2343.01647
G1 X134.615 Y172.093 E2348.5224
G1 X134.481 Y173.008 E2348.98377
G1 X134.083 Y174.611 E2349.80779
G1 X133.671 Y175.348 E2350.22903
G1 X131.821 Y177.276 E2351.56211
G1 X130.057 Y184.206 E2355.12975
G1 X128.835 Y188.179 E2357.20353
G1 X127.57 Y192.312 E2359.35991
G1 X127.323 Y192.531 E2359.5246
G1 X126.222 Y193.25 E2360.18065
G1 X126.053 Y193.694 E2360.41766
G1 X125.991 Y193.846 E2360.49956
G1 X124.54 Y194.104 E2361.23482
G1 X123.628 Y194.512 E2361.73328
G1 X122.241 Y194.855 E2362.4461
G1 X121.122 Y194.968 E2363.00721
G1 X118.958 Y195.062 E2364.08785
G1 X119.031 Y199.746 E2366.42499
G1 X116.192 Y199.746 E2367.84138
G0 F10500 X116.466 Y199.476
G0 X116.716 Y198.952
G0 X116.995 Y198.956
;TYPE:SKIN
G1 F2100 X117.072 Y194.3 E2370.16458
G1 X114.269 Y194.166 E2371.5646
G1 X113.187 Y194.075 E2372.10632
G1 X111.93 Y193.756 E2372.75332
G1 X110.818 Y193.321 E2373.34903
G1 X109.828 Y193.151 E2373.85018
G1 X109.706 Y192.833 E2374.0201
G1 X108.417 Y191.799 E2374.84453
G1 X108.342 Y191.734 E2374.89404
G1 X107.166 Y187.85 E2376.91865
G1 X105.928 Y183.969 E2378.95101
G1 X104.166 Y177.025 E2382.52518
G1 X102.124 Y172.368 E2385.0621
G1 X102.044 Y171.973 E2385.26317
G1 X101.997 Y171.702 E2385.40039
G1 X100.201 Y160.915 E2390.85613
G1 X99.742 Y157.021 E2392.81231
G1 X98.852 Y148.805 E2396.93526
G1 X98.667 Y142.598 E2400.03332
G1 X98.407 Y135.009 E2403.82171
G1 X98.823 Y125.603 E2408.51897
G1 X99.049 Y120.253 E2411.19048
G1 X101.236 Y106.014 E2418.37765
G1 X103.636 Y98.516 E2422.30537
G1 X105.279 Y93.112 E2425.12329
G1 X107.387 Y89.649 E2427.14591
G1 X108.653 Y87.665 E2428.32008
G1 X110.681 Y86.011 E2429.62569
G1 X113.015 Y83.774 E2431.2386
G1 X115.377 Y83.221 E2432.44887
G1 X117.519 Y82.652 E2433.55458
G1 X117.648 Y81.108 E2434.32757
G1 X117.696 Y81.786 E2434.66667
G1 X117.753 Y82.721 E2435.13401
G1 X119.63 Y83.226 E2436.10375
G1 X122.057 Y83.788 E2437.34662
G1 X124.018 Y85.513 E2438.64962
G1 X126.587 Y87.643 E2440.31454
G1 X127.753 Y89.703 E2441.49549
G1 X129.945 Y93.18 E2443.54612
G1 X131.595 Y98.117 E2446.14312
G1 X134.226 Y106.293 E2450.42813
G1 X134.703 Y110.435 E2452.50824
G1 X135.988 Y120.033 E2457.33943
G1 X136.302 Y126.952 E2460.79489
G1 X136.915 Y135.325 E2464.98337
G1 X136.675 Y141.896 E2468.26384
G1 X136.373 Y148.778 E2471.70059
G1 X135.506 Y157.113 E2475.88138
G1 X135.036 Y161.032 E2477.85058
G1 X133.833 Y171.978 E2483.34445
G1 X133.703 Y172.867 E2483.79269
G1 X133.344 Y174.312 E2484.53552
G1 X133.029 Y174.876 E2484.85781
G1 X131.106 Y176.88 E2486.24346
G1 X129.298 Y183.985 E2489.90113
G1 X128.08 Y187.946 E2491.96859
G1 X126.879 Y191.869 E2494.01545
G1 X126.842 Y191.902 E2494.04018
G1 X125.574 Y192.729 E2494.79545
G1 X125.415 Y193.146 E2495.0181
G1 X124.307 Y193.343 E2495.57955
G1 X123.365 Y193.764 E2496.09432
G1 X122.112 Y194.074 E2496.73829
G1 X121.078 Y194.178 E2497.25676
G1 X118.156 Y194.306 E2498.71595
G1 X118.229 Y198.956 E2501.03613
G1 X116.995 Y198.956 E2501.65177
G0 F10500 X116.716 Y198.952
G0 X118.44 Y199.164
G0 X118.726 Y194.844
G0 X123.555 Y194.309
G0 X125.573 Y193.335
G0 X127.175 Y191.853
G0 X126.755 Y191.724
G1 F2100 X126.634 Y191.846 E2501.7375
G0 F10500 X126.873 Y192.214
G0 X127.425 Y191.038
G0 X127.005 Y190.909
G1 F2100 X124.828 Y193.086 E2503.27349
G0 F10500 X124.08 Y193.268
G1 F2100 X127.254 Y190.095 E2505.51257
G0 F10500 X127.504 Y189.279
G1 F2100 X123.125 Y193.658 E2508.60219
G0 F10500 X122.373 Y193.844
G1 F2100 X127.752 Y188.465 E2512.39736
G0 F10500 X128.003 Y187.649
G1 F2100 X121.698 Y193.954 E2516.84588
G0 F10500 X121.069 Y194.017
G1 F2100 X128.255 Y186.831 E2521.91599
G0 F10500 X128.506 Y186.015
G1 F2100 X120.477 Y194.043 E2527.58053
G0 F10500 X119.885 Y194.069
G1 F2100 X128.757 Y185.197 E2533.84021
G0 F10500 X129.009 Y184.38
G1 F2100 X119.293 Y194.095 E2540.69502
G0 F10500 X118.702 Y194.121
G1 F2100 X129.233 Y183.59 E2548.12521
G0 F10500 X129.426 Y182.831
G1 F2100 X118.11 Y194.147 E2556.10926
G1 X117.995 Y194.262
G1 X117.219 Y195.038 E2556.65677
G0 F10500 X117.229 Y194.463
G1 F2100 X129.619 Y182.072 E2565.39893
G0 F10500 X129.812 Y181.314
G1 F2100 X116.992 Y194.134 E2574.44414
G0 F10500 X116.452 Y194.109
G1 F2100 X130.005 Y180.556 E2584.00651
G0 F10500 X130.198 Y179.797
G1 F2100 X115.911 Y194.083 E2594.08641
G0 F10500 X115.372 Y194.057
G1 F2100 X130.39 Y179.039 E2604.68242
G0 F10500 X130.583 Y178.28
G1 F2100 X114.832 Y194.032 E2615.79595
G0 F10500 X114.291 Y194.006
G1 F2100 X130.776 Y177.521 E2627.42701
G0 F10500 X131.203 Y177.63
G0 X131.923 Y176.432
G0 X131.605 Y176.127
G1 F2100 X113.769 Y193.963 E2640.01127
G0 F10500 X113.247 Y193.919
G1 F2100 X133.286 Y173.881 E2654.14951
G0 F10500 X133.472 Y173.128
G1 F2100 X112.791 Y193.81 E2668.74143
G0 F10500 X112.34 Y193.694
G1 F2100 X133.604 Y172.431 E2683.74398
G0 F10500 X133.694 Y171.776
G1 F2100 X111.898 Y193.571 E2699.12188
G0 F10500 X111.491 Y193.412
G1 F2100 X133.764 Y171.14 E2714.83633
G0 F10500 X133.834 Y170.504
G1 F2100 X111.085 Y193.253 E2730.88698
G0 F10500 X110.644 Y193.128
G1 F2100 X133.903 Y169.869 E2747.29746
G0 F10500 X133.973 Y169.233
G1 F2100 X110.161 Y193.045 E2764.09811
G0 F10500 X109.858 Y192.782
G1 F2100 X134.043 Y168.598 E2781.16158
G0 F10500 X134.113 Y167.962
G1 F2100 X109.562 Y192.513 E2798.48364
G0 F10500 X109.248 Y192.261
G1 F2100 X134.182 Y167.327 E2816.07592
G0 F10500 X134.252 Y166.691
G1 F2100 X108.934 Y192.009 E2833.93914
G0 F10500 X108.62 Y191.758
G1 F2100 X134.322 Y166.056 E2852.07329
G0 F10500 X134.392 Y165.42
G1 F2100 X108.41 Y191.403 E2870.40535
G0 F10500 X108.278 Y190.969
G1 F2100 X134.462 Y164.785 E2888.87957
G0 F10500 X134.532 Y164.149
G1 F2100 X108.147 Y190.534 E2907.49562
G0 F10500 X108.015 Y190.1
G1 F2100 X134.602 Y163.514 E2926.25383
G0 F10500 X134.671 Y162.879
G1 F2100 X107.883 Y189.666 E2945.15385
G0 F10500 X107.752 Y189.232
G1 F2100 X134.741 Y162.243 E2964.19605
G0 F10500 X134.811 Y161.607
G1 F2100 X107.62 Y188.798 E2983.38077
G0 F10500 X107.489 Y188.364
G1 F2100 X134.881 Y160.972 E3002.70731
G0 F10500 X134.958 Y160.329
G1 F2100 X107.357 Y187.929 E3022.18095
G0 F10500 X107.222 Y187.499
G1 F2100 X135.035 Y159.686 E3041.80452
G0 F10500 X135.112 Y159.043
G1 F2100 X107.086 Y187.07 E3061.57873
G0 F10500 X106.949 Y186.641
G1 F2100 X135.19 Y158.4 E3081.50428
G0 F10500 X135.267 Y157.757
G1 F2100 X106.812 Y186.212 E3101.58082
G0 F10500 X106.675 Y185.783
G1 F2100 X135.344 Y157.114 E3121.80835
G0 F10500 X135.41 Y156.483
G1 F2100 X106.539 Y185.354 E3142.1784
G0 F10500 X106.401 Y184.926
G1 F2100 X135.476 Y155.851 E3162.69238
G0 F10500 X135.541 Y155.22
G1 F2100 X106.265 Y184.496 E3183.34818
G0 F10500 X106.128 Y184.068
G1 F2100 X135.607 Y154.589 E3204.14721
G0 F10500 X135.673 Y153.957
G1 F2100 X106.005 Y183.625 E3225.07959
G0 F10500 X105.891 Y183.173
G1 F2100 X135.739 Y153.326 E3246.13861
G0 F10500 X135.804 Y152.694
G1 F2100 X105.777 Y182.722 E3267.32463
G0 F10500 X105.662 Y182.27
G1 F2100 X135.869 Y152.064 E3288.63695
G0 F10500 X135.935 Y151.432
G1 F2100 X105.548 Y181.819 E3310.07662
G0 F10500 X105.433 Y181.368
G1 F2100 X136.001 Y150.801 E3331.64364
G0 F10500 X136.067 Y150.169
G1 F2100 X105.319 Y180.917 E3353.33802
G0 F10500 X105.204 Y180.466
G1 F2100 X136.132 Y149.538 E3375.15939
G0 F10500 X136.198 Y148.906
G1 F2100 X105.09 Y180.015 E3397.10812
G0 F10500 X104.975 Y179.564
G1 F2100 X136.234 Y148.305 E3419.16303
G0 F10500 X136.259 Y147.714
G1 F2100 X104.861 Y179.112 E3441.31602
G0 F10500 X104.747 Y178.661
G1 F2100 X136.285 Y147.122 E3463.56813
G0 F10500 X136.311 Y146.531
G1 F2100 X104.632 Y178.21 E3485.91938
G0 F10500 X104.518 Y177.758
G1 F2100 X136.337 Y145.939 E3508.3694
G0 F10500 X136.362 Y145.348
G1 F2100 X104.403 Y177.307 E3530.9182
G0 F10500 X104.274 Y176.871
G1 F2100 X136.388 Y144.756 E3553.57671
G0 F10500 X136.415 Y144.164
G1 F2100 X104.101 Y176.478 E3576.37599
G0 F10500 X103.929 Y176.085
G1 F2100 X136.44 Y143.573 E3599.31461
G0 F10500 X136.466 Y142.981
G1 F2100 X103.756 Y175.691 E3622.39328
G0 F10500 X103.584 Y175.298
G1 F2100 X136.492 Y142.39 E3645.61165
G0 F10500 X136.517 Y141.799
G1 F2100 X103.411 Y174.905 E3668.96972
G0 F10500 X103.239 Y174.511
G1 F2100 X136.538 Y141.212 E3692.46396
G0 F10500 X136.56 Y140.625
G1 F2100 X103.067 Y174.118 E3716.09508
G0 F10500 X102.894 Y173.725
G1 F2100 X136.581 Y140.038 E3739.86308
G0 F10500 X136.603 Y139.451
G1 F2100 X102.722 Y173.332 E3763.76796
G0 F10500 X102.549 Y172.939
G1 F2100 X136.625 Y138.863 E3787.81042
G0 F10500 X136.646 Y138.276
G1 F2100 X102.377 Y172.545 E3811.98905
G0 F10500 X102.237 Y172.119
G1 F2100 X136.667 Y137.689 E3836.28127
G0 F10500 X136.689 Y137.102
G1 F2100 X102.15 Y171.641 E3860.6504
G0 F10500 X102.069 Y171.156
G1 F2100 X136.71 Y136.515 E3885.0915
G0 F10500 X136.731 Y135.928
G1 F2100 X101.988 Y170.672 E3909.60491
G0 F10500 X101.907 Y170.187
G1 F2100 X136.753 Y135.34 E3934.191
G0 F10500 X136.716 Y134.812
G1 F2100 X101.826 Y169.702 E3958.80778
G0 F10500 X101.746 Y169.217
G1 F2100 X136.678 Y134.285 E3983.45419
G0 F10500 X136.639 Y133.758
G1 F2100 X101.665 Y168.731 E4008.12989
G0 F10500 X101.584 Y168.247
G1 F2100 X136.6 Y133.231 E4032.83557
G0 F10500 X136.562 Y132.704
G1 F2100 X101.503 Y167.762 E4057.57123
G0 F10500 X101.423 Y167.277
G1 F2100 X136.523 Y132.177 E4082.33618
G0 F10500 X136.484 Y131.65
G1 F2100 X101.342 Y166.792 E4107.13076
G0 F10500 X101.261 Y166.307
G1 F2100 X136.446 Y131.123 E4131.95532
G0 F10500 X136.407 Y130.596
G1 F2100 X101.18 Y165.822 E4156.80952
G0 F10500 X101.1 Y165.337
G1 F2100 X136.368 Y130.069 E4181.693
G0 F10500 X136.329 Y129.542
G92 E0
G1 F2100 X101.019 Y164.852 E24.91311
G0 F10500 X100.938 Y164.367
G1 F2100 X136.291 Y129.015 E49.85621
G0 F10500 X136.252 Y128.488
G1 F2100 X100.858 Y163.882 E74.82859
G0 F10500 X100.776 Y163.398
G1 F2100 X136.213 Y127.961 E99.83131
G0 F10500 X136.175 Y127.434
G1 F2100 X100.696 Y162.913 E124.86366
G0 F10500 X100.615 Y162.428
G1 F2100 X136.137 Y126.905 E149.9267
G0 F10500 X136.113 Y126.364
G1 F2100 X100.535 Y161.943 E175.02925
G0 F10500 X100.454 Y161.457
G1 F2100 X136.089 Y125.823 E200.17132
G0 F10500 X136.064 Y125.282
G1 F2100 X100.373 Y160.973 E225.35325
G0 F10500 X100.31 Y160.47
G1 F2100 X136.039 Y124.741 E250.56198
G0 F10500 X136.015 Y124.199
G1 F2100 X100.25 Y159.964 E275.79612
G0 F10500 X100.19 Y159.458
G1 F2100 X135.99 Y123.658 E301.05496
G0 F10500 X135.966 Y123.117
G1 F2100 X100.131 Y158.952 E326.33849
G0 F10500 X100.071 Y158.446
G1 F2100 X135.941 Y122.576 E351.64671
G0 F10500 X135.917 Y122.035
G1 F2100 X100.011 Y157.94 E376.97998
G0 F10500 X99.952 Y157.434
G1 F2100 X135.893 Y121.493 E402.33829
G0 F10500 X135.868 Y120.952
G1 F2100 X99.892 Y156.928 E427.72131
G0 F10500 X99.837 Y156.417
G1 F2100 X135.843 Y120.411 E453.12548
G0 F10500 X135.806 Y119.883
G1 F2100 X99.782 Y155.907 E478.54236
G0 F10500 X99.727 Y155.396
G1 F2100 X135.739 Y119.384 E503.95077
G0 F10500 X135.672 Y118.885
G1 F2100 X99.672 Y154.886 E529.35107
G0 F10500 X99.616 Y154.376
G1 F2100 X135.606 Y118.386 E554.74396
G0 F10500 X135.538 Y117.888
G1 F2100 X99.561 Y153.865 E580.12767
G0 F10500 X99.506 Y153.355
G1 F2100 X135.472 Y117.388 E605.50398
G0 F10500 X135.405 Y116.89
G1 F2100 X99.451 Y152.844 E630.87147
G0 F10500 X99.395 Y152.334
G1 F2100 X135.338 Y116.391 E656.2312
G0 F10500 X135.272 Y115.891
G1 F2100 X99.34 Y151.823 E681.58317
G0 F10500 X99.285 Y151.313
G1 F2100 X135.205 Y115.393 E706.92667
G0 F10500 X135.138 Y114.894
G1 F2100 X99.229 Y150.803 E732.26241
G0 F10500 X99.174 Y150.292
G1 F2100 X135.071 Y114.395 E757.58968
G0 F10500 X135.005 Y113.896
G1 F2100 X99.119 Y149.782 E782.90919
G0 F10500 X99.064 Y149.271
G1 F2100 X134.937 Y113.398 E808.21953
G0 F10500 X134.871 Y112.898
G1 F2100 X99.011 Y148.759 E833.52105
G0 F10500 X98.994 Y148.209
G1 F2100 X134.804 Y112.399 E858.78694
G0 F10500 X134.737 Y111.901
G1 F2100 X98.978 Y147.66 E884.01684
G0 F10500 X98.961 Y147.111
G1 F2100 X134.671 Y111.401 E909.21218
G0 F10500 X134.604 Y110.903
G1 F2100 X98.945 Y146.562 E934.37153
G0 F10500 X98.929 Y146.012
G1 F2100 X134.538 Y110.403 E959.4956
G0 F10500 X134.479 Y109.896
G1 F2100 X98.912 Y145.463 E984.59004
G0 F10500 X98.896 Y144.913
G1 F2100 X134.42 Y109.389 E1009.65414
G0 F10500 X134.362 Y108.882
G1 F2100 X98.879 Y144.365 E1034.68931
G0 F10500 X98.863 Y143.815
G1 F2100 X134.303 Y108.375 E1059.69415
G0 F10500 X134.244 Y107.868
G1 F2100 X98.847 Y143.266 E1084.669
G0 F10500 X98.83 Y142.716
G1 F2100 X134.186 Y107.361 E1109.61421
G0 F10500 X134.127 Y106.854
G1 F2100 X98.812 Y142.169 E1134.53085
G0 F10500 X98.794 Y141.622
G1 F2100 X134.068 Y106.347 E1159.41891
G0 F10500 X133.935 Y105.915
G1 F2100 X98.775 Y141.075 E1184.22619
G0 F10500 X98.756 Y140.528
G1 F2100 X133.797 Y105.487 E1208.94951
G0 F10500 X133.659 Y105.059
G1 F2100 X98.737 Y139.981 E1233.58887
G0 F10500 X98.719 Y139.434
G1 F2100 X133.522 Y104.631 E1258.14427
G0 F10500 X133.384 Y104.203
G1 F2100 X98.7 Y138.887 E1282.6157
G0 F10500 X98.681 Y138.34
G1 F2100 X133.246 Y103.775 E1307.00317
G0 F10500 X133.109 Y103.347
G1 F2100 X98.662 Y137.793 E1331.30704
G0 F10500 X98.644 Y137.246
G1 F2100 X132.971 Y102.919 E1355.52659
G0 F10500 X132.833 Y102.491
G1 F2100 X98.625 Y136.7 E1379.66254
G0 F10500 X98.606 Y136.152
G1 F2100 X132.696 Y102.063 E1403.71452
G0 F10500 X132.558 Y101.635
G1 F2100 X98.587 Y135.606 E1427.6829
G0 F10500 X98.569 Y135.058
G1 F2100 X132.42 Y101.207 E1451.56661
G0 F10500 X132.283 Y100.778
G1 F2100 X98.591 Y134.471 E1475.33848
G0 F10500 X98.617 Y133.879
G1 F2100 X132.145 Y100.351 E1498.9943
G0 F10500 X132.007 Y99.923
G1 F2100 X98.643 Y133.287 E1522.5344
G0 F10500 X98.669 Y132.695
G1 F2100 X131.87 Y99.494 E1545.9595
G0 F10500 X131.732 Y99.067
G1 F2100 X98.695 Y132.103 E1569.26854
G0 F10500 X98.722 Y131.511
G1 F2100 X131.594 Y98.639 E1592.46151
G0 F10500 X131.457 Y98.21
G1 F2100 X98.748 Y130.92 E1615.53983
G0 F10500 X98.774 Y130.328
G1 F2100 X131.315 Y97.787 E1638.49926
G0 F10500 X131.173 Y97.363
G1 F2100 X98.8 Y129.736 E1661.34016
G0 F10500 X98.826 Y129.144
G1 F2100 X131.031 Y96.939 E1684.06253
G0 F10500 X130.889 Y96.515
G1 F2100 X98.852 Y128.552 E1706.66636
G0 F10500 X98.878 Y127.96
G1 F2100 X130.748 Y96.091 E1729.15201
G0 F10500 X130.606 Y95.668
G1 F2100 X98.905 Y127.369 E1751.51878
G0 F10500 X98.931 Y126.777
G1 F2100 X130.464 Y95.243 E1773.76737
G0 F10500 X130.322 Y94.82
G1 F2100 X98.957 Y126.185 E1795.89707
G0 F10500 X98.983 Y125.593
G1 F2100 X130.181 Y94.395 E1817.90895
G0 F10500 X130.039 Y93.972
G1 F2100 X99.009 Y125.002 E1839.80229
G0 F10500 X99.033 Y124.411
G1 F2100 X129.897 Y93.548 E1861.57815
G0 F10500 X129.732 Y93.147
G1 F2100 X99.059 Y123.82 E1883.21961
G0 F10500 X99.084 Y123.23
G1 F2100 X129.514 Y92.799 E1904.68997
G0 F10500 X129.295 Y92.452
G1 F2100 X99.108 Y122.639 E1925.98853
G0 F10500 X99.134 Y122.048
G1 F2100 X129.076 Y92.106 E1947.11423
G0 F10500 X128.858 Y91.759
G1 F2100 X99.158 Y121.458 E1968.06883
G0 F10500 X99.184 Y120.867
G1 F2100 X128.639 Y91.411 E1988.85128
G0 F10500 X128.42 Y91.065
G1 F2100 X99.209 Y120.276 E2009.46122
G0 F10500 X99.31 Y119.609
G1 F2100 X128.201 Y90.718 E2029.84538
G0 F10500 X127.983 Y90.371
G1 F2100 X99.413 Y118.941 E2050.00305
G0 F10500 X99.516 Y118.272
G1 F2100 X127.764 Y90.024 E2069.93354
G0 F10500 X127.55 Y89.673
G1 F2100 X99.618 Y117.604 E2089.64073
G0 F10500 X99.721 Y116.936
G1 F2100 X127.345 Y89.311 E2109.1313
G0 F10500 X127.141 Y88.95
G1 F2100 X99.823 Y116.268 E2128.40563
G0 F10500 X99.926 Y115.599
G1 F2100 X126.936 Y88.589 E2147.46264
G0 F10500 X126.731 Y88.228
G1 F2100 X100.029 Y114.931 E2166.3027
G0 F10500 X100.131 Y114.262
G1 F2100 X126.527 Y87.867 E2184.92615
G0 F10500 X126.253 Y87.575
G1 F2100 X100.234 Y113.594 E2203.28396
G0 F10500 X100.337 Y112.926
G1 F2100 X125.944 Y87.319 E2221.35108
G0 F10500 X125.635 Y87.062
G1 F2100 X100.439 Y112.258 E2239.12822
G0 F10500 X100.542 Y111.589
G1 F2100 X125.326 Y86.805 E2256.61467
G0 F10500 X125.017 Y86.549
G1 F2100 X100.645 Y110.921 E2273.81043
G0 F10500 X100.747 Y110.252
G1 F2100 X124.708 Y86.292 E2290.71586
G0 F10500 X124.399 Y86.035
G1 F2100 X100.85 Y109.584 E2307.33095
G0 F10500 X100.952 Y108.916
G1 F2100 X124.09 Y85.779 E2323.65571
G0 F10500 X123.783 Y85.52
G1 F2100 X101.055 Y108.248 E2339.69154
G0 F10500 X101.157 Y107.579
G1 F2100 X123.482 Y85.255 E2355.44268
G0 F10500 X123.181 Y84.99
G1 F2100 X101.261 Y106.911 E2370.90877
G0 F10500 X101.363 Y106.242
G1 F2100 X122.881 Y84.725 E2386.09053
G0 F10500 X122.579 Y84.461
G1 F2100 X101.581 Y105.459 E2400.90576
G0 F10500 X101.848 Y104.627
G1 F2100 X122.279 Y84.195 E2415.32128
G0 F10500 X121.975 Y83.933
G1 F2100 X102.113 Y103.795 E2429.335
G0 F10500 X102.38 Y102.963
G1 F2100 X121.517 Y83.826 E2442.83718
G0 F10500 X121.057 Y83.72
G1 F2100 X102.647 Y102.13 E2455.82643
G0 F10500 X102.913 Y101.299
G1 F2100 X120.598 Y83.613 E2468.30451
G0 F10500 X120.139 Y83.507
G1 F2100 X103.179 Y100.467 E2480.2707
G0 F10500 X103.446 Y99.634
G1 F2100 X119.679 Y83.401 E2491.72396
G0 F10500 X119.231 Y83.283
G1 F2100 X103.712 Y98.803 E2502.67381
G0 F10500 X103.964 Y97.985
G1 F2100 X118.785 Y83.164 E2513.13082
G0 F10500 X118.339 Y83.044
G1 F2100 X104.211 Y97.172 E2523.09889
G0 F10500 X104.458 Y96.359
G1 F2100 X117.893 Y82.924 E2532.57801
G0 F10500 X117.405 Y82.846
G1 F2100 X104.705 Y95.547 E2541.5389
G0 F10500 X104.952 Y94.734
G1 F2100 X116.635 Y83.051 E2549.78189
G0 F10500 X115.865 Y83.256
G1 F2100 X105.199 Y93.922 E2557.30732
G0 F10500 X105.499 Y93.055
G1 F2100 X115.107 Y83.447 E2564.08629
G0 F10500 X114.368 Y83.621
G1 F2100 X106.38 Y91.609 E2569.72225
G0 F10500 X106.006 Y91.381
G0 X106.887 Y89.934
G0 X107.261 Y90.162
G1 F2100 X113.629 Y83.794 E2574.21522
G0 F10500 X113.53 Y83.366
G0 X112.972 Y83.553
G0 X110.187 Y86.053
G0 X110.464 Y86.393
G1 F2100 X108.224 Y88.633 E2575.79566
G1 F2700 E2570.79566
G0 F10500 X107.854 Y88.397
G0 X105.079 Y93.02
G0 X101.022 Y105.965
G0 X98.829 Y120.234
G0 X98.187 Y135.001
G0 X98.632 Y148.812
G0 X99.983 Y160.94
G0 X101.914 Y172.436
G0 X103.958 Y177.096
G0 X105.722 Y184.047
G0 X108.152 Y191.858
G0 X109.67 Y193.34
G0 X113.152 Y194.292
G0 X116.86 Y194.499
G0 X116.784 Y199.164
G0 X118.44 Y199.164
G0 X118.445 Y194.813
G1 F2700 E2575.79566
G0 F10500 X118.004 Y194.819
G1 F2100 X117.21 Y195.614 E2576.35622
G0 F10500 X117.2 Y196.188
G1 F2100 X118.012 Y195.377 E2576.92878
G0 F10500 X118.021 Y195.933
G1 F2100 X117.19 Y196.764 E2577.5151
G0 F10500 X117.181 Y197.339
G1 F2100 X118.03 Y196.49 E2578.11411
G0 F10500 X118.038 Y197.048
G1 F2100 X117.171 Y197.914 E2578.72547
G0 F10500 X117.162 Y198.489
G1 F2100 X118.047 Y197.605 E2579.34954
G0 F10500 X118.056 Y198.161
G1 F2100 X117.422 Y198.795 E2579.79686
G0 F10500 X117.988 Y198.795
G1 F2100 X118.064 Y198.718 E2579.85083
G1 F2700 E2574.85083
G0 F10500 X118.506 Y198.712
G0 X118.728 Y194.5
G0 X121.088 Y194.397
G0 X122.145 Y194.291
G0 X123.44 Y193.971
G0 X125.573 Y193.335
G0 X127.069 Y191.991
G0 X129.508 Y184.048
G0 X131.303 Y176.989
G0 X133.211 Y175.001
G0 X133.547 Y174.401
G0 X133.92 Y172.901
G0 X135.724 Y157.139
G0 X136.591 Y148.799
G0 X137.134 Y135.326
G0 X136.207 Y120.022
G0 X134.442 Y106.25
G0 X130.144 Y93.086
G0 X126.757 Y87.501
G0 X122.161 Y83.588
G0 X117.955 Y82.555
G0 X117.726 Y79.121
G0 X117.384 Y80.913
G1 F2700 E2579.85083
G0 F10500 X117.622 Y80.933
;TYPE:SKIN
G1 F2100 X117.848 Y80.707 E2579.93056
G0 F10500 X117.829 Y80.443
G1 F2100 X117.439 Y80.832 E2580.06797
G0 F10500 X117.465 Y80.523
G1 F2100 X117.811 Y80.178 E2580.18985
G0 F10500 X117.791 Y79.915
G1 F2100 X117.491 Y80.215 E2580.29569
G0 F10500 X117.516 Y79.907
G1 F2100 X117.773 Y79.65 E2580.38635
G0 F10500 X117.543 Y79.598
G1 F2100 X117.754 Y79.386 E2580.46096
G0 F10500 X117.568 Y79.29
G1 F2100 X117.736 Y79.122 E2580.52023
G0 F10500 X117.73 Y79.194
G1 F2700 E2575.52023
;MESH:NONMESH
G0 F300 X117.73 Y79.194 Z18.28
G0 F10500 X117.792 Y79.191
G0 X117.32 Y82.486
G0 X112.91 Y83.574
G0 X108.485 Y87.52
G0 X105.079 Y93.02
G0 X101.022 Y105.965
G0 X98.829 Y120.234
G0 X98.187 Y135.001
G0 X98.632 Y148.812
G0 X99.983 Y160.94
G0 X101.914 Y172.436
G0 X103.958 Y177.096
G0 X105.722 Y184.047
G0 X108.152 Y191.858
G0 X109.67 Y193.34
G0 X113.152 Y194.292
G0 X116.463 Y194.485
G0 X116.814 Y196.609
G0 X115.379 Y196.586
G0 X115.326 Y200.599
G0 X116.056 Y201.373
G0 X117.129 Y201.281
G0 X117.559 Y206.565
G1 F2700 E2580.52023
G0 F10500 X117.559 Y207.022
;TIME_ELAPSED:920.230449
;LAYER:6
;TYPE:WALL-INNER
;MESH:Boat.stl
G1 F2100 X117.407 Y206.824 E2580.64476
G1 X117.43 Y206.386 E2580.86358
G1 X117.433 Y205.848 E2581.132
G1 X117.442 Y204.761 E2581.67432
G1 X117.437 Y204.013 E2582.04751
G1 X117.431 Y203.169 E2582.46859
G1 X117.333 Y202.025 E2583.04143
G1 X117.93 Y202.025 E2583.33927
G1 X117.907 Y203.076 E2583.86374
G1 X117.834 Y204.028 E2584.34009
G1 X117.778 Y204.774 E2584.68436
G1 X117.804 Y205.85 E2585.16047
G1 X117.824 Y206.37 E2585.40917
G1 X117.846 Y206.895 E2585.67132
G1 X117.727 Y207.022 E2585.75815
G1 X117.559 Y207.022 E2585.84196
G0 F10500 X117.35 Y207.422
;TYPE:WALL-OUTER
G1 F2100 X117.146 Y207.13 E2586.01967
G1 X116.998 Y206.98 E2586.1248
G1 X117.03 Y206.374 E2586.42756
G1 X117.042 Y204.761 E2587.23231
G1 X117.031 Y203.188 E2588.0171
G1 X116.897 Y201.625 E2588.79975
G1 X118.339 Y201.625 E2589.51916
G1 X118.307 Y203.096 E2590.25322
G1 X118.178 Y204.784 E2591.09783
G1 X118.204 Y205.837 E2591.62333
G1 X118.253 Y207.04 E2592.22401
G1 X118.095 Y207.218 E2592.34275
G1 X117.893 Y207.422 E2592.48598
G1 X117.35 Y207.422 E2592.75688
G0 F10500 X117.594 Y207.004
G0 X117.751 Y203.675
G0 X117.647 Y203.631
;TYPE:SKIN
G1 F2100 X117.656 Y203.357 E2592.8133
G1 X117.688 Y202.258 E2593.03956
G0 F10500 X117.724 Y202.318
G1 F2700 E2588.03956
G0 F10500 X117.129 Y201.838
G0 X117.129 Y200.041
G0 X116.565 Y199.861
;TYPE:WALL-INNER
G1 F2700 E2593.03956
G1 F2100 X116.625 Y196.24 E2594.84633
G1 X114.349 Y196.125 E2595.98328
G1 X111.377 Y196.089 E2597.46613
G1 X107.54 Y195.562 E2599.39839
G1 X104.754 Y195.175 E2600.80167
G1 X104.645 Y195.004 E2600.90284
G1 X103.102 Y188.678 E2604.15143
G1 X102.21 Y185.06 E2606.0105
G1 X100.143 Y175.068 E2611.10108
G1 X99.599 Y172.404 E2612.45758
G1 X98.936 Y168.63 E2614.36927
G1 X96.421 Y161.311 E2618.2303
G1 X96.209 Y160.234 E2618.77793
G1 X94.837 Y148.977 E2624.43563
G1 X94.715 Y145.68 E2626.08163
G1 X94.412 Y134.885 E2631.4694
G1 X94.648 Y131.048 E2633.38731
G1 X95.218 Y120.037 E2638.88807
G1 X96.42 Y113.056 E2642.42216
G1 X97.734 Y104.945 E2646.52151
G1 X99.623 Y99.31 E2649.48658
G1 X102.151 Y91.638 E2653.5166
G1 X103.879 Y88.963 E2655.10539
G1 X106.509 Y84.847 E2657.54228
G1 X108.513 Y83.424 E2658.7685
G1 X111.955 Y80.797 E2660.92872
G1 X113.256 Y80.574 E2661.58726
G1 X117.154 Y79.705 E2663.57972
G1 X117.417 Y76.526 E2665.17115
G1 X117.631 Y76.183 E2665.37285
G1 X117.747 Y76.204 E2665.43166
G1 X117.903 Y76.524 E2665.60927
G1 X118.134 Y79.751 E2667.22334
G1 X122.35 Y80.776 E2669.38799
G1 X122.834 Y80.861 E2669.63315
G1 X126.752 Y83.512 E2671.99325
G1 X128.636 Y84.865 E2673.15045
G1 X131.313 Y89.02 E2675.61638
G1 X133.024 Y91.712 E2677.20774
G1 X135.645 Y99.637 E2681.37217
G1 X137.476 Y104.962 E2684.18148
G1 X138.759 Y114.171 E2688.82025
G1 X139.714 Y120.212 E2691.87154
G1 X140.342 Y133.186 E2698.35188
G1 X140.458 Y135.197 E2699.35683
G1 X140.428 Y146.234 E2704.86324
G1 X140.385 Y148.989 E2706.23788
G1 X139.141 Y158.962 E2711.25199
G1 X138.468 Y161.284 E2712.45812
G1 X136.717 Y166.936 E2715.41013
G1 X135.86 Y172.824 E2718.37862
G1 X135.359 Y174.843 E2719.41645
G1 X133.009 Y185.057 E2724.64537
G1 X132.131 Y188.699 E2726.51442
G1 X130.574 Y195.249 E2729.87329
G1 X130 Y195.326 E2730.16222
G1 X124.063 Y196.252 E2733.16001
G1 X119.83 Y196.172 E2735.27224
G1 X118.602 Y196.228 E2735.88553
G1 X118.659 Y199.861 E2737.69827
G1 X116.565 Y199.861 E2738.74297
G0 F10500 X116.158 Y200.261
;TYPE:WALL-OUTER
G1 F2100 X116.219 Y196.62 E2740.55972
G1 X114.337 Y196.525 E2741.49985
G1 X111.35 Y196.489 E2742.99018
G1 X107.486 Y195.958 E2744.93606
G1 X104.519 Y195.546 E2746.4305
G1 X104.335 Y195.268 E2746.59682
G1 X104.269 Y195.151 E2746.66384
G1 X102.713 Y188.773 E2749.93917
G1 X101.821 Y185.155 E2751.79824
G1 X99.751 Y175.149 E2756.89596
G1 X99.207 Y172.484 E2758.25295
G1 X98.547 Y168.73 E2760.15455
G1 X96.035 Y161.417 E2764.01227
G1 X95.813 Y160.292 E2764.58436
G1 X94.437 Y149.004 E2770.25765
G1 X94.315 Y145.695 E2771.90964
G1 X94.012 Y134.882 E2777.30638
G1 X94.249 Y131.025 E2779.23428
G1 X94.82 Y119.99 E2784.74703
G1 X96.025 Y112.99 E2788.29071
G1 X97.344 Y104.851 E2792.40425
G1 X99.243 Y99.184 E2795.38604
G1 X101.787 Y91.464 E2799.4413
G1 X103.542 Y88.747 E2801.05501
G1 X106.215 Y84.565 E2803.53119
G1 X108.276 Y83.102 E2804.79215
G1 X111.79 Y80.42 E2806.99758
G1 X113.179 Y80.181 E2807.70073
G1 X116.78 Y79.379 E2809.5413
G1 X117.025 Y76.411 E2811.02708
G1 X117.054 Y76.353 E2811.05943
G1 X117.435 Y75.742 E2811.41867
G1 X118.018 Y75.846 E2811.71412
G1 X118.296 Y76.418 E2812.03141
