;FLAVOR:Marlin
;TIME:2307
;Filament used: 12.7977m
;Layer height: 3
;MINX:91.579
;MINY:20.543
;MINZ:0.28
;MAXX:143.343
;MAXY:212.951
;MAXZ:222.28
;Generated with Cura_SteamEngine master
M140 S50
M105
M190 S50
M104 S200
M105
M109 S200
M82 ;absolute extrusion mode
; Ender 3 Custom Start G-code
G92 E0 ; Reset Extruder
G28 ; Home all axes
G1 Z2.0 F3000 ; Move Z Axis up little to prevent scratching of Heat Bed
G1 X0.1 Y20 Z0.3 F5000.0 ; Move to start position
G1 X0.1 Y200.0 Z0.3 F1500.0 E15 ; Draw the first line
G1 X0.4 Y200.0 Z0.3 F5000.0 ; Move to side a little
G1 X0.4 Y20 Z0.3 F1500.0 E30 ; Draw the second line
G92 E0 ; Reset Extruder
G1 Z2.0 F3000 ; Move Z Axis up little to prevent scratching of Heat Bed
G1 X5 Y20 Z0.3 F5000.0 ; Move over to prevent blob squish
G92 E0
G92 E0
G1 F2700 E-5
;LAYER_COUNT:75
;LAYER:0
M107
;MESH:BoatHollow.stl
G0 F6000 X117.29 Y120.818 Z0.28
;TYPE:WALL-OUTER
G1 F2700 E0
G1 F600 X117.272 Y118.305 E0.11702
G1 X117.242 Y116.865 E0.18409
G1 X117.244 Y115.635 E0.24136
G1 X117.759 Y118.263 E0.36606
G1 X117.29 Y120.818 E0.48702
G0 F6000 X117.39 Y119.663
G0 X117.531 Y118.399
G0 X117.555 Y118.404
;TYPE:SKIN
G1 F600 X117.446 Y118.294 E0.49062
G0 F6000 X117.552 Y118.118
G1 F600 X117.441 Y118.006 E0.49429
G1 F2700 E-4.50571
;MESH:NONMESH
G0 F300 X117.441 Y118.006 Z3.28
G0 F6000 X117.467 Y118.016
G0 X117.383 Y119.743
G0 X118.335 Y119.917
G0 X117.774 Y157.373
;TIME_ELAPSED:7.204035
;LAYER:1
M106 S85
;TYPE:WALL-INNER
;MESH:BoatHollow.stl
G1 F2700 E0.49429
G1 F1650 X117.655 Y150.955 E3.6968
G1 X117.657 Y149.616 E4.36483
G1 X117.595 Y147.17 E5.58553
G1 X117.285 Y135.145 E11.58682
G1 X117.257 Y133.413 E12.45104
G1 X117.347 Y120.672 E18.80771
G1 X117.361 Y118.277 E20.0026
G1 X117.095 Y109.487 E24.38995
G1 X117.061 Y108.27 E24.99735
G1 X117.153 Y106.157 E26.05253
G1 X117.23 Y104.356 E26.95187
G1 X117.253 Y103.828 E27.21554
G1 X117.428 Y102.608 E27.83044
G1 X117.453 Y102.954 E28.00351
G1 X117.523 Y103.805 E28.13501
G1 X117.571 Y104.37 E28.35401
G1 X117.552 Y106.173 E29.18821
G1 X117.529 Y108.191 E30.19506
G1 X117.728 Y116.535 E34.35909
G1 X117.783 Y118.351 E35.26551
G1 X117.696 Y131.528 E41.83968
G1 X117.679 Y133.418 E42.78265
G1 X118.022 Y143.047 E47.58962
G1 X118.007 Y144.934 E48.53108
G1 X117.992 Y147.198 E49.66062
G1 X117.976 Y149.645 E50.7622
G1 X117.942 Y150.962 E51.26084
G1 X117.774 Y157.373 E52.41109
G1 F2700 E47.41109
G0 F8250 X117.73 Y164.876
G1 F2700 E52.41109
G0 F8250 X117.519 Y165.15
;TYPE:WALL-OUTER
G1 F1650 X117.255 Y150.954 E59.49472
G1 X117.257 Y149.621 E60.15976
G1 X116.885 Y135.155 E67.37926
G1 X116.857 Y133.41 E68.24996
G1 X116.947 Y120.669 E74.60663
G1 X116.961 Y118.282 E75.79753
G1 X116.695 Y109.499 E80.18139
G1 X116.661 Y108.264 E80.79777
G1 X116.854 Y103.794 E83.02994
G1 X117.24 Y101.1 E84.38771
G1 X117.625 Y101.1 E84.57979
G1 X117.719 Y101.08 E84.62773
G1 X117.852 Y102.923 E85.5496
G1 X117.971 Y104.352 E86.265
G1 X117.929 Y108.188 E88.1789
G1 X118.128 Y116.524 E92.33893
G1 X118.183 Y118.354 E93.25234
G1 X118.096 Y131.531 E99.82651
G1 X118.079 Y133.412 E100.76499
G1 X118.422 Y143.033 E105.56797
G1 X118.407 Y144.937 E106.51791
G1 X118.376 Y149.655 E108.87178
G1 X117.972 Y165.148 E116.6039
G1 X117.519 Y165.15 E116.8299
G0 F8250 X117.73 Y164.876
G0 X117.75 Y146.989
;TYPE:SKIN
G1 F1650 X117.834 Y146.906 E116.88882
G0 F8250 X117.736 Y146.438
G1 F1650 X117.837 Y146.337 E116.96008
G0 F8250 X117.722 Y145.886
G1 F1650 X117.841 Y145.767 E117.04404
G0 F8250 X117.707 Y145.335
G1 F1650 X117.845 Y145.198 E117.14105
G0 F8250 X117.693 Y144.784
G1 F1650 X117.849 Y144.628 E117.25112
G0 F8250 X117.679 Y144.232
G1 F1650 X117.853 Y144.058 E117.37389
G0 F8250 X117.665 Y143.681
G1 F1650 X117.858 Y143.488 E117.51006
G0 F8250 X117.651 Y143.129
G1 F1650 X117.857 Y142.923 E117.6554
G0 F8250 X117.637 Y142.578
G1 F1650 X117.837 Y142.377 E117.79687
G0 F8250 X117.622 Y142.026
G1 F1650 X117.818 Y141.831 E117.9348
G0 F8250 X117.608 Y141.475
G1 F1650 X117.799 Y141.284 E118.06956
G0 F8250 X117.594 Y140.923
G1 F1650 X117.779 Y140.738 E118.20009
G0 F8250 X117.58 Y140.372
G1 F1650 X117.76 Y140.192 E118.32709
G0 F8250 X117.566 Y139.82
G1 F1650 X117.74 Y139.646 E118.44986
G0 F8250 X117.552 Y139.268
G1 F1650 X117.721 Y139.099 E118.5691
G0 F8250 X117.538 Y138.717
G1 F1650 X117.701 Y138.554 E118.6841
G0 F8250 X117.523 Y138.165
G1 F1650 X117.682 Y138.007 E118.79593
G0 F8250 X117.509 Y137.614
G1 F1650 X117.662 Y137.461 E118.90388
G0 F8250 X117.494 Y137.063
G1 F1650 X117.643 Y136.914 E119.00901
G0 F8250 X117.48 Y136.511
G1 F1650 X117.623 Y136.369 E119.10955
G0 F8250 X117.466 Y135.96
G1 F1650 X117.604 Y135.822 E119.20692
G0 F8250 X117.452 Y135.408
G1 F1650 X117.584 Y135.276 E119.30005
G0 F8250 X117.441 Y134.854
G1 F1650 X117.565 Y134.73 E119.38754
G0 F8250 X117.432 Y134.297
G1 F1650 X117.545 Y134.184 E119.46727
G0 F8250 X117.422 Y133.741
G1 F1650 X117.526 Y133.638 E119.54029
G0 F8250 X117.419 Y133.179
G1 F1650 X117.521 Y133.076 E119.61261
G0 F8250 X117.423 Y132.609
G1 F1650 X117.526 Y132.506 E119.68528
G0 F8250 X117.427 Y132.04
G1 F1650 X117.531 Y131.935 E119.75902
G0 F8250 X117.431 Y131.47
G1 F1650 X117.536 Y131.364 E119.83345
G0 F8250 X117.435 Y130.9
G1 F1650 X117.54 Y130.795 E119.90754
G0 F8250 X117.439 Y130.331
G1 F1650 X117.544 Y130.225 E119.98197
G0 F8250 X117.443 Y129.761
G1 F1650 X117.548 Y129.656 E120.05606
G0 F8250 X117.447 Y129.191
G1 F1650 X117.551 Y129.087 E120.12943
G0 F8250 X117.451 Y128.622
G1 F1650 X117.555 Y128.517 E120.20316
G0 F8250 X117.455 Y128.052
G1 F1650 X117.559 Y127.948 E120.27654
G0 F8250 X117.459 Y127.482
G1 F1650 X117.562 Y127.378 E120.34957
G0 F8250 X117.463 Y126.912
G1 F1650 X117.567 Y126.808 E120.42295
G0 F8250 X117.467 Y126.343
G1 F1650 X117.57 Y126.239 E120.49597
G0 F8250 X117.471 Y125.773
G1 F1650 X117.574 Y125.67 E120.56864
G0 F8250 X117.475 Y125.203
G1 F1650 X117.577 Y125.101 E120.64061
G0 F8250 X117.479 Y124.633
G1 F1650 X117.581 Y124.531 E120.71258
G0 F8250 X117.483 Y124.064
G1 F1650 X117.585 Y123.962 E120.78454
G0 F8250 X117.487 Y123.494
G1 F1650 X117.589 Y123.392 E120.85651
G0 F8250 X117.491 Y122.924
G1 F1650 X117.593 Y122.823 E120.92812
G0 F8250 X117.495 Y122.354
G1 F1650 X117.596 Y122.253 E120.99938
G0 F8250 X117.499 Y121.785
G1 F1650 X117.6 Y121.684 E121.07065
G0 F8250 X117.503 Y121.215
G1 F1650 X117.604 Y121.114 E121.14191
G0 F8250 X117.507 Y120.645
G1 F1650 X117.608 Y120.545 E121.21282
G0 F8250 X117.51 Y120.077
G1 F1650 X117.611 Y119.976 E121.28408
G0 F8250 X117.514 Y119.508
G1 F1650 X117.615 Y119.406 E121.35569
G0 F8250 X117.516 Y118.939
G1 F1650 X117.619 Y118.837 E121.42801
G0 F8250 X117.52 Y118.37
G1 F1650 X117.62 Y118.27 E121.49857
G0 F8250 X117.507 Y117.818
G1 F1650 X117.603 Y117.721 E121.56665
G0 F8250 X117.49 Y117.268
G1 F1650 X117.586 Y117.173 E121.63403
G0 F8250 X117.473 Y116.719
G1 F1650 X117.569 Y116.624 E121.70142
G0 F8250 X117.457 Y116.17
G1 F1650 X117.555 Y116.072 E121.77056
G0 F8250 X117.44 Y115.621
G1 F1650 X117.542 Y115.52 E121.84218
G0 F8250 X117.424 Y115.072
G1 F1650 X117.529 Y114.967 E121.91626
G0 F8250 X117.407 Y114.523
G1 F1650 X117.516 Y114.414 E121.99316
G0 F8250 X117.391 Y113.974
G1 F1650 X117.502 Y113.862 E122.07183
G0 F8250 X117.374 Y113.425
G1 F1650 X117.49 Y113.309 E122.15368
G0 F8250 X117.357 Y112.876
G1 F1650 X117.476 Y112.757 E122.23764
G0 F8250 X117.34 Y112.327
G1 F1650 X117.463 Y112.204 E122.32442
G0 F8250 X117.324 Y111.778
G1 F1650 X117.45 Y111.652 E122.41332
G0 F8250 X117.307 Y111.229
G1 F1650 X117.437 Y111.099 E122.50504
G0 F8250 X117.291 Y110.679
G1 F1650 X117.424 Y110.546 E122.59888
G0 F8250 X117.274 Y110.131
G1 F1650 X117.41 Y109.994 E122.69519
G0 F8250 X117.258 Y109.581
G1 F1650 X117.398 Y109.441 E122.79397
G0 F8250 X117.241 Y109.032
G1 F1650 X117.384 Y108.889 E122.89486
G0 F8250 X117.226 Y108.482
G1 F1650 X117.371 Y108.337 E122.99717
G0 F8250 X117.236 Y107.906
G1 F1650 X117.372 Y107.77 E123.09312
G0 F8250 X117.262 Y107.314
G1 F1650 X117.379 Y107.198 E123.17532
G0 F8250 X117.287 Y106.723
G1 F1650 X117.384 Y106.626 E123.24376
G0 F8250 X117.519 Y102.459
G0 X117.617 Y102.433
;TYPE:SKIN
G1 F1650 X117.471 Y102.296 E123.32382
G1 X117.455 Y101.464 E123.6566
G1 F2700 E118.6566
G0 F8250 X117.44 Y101.365
G0 X117.837 Y144.932
G0 X117.677 Y157.532
G1 F2700 E123.6566
G0 F8250 X117.614 Y157.591
G1 F1650 X117.757 Y157.73 E123.72875
G1 X117.763 Y161.119 E124.95495
G1 X117.748 Y164.528 E126.18839
G0 F8250 X117.806 Y164.753
G1 F1650 X117.689 Y164.87 E126.22967
G1 F2700 E121.22967
;MESH:NONMESH
G0 F300 X117.689 Y164.87 Z6.28
G0 F8250 X117.731 Y164.865
G0 X117.732 Y166.014
G0 X117.595 Y195.234
;TIME_ELAPSED:24.862439
;LAYER:2
M106 S170
;TYPE:WALL-INNER
;MESH:BoatHollow.stl
G1 F2700 E126.22967
G1 F2100 X117.445 Y194.857 E126.43209
G1 X117.493 Y193.292 E127.21324
G1 X117.507 Y192.869 E127.42439
G1 X117.535 Y192.69 E127.51478
G1 X117.531 Y193.293 E127.58053
G1 X117.655 Y194.997 E127.91364
G1 X117.595 Y195.234 E127.92959
G0 F10500 X117.405 Y195.834
;TYPE:WALL-OUTER
G1 F2100 X117.042 Y194.927 E128.41699
G1 X117.108 Y192.834 E129.46171
G1 X117.231 Y192.052 E129.85665
G1 X117.94 Y192.051 E130.21037
G1 X117.931 Y193.28 E130.82353
G1 X118.059 Y195.033 E131.70044
G1 X117.906 Y195.637 E132.01129
G1 X117.809 Y195.833 E132.1204
G1 X117.405 Y195.834 E132.32195
G0 F10500 X117.533 Y195.598
;TYPE:SKIN
G1 F2100 X117.68 Y195.462 E132.41287
G0 F10500 X117.631 Y195.503
G0 X117.578 Y192.531
G0 X117.471 Y192.424
G1 F2100 X117.658 Y192.329 E132.56133
G1 F2700 E127.56133
G0 F10500 X117.638 Y192.431
G0 X117.415 Y192.267
G0 X117.414 Y191.187
G0 X116.061 Y189.734
G0 X113.484 Y143.248
G0 X116.9 Y142.796
G0 X116.634 Y132.781
G0 X115.872 Y132.622
;TYPE:WALL-INNER
G1 F2700 E132.56133
G1 F2100 X116.819 Y132.592 E133.03402
G1 X116.813 Y133.391 E133.43266
G1 X116.951 Y141.658 E137.55766
G1 X117.072 Y142.601 E138.03198
G1 X118.129 Y142.601 E138.55932
G1 X118.386 Y140.57 E139.58067
G1 X118.191 Y135.047 E142.33782
G1 X119.084 Y135.088 E142.78381
G1 X119.282 Y133.534 E143.56537
G1 X119.185 Y131.642 E144.51053
G1 X119.998 Y120.613 E150.02785
G1 X119.834 Y112.484 E154.08425
G1 X119.914 Y109.74 E155.45382
G1 X118.951 Y106.305 E157.23362
G1 X118.004 Y106.06 E157.72164
G1 X118.007 Y105.806 E157.84837
G1 X116.705 Y106.251 E158.53483
G1 X116.626 Y108.223 E159.51945
G1 X115.794 Y108.123 E159.93753
G1 X115.286 Y109.99 E160.90284
G1 X115.032 Y113.668 E162.74217
G1 X114.851 Y120.609 E166.20623
G1 X115.731 Y130.595 E171.20757
G1 X115.872 Y132.622 E172.22129
G0 F10500 X116.244 Y132.21
;TYPE:WALL-OUTER
G1 F2100 X116.629 Y132.198 E172.41346
G1 X116.663 Y127.226 E174.89406
G1 X116.711 Y118.329 E179.33286
G1 X116.59 Y114.321 E181.33337
G1 X116.432 Y108.602 E184.18768
G1 X116.089 Y108.561 E184.36002
G1 X115.682 Y110.057 E185.1335
G1 X115.432 Y113.687 E186.94881
G1 X115.251 Y120.597 E190.3974
G1 X116.13 Y130.567 E195.39075
G1 X116.244 Y132.21 E196.21242
G1 F2700 E191.21242
G0 F10500 X116.045 Y132.222
G0 X117.082 Y133.277
G0 X117.212 Y141.638
G0 X117.31 Y142.331
G0 X117.89 Y142.331
G0 X118.124 Y140.558
G0 X118.229 Y135.356
G0 X118.725 Y134.87
G1 F2700 E196.21242
G0 F10500 X118.734 Y134.671
G1 F2100 X118.881 Y133.519 E196.79181
G1 X118.784 Y131.634 E197.73349
G1 X119.598 Y120.602 E203.25234
G1 X119.434 Y112.472 E207.30924
G1 X119.512 Y109.789 E208.64835
G1 X118.628 Y106.635 E210.28253
G1 X118.184 Y106.52 E210.51135
G1 X118.161 Y108.399 E211.44886
G1 X118.255 Y112.343 E213.41709
G1 X118.439 Y118.362 E216.42138
G1 X118.4 Y124.371 E219.41935
G1 X118.321 Y133.402 E223.9251
G1 X118.366 Y134.654 E224.55013
G1 X118.734 Y134.671 E224.73392
G1 F2700 E219.73392
G0 F10500 X118.725 Y134.87
G0 X118.381 Y135.239
G0 X118.407 Y135.827
G0 X117.974 Y142.226
G1 F2700 E224.73392
G0 F10500 X117.776 Y142.201
G1 F2100 X117.985 Y140.552 E225.56319
G1 X117.732 Y133.404 E229.13158
G1 X117.805 Y124.817 E233.41581
G1 X117.85 Y118.372 E236.63131
G1 X117.672 Y112.598 E239.51334
G1 X117.573 Y108.409 E241.60382
G1 X117.6 Y106.368 E242.62217
G1 X117.094 Y106.541 E242.88896
G1 X117.017 Y108.439 E243.83665
G1 X117.175 Y114.06 E246.64209
G1 X117.306 Y118.318 E248.76742
G1 X117.261 Y126.851 E253.02461
G1 X117.213 Y133.389 E256.28652
G1 X117.351 Y141.629 E260.39805
G1 X117.424 Y142.201 E260.68574
G1 X117.776 Y142.201 E260.86135
G1 F2700 E255.86135
G0 F10500 X117.974 Y142.226
G0 X117.362 Y142.791
G0 X113.491 Y143.303
G0 X114.43 Y150.74
G0 X115.248 Y156.319
G0 X116.704 Y156.092
G0 X116.844 Y158.783
G0 X117.091 Y159.669
G0 X117.362 Y168.613
;TYPE:WALL-INNER
G1 F2700 E260.86135
G1 F2100 X117.375 Y164.924 E262.70181
G1 X117.38 Y159.736 E265.29012
G1 X116.497 Y156.129 E267.14279
G1 X115.901 Y152.301 E269.0756
G1 X115.078 Y145.662 E272.41316
G1 X114.012 Y137.594 E276.47328
G1 X113.491 Y133.499 E278.53276
G1 X112.656 Y121.464 E284.55148
G1 X112.567 Y120.484 E285.04241
G1 X112.585 Y119.81 E285.37879
G1 X113.259 Y110.217 E290.17656
G1 X115.573 Y101.789 E294.53691
G1 X117.141 Y101.11 E295.38939
G1 X117.303 Y97.263 E297.31036
G1 X117.415 Y94.538 E298.67102
G1 X117.476 Y93.018 E299.42996
G1 X117.603 Y92.548 E299.67285
G1 X117.647 Y92.712
G1 X117.761 Y93.17 E299.84522
G1 X117.806 Y94.691 E300.51194
G1 X117.834 Y95.59 E300.96067
G1 X117.887 Y97.248 E301.78827
G1 X117.849 Y100.977 E303.64878
G1 X119.705 Y101.611 E304.62727
G1 X121.347 Y107.337 E307.59912
G1 X121.639 Y109.033 E308.45771
G1 X121.784 Y109.517 E308.70978
G1 X121.898 Y110.832 E309.3683
G1 X121.678 Y116.58 E312.23809
G1 X121.765 Y120.502 E314.19526
G1 X121.363 Y125.787 E316.83957
G1 X121.784 Y133.606 E320.74614
G1 X121.276 Y137.542 E322.72611
G1 X120.123 Y145.658 E326.81585
G1 X119.3 Y152.312 E330.16084
G1 X118.706 Y156.129 E332.08807
G1 X118.093 Y158.63 E333.37276
G1 X118.073 Y164.925 E336.51336
G1 X118.127 Y168.609 E338.35151
G1 X117.362 Y168.613 E338.73318
G0 F10500 X117.464 Y176.592
G1 F2100 X118.245 Y176.58 E339.12287
G1 X118.272 Y178.38 E340.02099
G1 X118.256 Y180.502 E341.07969
G1 X118.234 Y180.853 E341.25515
G1 X117.522 Y180.822 E341.61071
G1 X117.531 Y180.557 E341.74299
G1 X117.464 Y176.592 E343.72142
G0 F10500 X117.655 Y176.189
;TYPE:WALL-OUTER
G1 F2100 X118.055 Y176.183 E343.921
G1 X117.949 Y169.01 E347.50002
G1 X117.553 Y169.012 E347.69759
G1 X117.55 Y169.731 E348.0563
G1 X117.655 Y176.189 E351.27863
G1 F2700 E346.27863
G0 F10500 X117.455 Y176.191
G0 X117.74 Y181.095
G0 X118.207 Y181.124
G0 X118.023 Y188.295
G1 F2700 E351.27863
G0 F10500 X117.904 Y188.161
G1 F2100 X117.93 Y187.756 E351.48111
G1 X117.948 Y187.25 E351.73371
G1 X118.076 Y181.247 E354.7293
G1 X117.685 Y181.23 E354.92455
G1 X117.566 Y183.07 E355.84445
G1 X117.311 Y187.607 E358.11154
G1 X117.297 Y188.13 E358.37256
G1 X117.904 Y188.161 E358.67579
G0 F10500 X118.27 Y188.881
G1 F2100 X116.927 Y188.881 E359.34582
G1 X117.006 Y184.111 E361.72591
G1 X117.131 Y180.553 E363.50209
G1 X116.956 Y170.188 E368.67395
G1 X116.975 Y164.923 E371.30069
G1 X116.98 Y159.784 E373.86455
G1 X116.106 Y156.214 E375.69822
G1 X115.506 Y152.363 E377.64267
G1 X114.681 Y145.713 E380.98581
G1 X113.615 Y137.646 E385.04544
G1 X113.094 Y133.549 E387.1059
G1 X112.257 Y121.496 E393.13365
G1 X112.166 Y120.492 E393.6366
G1 X112.185 Y119.799 E393.98247
G1 X112.863 Y110.148 E398.80924
G1 X115.238 Y101.498 E403.28445
G1 X116.752 Y100.843 E404.10745
G1 X116.903 Y97.246 E405.90358
G1 X117.078 Y92.96 E408.04365
G1 X117.254 Y92.308 E408.38058
G1 X117.373 Y92.055 E408.52007
G1 X117.885 Y92.054 E408.7755
G1 X118.035 Y92.615 E409.06522
G1 X118.16 Y93.116 E409.32283
G1 X118.234 Y95.578 E410.55168
G1 X118.287 Y97.236 E411.37929
G1 X118.252 Y100.692 E413.10358
G1 X120.031 Y101.299 E414.04137
G1 X121.738 Y107.251 E417.13054
G1 X122.029 Y108.942 E417.98659
G1 X122.178 Y109.441 E418.2464
G1 X122.299 Y110.832 E418.94299
G1 X122.078 Y116.583 E421.8143
G1 X122.165 Y120.513 E423.77546
G1 X121.764 Y125.791 E426.41625
G1 X122.185 Y133.625 E430.33029
G1 X121.672 Y137.598 E432.32889
G1 X120.52 Y145.711 E436.41708
G1 X119.697 Y152.362 E439.76058
G1 X119.097 Y156.214 E441.70553
G1 X118.493 Y158.679 E442.9717
G1 X118.473 Y164.923 E446.08686
G1 X118.672 Y178.383 E452.80282
G1 X118.656 Y180.512 E453.86501
G1 X118.212 Y187.538 E457.37729
G1 X118.27 Y188.881 E458.04794
G0 F10500 X118.094 Y188.712
G0 X118.195 Y181.883
G0 X118.146 Y177.306
G0 X117.866 Y177.309
;TYPE:SKIN
G1 F2100 X117.86 Y176.976 E458.2141
G1 X117.861 Y176.976 E458.2146
G1 X117.866 Y177.309 E458.38075
G0 F10500 X117.805 Y177.485
;TYPE:SKIN
G1 F2100 X118.103 Y177.782 E458.4857
G0 F10500 X118.108 Y178.07
G1 F2100 X117.64 Y177.603 E458.65063
G0 F10500 X117.645 Y177.891
G1 F2100 X118.112 Y178.357 E458.8152
G0 F10500 X118.11 Y178.639
G1 F2100 X117.65 Y178.178 E458.97765
G0 F10500 X117.655 Y178.466
G1 F2100 X118.108 Y178.919 E459.13746
G0 F10500 X118.106 Y179.2
G1 F2100 X117.66 Y178.754 E459.2948
G0 F10500 X117.664 Y179.041
G1 F2100 X118.103 Y179.48 E459.44967
G0 F10500 X118.101 Y179.761
G1 F2100 X117.669 Y179.329 E459.60206
G0 F10500 X117.674 Y179.617
G1 F2100 X118.099 Y180.042 E459.752
G0 F10500 X118.097 Y180.322
G1 F2100 X117.679 Y179.904 E459.89946
G0 F10500 X117.684 Y180.192
G1 F2100 X118.088 Y180.597 E460.04215
G0 F10500 X117.886 Y180.677
G1 F2100 X117.689 Y180.48 E460.11165
G0 F10500 X117.639 Y180.48
G0 X117.454 Y171.775
G0 X117.428 Y159.47
G0 X117.7 Y159.405
;TYPE:SKIN
G1 F2100 X116.881 Y156.057 E461.83123
G1 X116.283 Y152.215 E463.77109
G1 X115.464 Y145.613 E467.09009
G1 X114.398 Y137.543 E471.1512
G1 X113.881 Y133.472 E473.19854
G1 X113.044 Y121.433 E479.21932
G1 X112.957 Y120.477 E479.69824
G1 X112.975 Y119.837 E480.01767
G1 X113.647 Y110.277 E484.79894
G1 X115.9 Y102.073 E489.04347
G1 X117.521 Y101.371 E489.92477
G1 X117.525 Y101.278 E489.97121
G1 X119.386 Y101.914 E490.95239
G1 X120.968 Y107.427 E493.81384
G1 X121.259 Y109.122 E494.67185
G1 X121.4 Y109.594 E494.91761
G1 X121.508 Y110.832 E495.5376
G1 X121.288 Y116.576 E498.40539
G1 X121.375 Y120.51 E500.36855
G1 X120.973 Y125.783 E503.0069
G1 X121.392 Y133.599 E506.91191
G1 X120.89 Y137.487 E508.86775
G1 X119.737 Y145.607 E512.95947
G1 X118.918 Y152.227 E516.28738
G1 X118.322 Y156.057 E518.22117
G1 X117.703 Y158.583 E519.51868
G1 X117.7 Y159.405 E519.92878
G1 F2700 E514.92878
G0 F10500 X117.428 Y159.469
G0 X116.704 Y156.092
G0 X115.248 Y156.319
G0 X114.765 Y153.215
G0 X113.484 Y143.248
G0 X116.9 Y142.796
G0 X118.248 Y142.711
G1 F2700 E519.92878
G0 F10500 X118.472 Y142.991
G1 F2100 X118.776 Y140.588 E521.1372
G1 X118.596 Y135.456 E523.69914
G1 X119.425 Y135.494 E524.11316
G1 X119.674 Y133.549 E525.09145
G1 X119.575 Y131.635 E526.04762
G1 X120.388 Y120.623 E531.55648
G1 X120.224 Y112.496 E535.61189
G1 X120.306 Y109.692 E537.01141
G1 X119.266 Y105.983 E538.9332
G1 X118.398 Y105.758 E539.38056
G1 X118.403 Y105.258 E539.63002
G1 X116.326 Y105.968 E540.72511
G1 X116.253 Y107.785 E541.63235
G1 X115.506 Y107.696 E542.00767
G1 X114.9 Y109.925 E543.16008
G1 X114.642 Y113.649 E545.02245
G1 X114.461 Y120.621 E548.50197
G1 X115.336 Y130.542 E553.47079
G1 X115.509 Y133.024 E554.71206
G1 X116.426 Y132.995 E555.16979
G1 X116.423 Y133.393 E555.36836
G1 X116.561 Y141.686 E559.50632
G1 X116.729 Y142.991 E560.16276
G1 X118.472 Y142.991 E561.03235
G1 F2700 E556.03235
G0 F10500 X118.248 Y142.711
G0 X121.736 Y143.301
G0 X120.779 Y150.738
G0 X119.956 Y156.318
G0 X118.499 Y156.092
G0 X118.138 Y157.98
G1 F2700 E561.03235
G0 F10500 X117.711 Y157.875
G1 F2100 X117.419 Y157.582 E561.23872
G0 F10500 X117.822 Y157.42
G1 F2100 X117.236 Y156.834 E561.65218
G0 F10500 X117.934 Y156.966
G1 F2100 X117.053 Y156.085 E562.27377
G0 F10500 X116.942 Y155.409
G1 F2100 X118.045 Y156.512 E563.052
G0 F10500 X118.156 Y156.057
G1 F2100 X116.838 Y154.739 E563.98192
G0 F10500 X116.734 Y154.069
G1 F2100 X118.235 Y155.57 E565.04095
G0 F10500 X118.311 Y155.081
G1 F2100 X116.629 Y153.399 E566.2277
G0 F10500 X116.524 Y152.728
G1 F2100 X118.388 Y154.591 E567.5425
G0 F10500 X118.464 Y154.102
G1 F2100 X116.424 Y152.062 E568.98183
G0 F10500 X116.344 Y151.417
G1 F2100 X118.54 Y153.613 E570.53122
G0 F10500 X118.617 Y153.123
G1 F2100 X116.264 Y150.771 E572.19104
G0 F10500 X116.184 Y150.125
G1 F2100 X118.693 Y152.634 E573.96127
G0 F10500 X118.768 Y152.143
G1 F2100 X116.104 Y149.479 E575.84087
G0 F10500 X116.024 Y148.833
G1 F2100 X118.83 Y151.64 E577.82101
G0 F10500 X118.892 Y151.137
G1 F2100 X115.943 Y148.187 E579.90204
G0 F10500 X115.863 Y147.542
G1 F2100 X118.955 Y150.633 E582.08326
G0 F10500 X119.017 Y150.13
G1 F2100 X115.783 Y146.896 E584.36502
G0 F10500 X115.703 Y146.25
G1 F2100 X119.079 Y149.626 E586.74697
G0 F10500 X119.141 Y149.123
G1 F2100 X115.623 Y145.604 E589.22946
G0 F10500 X115.537 Y144.952
G1 F2100 X119.204 Y148.619 E591.81673
G0 F10500 X119.266 Y148.116
G1 F2100 X115.451 Y144.301 E594.50842
G0 F10500 X115.365 Y143.649
G1 F2100 X119.328 Y147.612 E597.30453
G0 F10500 X119.39 Y147.109
G1 F2100 X115.278 Y142.997 E600.20577
G0 F10500 X115.192 Y142.345
G1 F2100 X119.452 Y146.605 E603.21143
G0 F10500 X119.515 Y146.102
G1 F2100 X115.107 Y141.694 E606.32151
G0 F10500 X115.02 Y141.042
G1 F2100 X116.509 Y142.53 E607.37173
G0 F10500 X116.425 Y141.88
G1 F2100 X114.934 Y140.39 E608.42335
G0 F10500 X114.848 Y139.739
G1 F2100 X116.394 Y141.284 E609.51379
G0 F10500 X116.384 Y140.709
G1 F2100 X114.762 Y139.087 E610.6582
G0 F10500 X114.676 Y138.435
G1 F2100 X116.375 Y140.134 E611.85693
G0 F10500 X116.365 Y139.558
G1 F2100 X114.59 Y137.783 E613.10929
G0 F10500 X114.506 Y137.134
G1 F2100 X116.356 Y138.983 E614.41421
G0 F10500 X116.346 Y138.408
G1 F2100 X114.424 Y136.486 E615.77029
G0 F10500 X114.341 Y135.838
G1 F2100 X116.337 Y137.833 E617.17822
G0 F10500 X116.327 Y137.257
G1 F2100 X114.259 Y135.19 E618.63695
G0 F10500 X114.177 Y134.542
G1 F2100 X116.318 Y136.683 E620.14755
G0 F10500 X116.308 Y136.107
G1 F2100 X114.095 Y133.894 E621.70894
G0 F10500 X114.026 Y133.259
G1 F2100 X116.299 Y135.532 E623.31266
G0 F10500 X116.289 Y134.956
G1 F2100 X113.984 Y132.651 E624.93896
G0 F10500 X113.941 Y132.043
G1 F2100 X116.28 Y134.382 E626.58925
G0 F10500 X116.27 Y133.806
G1 F2100 X115.643 Y133.18 E627.03128
G0 F10500 X115.338 Y132.874
G1 F2100 X113.9 Y131.436 E628.04587
G0 F10500 X113.857 Y130.828
G1 F2100 X115.295 Y132.266 E629.06046
G0 F10500 X115.253 Y131.658
G1 F2100 X113.815 Y130.22 E630.07504
G0 F10500 X113.772 Y129.611
G1 F2100 X115.211 Y131.05 E631.09034
G0 F10500 X115.167 Y130.44
G1 F2100 X113.73 Y129.003 E632.10422
G0 F10500 X113.687 Y128.395
G1 F2100 X115.112 Y129.82 E633.10963
G0 F10500 X115.057 Y129.199
G1 F2100 X113.645 Y127.787 E634.10587
G0 F10500 X113.603 Y127.18
G1 F2100 X115.003 Y128.579 E635.0933
G0 F10500 X114.947 Y127.958
G1 F2100 X113.561 Y126.572 E636.07119
G0 F10500 X113.518 Y125.964
G1 F2100 X114.893 Y127.338 E637.04098
G0 F10500 X114.839 Y126.718
G1 F2100 X113.476 Y125.355 E638.00265
G0 F10500 X113.434 Y124.747
G1 F2100 X114.783 Y126.097 E638.95479
G0 F10500 X114.729 Y125.477
G1 F2100 X113.391 Y124.139 E639.89882
G0 F10500 X113.349 Y123.531
G1 F2100 X114.674 Y124.856 E640.83368
G0 F10500 X114.619 Y124.236
G1 F2100 X113.307 Y122.924 E641.75937
G0 F10500 X113.265 Y122.316
G1 F2100 X114.564 Y123.615 E642.67589
G0 F10500 X114.51 Y122.995
G1 F2100 X113.222 Y121.707 E643.58464
G0 F10500 X113.172 Y121.092
G1 F2100 X114.455 Y122.375 E644.48986
G0 F10500 X114.4 Y121.754
G1 F2100 X113.116 Y120.47 E645.3958
G0 F10500 X113.132 Y119.92
G1 F2100 X114.346 Y121.134 E646.25234
G0 F10500 X114.303 Y120.526
G1 F2100 X113.166 Y119.389 E647.05455
G0 F10500 X113.204 Y118.861
G1 F2100 X114.317 Y119.974 E647.83984
G0 F10500 X114.332 Y119.423
G1 F2100 X113.241 Y118.332 E648.60959
G0 F10500 X113.278 Y117.803
G1 F2100 X114.346 Y118.872 E649.36348
G0 F10500 X114.361 Y118.32
G1 F2100 X113.315 Y117.275 E650.10114
G0 F10500 X113.352 Y116.746
G1 F2100 X114.375 Y117.769 E650.82292
G0 F10500 X114.389 Y117.217
G1 F2100 X113.389 Y116.217 E651.52847
G0 F10500 X113.426 Y115.689
G1 F2100 X114.403 Y116.666 E652.2178
G0 F10500 X114.417 Y116.114
G1 F2100 X113.463 Y115.16 E652.8909
G0 F10500 X113.5 Y114.631
G1 F2100 X114.431 Y115.563 E653.54812
G0 F10500 X114.446 Y115.012
G1 F2100 X113.538 Y114.103 E654.18912
G0 F10500 X113.574 Y113.574
G1 F2100 X114.46 Y114.46 E654.81424
G0 F10500 X114.474 Y113.909
G1 F2100 X113.612 Y113.046 E655.42278
G0 F10500 X113.649 Y112.517
G1 F2100 X114.5 Y113.369 E656.02356
G0 F10500 X114.537 Y112.84
G1 F2100 X113.686 Y111.989 E656.62398
G0 F10500 X113.723 Y111.46
G1 F2100 X114.573 Y112.311 E657.22406
G0 F10500 X114.61 Y111.782
G1 F2100 X113.76 Y110.932 E657.82378
G0 F10500 X113.797 Y110.403
G1 F2100 X114.647 Y111.253 E658.4235
G0 F10500 X114.684 Y110.724
G1 F2100 X113.903 Y109.943 E658.97454
G0 F10500 X114.025 Y109.499
G1 F2100 X114.721 Y110.195 E659.4656
G0 F10500 X114.795 Y109.704
G1 F2100 X114.147 Y109.056 E659.9228
G0 F10500 X114.269 Y108.612
G1 F2100 X114.915 Y109.258 E660.37859
G0 F10500 X115.036 Y108.813
G1 F2100 X114.39 Y108.168 E660.83402
G0 F10500 X114.513 Y107.724
G1 F2100 X115.157 Y108.369 E661.28875
G0 F10500 X115.278 Y107.924
G1 F2100 X114.634 Y107.28 E661.74313
G0 F10500 X114.757 Y106.837
G1 F2100 X115.447 Y107.528 E662.23032
G0 F10500 X116.089 Y107.603
G1 F2100 X114.878 Y106.393 E663.08439
G0 F10500 X115.001 Y105.95
G1 F2100 X116.121 Y107.07 E663.87461
G0 F10500 X116.142 Y106.526
G1 F2100 X115.122 Y105.505 E664.59463
G0 F10500 X115.244 Y105.061
G1 F2100 X116.164 Y105.982 E665.24409
G0 F10500 X116.49 Y105.742
G1 F2100 X115.366 Y104.618 E666.03713
G0 F10500 X115.488 Y104.174
G1 F2100 X116.911 Y105.597 E667.04114
G0 F10500 X117.333 Y105.453
G1 F2100 X115.61 Y103.731 E668.25645
G0 F10500 X115.732 Y103.287
G1 F2100 X117.754 Y105.309 E669.68308
G0 F10500 X118.175 Y105.165
G1 F2100 X115.854 Y102.843 E671.32103
G0 F10500 X115.976 Y102.399
G1 F2100 X120.72 Y107.144 E674.66853
G0 F10500 X120.881 Y107.87
G1 F2100 X119.601 Y106.59 E675.57164
G0 F10500 X119.822 Y107.376
G1 F2100 X120.997 Y108.552 E676.40102
G0 F10500 X121.129 Y109.25
G1 F2100 X120.041 Y108.162 E677.16866
G0 F10500 X120.262 Y108.948
G1 F2100 X121.27 Y109.957 E677.88021
G0 F10500 X121.325 Y110.577
G1 F2100 X120.464 Y109.716 E678.48769
G0 F10500 X120.448 Y110.266
G1 F2100 X121.335 Y111.152 E679.11317
G0 F10500 X121.314 Y111.698
G1 F2100 X120.432 Y110.815 E679.73582
G0 F10500 X120.416 Y111.365
G1 F2100 X121.293 Y112.242 E680.35459
G0 F10500 X121.273 Y112.787
G1 F2100 X120.4 Y111.915 E680.97018
G0 F10500 X120.384 Y112.464
G1 F2100 X121.251 Y113.332 E681.58225
G0 F10500 X121.231 Y113.877
G1 F2100 X120.394 Y113.04 E682.1728
G0 F10500 X120.406 Y113.617
G1 F2100 X121.21 Y114.421 E682.74007
G0 F10500 X121.189 Y114.967
G1 F2100 X120.417 Y114.194 E683.28511
G0 F10500 X120.429 Y114.772
G1 F2100 X121.168 Y115.511 E683.80651
G0 F10500 X121.147 Y116.056
G1 F2100 X120.44 Y115.349 E684.30534
G0 F10500 X120.452 Y115.927
G1 F2100 X121.128 Y116.602 E684.78194
G0 F10500 X121.14 Y117.181
G1 F2100 X120.464 Y116.504 E685.25925
G0 F10500 X120.476 Y117.082
G1 F2100 X121.153 Y117.759 E685.73691
G0 F10500 X121.166 Y118.337
G1 F2100 X120.487 Y117.659 E686.21563
G0 F10500 X120.499 Y118.236
G1 F2100 X121.179 Y118.916 E686.6954
G0 F10500 X121.191 Y119.494
G1 F2100 X120.511 Y118.814 E687.17518
G0 F10500 X120.522 Y119.391
G1 F2100 X121.204 Y120.073 E687.65637
G0 F10500 X121.204 Y120.638
G1 F2100 X120.534 Y119.969 E688.12874
G0 F10500 X120.546 Y120.546
G1 F2100 X121.164 Y121.164 E688.56477
G0 F10500 X121.124 Y121.69
G1 F2100 X120.514 Y121.08 E688.99516
G0 F10500 X120.475 Y121.606
G1 F2100 X121.084 Y122.215 E689.42484
G0 F10500 X121.044 Y122.741
G1 F2100 X120.436 Y122.133 E689.85382
G0 F10500 X120.397 Y122.66
G1 F2100 X121.004 Y123.267 E690.28209
G0 F10500 X120.964 Y123.793
G1 F2100 X120.358 Y123.187 E690.70965
G0 F10500 X120.319 Y123.713
G1 F2100 X120.924 Y124.318 E691.13651
G0 F10500 X120.884 Y124.844
G1 F2100 X120.28 Y124.24 E691.56267
G0 F10500 X120.242 Y124.767
G1 F2100 X120.844 Y125.37 E691.98776
G0 F10500 X120.819 Y125.91
G1 F2100 X120.203 Y125.294 E692.42238
G0 F10500 X120.164 Y125.821
G1 F2100 X120.851 Y126.508 E692.9071
G0 F10500 X120.884 Y127.106
G1 F2100 X120.125 Y126.347 E693.44262
G0 F10500 X120.085 Y126.874
G1 F2100 X120.915 Y127.704 E694.02823
G0 F10500 X120.947 Y128.301
G1 F2100 X120.046 Y127.4 E694.66393
G0 F10500 X120.008 Y127.927
G1 F2100 X120.979 Y128.899 E695.34938
G0 F10500 X121.011 Y129.496
G1 F2100 X119.969 Y128.454 E696.08456
G0 F10500 X119.93 Y128.981
G1 F2100 X121.043 Y130.094 E696.86984
G0 F10500 X121.075 Y130.692
G1 F2100 X119.891 Y129.508 E697.70522
G0 F10500 X119.852 Y130.034
G1 F2100 X121.107 Y131.289 E698.59069
G0 F10500 X121.139 Y131.887
G1 F2100 X119.813 Y130.561 E699.52626
G0 F10500 X119.774 Y131.088
G1 F2100 X121.171 Y132.484 E700.51156
G0 F10500 X121.203 Y133.083
G1 F2100 X119.735 Y131.615 E701.54731
G0 F10500 X119.764 Y132.209
G1 F2100 X121.222 Y133.667 E702.57601
G0 F10500 X121.157 Y134.167
G1 F2100 X119.795 Y132.806 E703.53662
G0 F10500 X119.827 Y133.403
G1 F2100 X121.092 Y134.669 E704.4295
G0 F10500 X121.028 Y135.17
G1 F2100 X119.786 Y133.928 E705.3058
G0 F10500 X119.722 Y134.43
G1 F2100 X120.963 Y135.671 E706.18139
G0 F10500 X120.898 Y136.172
G1 F2100 X119.658 Y134.931 E707.05663
G0 F10500 X119.593 Y135.432
G1 F2100 X120.834 Y136.673 E707.93223
G0 F10500 X120.769 Y137.174
G1 F2100 X119.24 Y135.645 E709.01102
G0 F10500 X118.766 Y135.736
G1 F2100 X120.702 Y137.672 E710.37697
G0 F10500 X120.632 Y138.168
G1 F2100 X118.786 Y136.323 E711.67907
G0 F10500 X118.807 Y136.909
G1 F2100 X120.562 Y138.664 E712.91732
G0 F10500 X120.491 Y139.159
G1 F2100 X118.827 Y137.495 E714.09136
G0 F10500 X118.848 Y138.081
G1 F2100 X120.421 Y139.655 E715.20155
G0 F10500 X120.35 Y140.149
G1 F2100 X118.868 Y138.667 E716.24718
G0 F10500 X118.889 Y139.254
G1 F2100 X120.28 Y140.645 E717.22861
G0 F10500 X120.21 Y141.14
G1 F2100 X118.909 Y139.839 E718.14653
G0 F10500 X118.929 Y140.425
G1 F2100 X120.14 Y141.636 E719.00096
G0 F10500 X120.069 Y142.131
G1 F2100 X118.89 Y140.951 E719.83316
G0 F10500 X118.826 Y141.453
G1 F2100 X119.999 Y142.626 E720.66077
G0 F10500 X119.928 Y143.121
G1 F2100 X118.762 Y141.955 E721.48345
G0 F10500 X118.699 Y142.457
G1 F2100 X119.858 Y143.617 E722.30154
G0 F10500 X119.788 Y144.112
G1 F2100 X118.635 Y142.96 E723.11469
G0 F10500 X118.26 Y143.15
G1 F2100 X119.718 Y144.608 E724.14339
G0 F10500 X119.647 Y145.103
G1 F2100 X117.694 Y143.15 E725.52134
G0 F10500 X117.128 Y143.15
G1 F2100 X119.577 Y145.598 E727.24888
G1 F2700 E722.24888
G0 F10500 X120.014 Y145.643
G0 X121.068 Y137.512
G0 X118.491 Y137.602
G0 X117.89 Y142.331
G0 X117.31 Y142.331
G0 X117.255 Y141.939
G0 X116.704 Y133.238
G1 F2700 E727.24888
G0 F10500 X116.264 Y133.235
G1 F2100 X116.192 Y133.163 E727.29968
G1 F2700 E722.29968
G0 F10500 X116.179 Y132.722
G0 X116.756 Y132.322
G0 X117.212 Y141.638
G0 X117.31 Y142.331
G0 X117.89 Y142.331
G0 X118.124 Y140.558
G0 X118.021 Y108.4
G0 X118.062 Y106.36
G0 X118.737 Y106.525
G0 X120.106 Y109.716
G0 X121.142 Y107.384
G0 X120.915 Y106.231
G1 F2700 E727.29968
G0 F10500 X120.493 Y106.35
G1 F2100 X116.242 Y102.1 E730.29864
G0 F10500 X116.636 Y101.928
G1 F2100 X120.265 Y105.557 E732.8591
G0 F10500 X120.037 Y104.764
G1 F2100 X117.031 Y101.757 E734.98035
G0 F10500 X117.425 Y101.586
G1 F2100 X119.81 Y103.97 E736.66274
G0 F10500 X119.582 Y103.177
G1 F2100 X118.021 Y101.616 E737.76411
G0 F10500 X118.881 Y101.911
G1 F2100 X119.354 Y102.384 E738.09784
G1 F2700 E733.09784
G0 F10500 X119.778 Y102.265
G0 X120.453 Y104.98
G0 X119.108 Y106.146
G0 X118.185 Y105.922
G0 X118.151 Y105.64
G1 F2700 E738.09784
G0 F10500 X118.559 Y105.549
G1 F2100 X118.674 Y105.663 E738.17862
G1 F2700 E733.17862
G0 F10500 X118.562 Y106.09
G0 X118.209 Y105.527
G0 X116.513 Y101.61
G0 X117.254 Y101.068
G1 F2700 E738.17862
G0 F10500 X117.483 Y101.078
;TYPE:SKIN
G1 F2100 X117.309 Y100.904 E738.24001
G0 F10500 X117.321 Y100.633
G1 F2100 X117.688 Y101.001 E738.36965
G0 F10500 X117.691 Y100.72
G1 F2100 X117.332 Y100.361 E738.4963
G0 F10500 X117.343 Y100.09
G1 F2100 X117.694 Y100.44 E738.61995
G0 F10500 X117.697 Y100.16
G1 F2100 X117.354 Y99.818 E738.74077
G0 F10500 X117.366 Y99.547
G1 F2100 X117.7 Y99.88 E738.85842
G0 F10500 X117.702 Y99.6
G1 F2100 X117.378 Y99.276 E738.97272
G0 F10500 X117.389 Y99.004
G1 F2100 X117.705 Y99.32 E739.0842
G0 F10500 X117.708 Y99.04
G1 F2100 X117.4 Y98.733 E739.19268
G0 F10500 X117.412 Y98.461
G1 F2100 X117.711 Y98.76 E739.29816
G0 F10500 X117.714 Y98.48
G1 F2100 X117.423 Y98.19 E739.40064
G0 F10500 X117.434 Y97.918
G1 F2100 X117.717 Y98.2 E739.5003
G0 F10500 X117.719 Y97.92
G1 F2100 X117.446 Y97.647 E739.59661
G0 F10500 X117.457 Y97.375
G1 F2100 X117.722 Y97.64 E739.6901
G0 F10500 X117.725 Y97.36
G1 F2100 X117.468 Y97.104 E739.78058
G0 F10500 X117.721 Y97.073
G1 F2100 X117.48 Y96.832 E739.8656
G0 F10500 X117.711 Y96.78
G1 F2100 X117.49 Y96.56 E739.94339
G0 F10500 X117.702 Y96.488
G1 F2100 X117.502 Y96.288 E740.01395
G0 F10500 X117.692 Y96.196
G1 F2100 X117.513 Y96.017 E740.07709
G0 F10500 X117.683 Y95.904
G1 F2100 X117.523 Y95.745 E740.13336
G0 F10500 X117.673 Y95.612
G1 F2100 X117.535 Y95.473 E740.18222
G0 F10500 X117.665 Y95.32
G1 F2100 X117.546 Y95.202 E740.22403
G0 F10500 X117.656 Y95.028
G1 F2100 X117.557 Y94.93 E740.25877
G0 F10500 X117.647 Y94.736
G1 F2100 X117.581 Y94.67 E740.28206
G1 F2700 E735.28206
G0 F10500 X117.313 Y101.228
G0 X115.72 Y101.915
G0 X113.427 Y110.252
G0 X112.738 Y120.48
G0 X113.66 Y133.475
G0 X116.083 Y152.299
G0 X116.606 Y155.719
G0 X117.469 Y159.639
G1 F2700 E740.28206
G0 F10500 X117.718 Y159.579
G1 F2100 X117.929 Y159.789 E740.35632
G0 F10500 X117.928 Y160.072
G1 F2100 X117.528 Y159.672 E740.49743
G0 F10500 X117.539 Y159.965
G1 F2100 X117.927 Y160.354 E740.63448
G0 F10500 X117.927 Y160.636
G1 F2100 X117.539 Y160.248 E740.77136
G0 F10500 X117.538 Y160.53
G1 F2100 X117.925 Y160.917 E740.90788
G0 F10500 X117.924 Y161.199
G1 F2100 X117.538 Y160.813 E741.04406
G0 F10500 X117.538 Y161.096
G1 F2100 X117.924 Y161.481 E741.18005
G0 F10500 X117.923 Y161.764
G1 F2100 X117.538 Y161.378 E741.31605
G0 F10500 X117.538 Y161.661
G1 F2100 X117.922 Y162.045 E741.45151
G0 F10500 X117.921 Y162.327
G1 F2100 X117.538 Y161.944 E741.58663
G0 F10500 X117.537 Y162.226
G1 F2100 X117.92 Y162.609 E741.72174
G0 F10500 X117.919 Y162.891
G1 F2100 X117.537 Y162.509 E741.8565
G0 F10500 X117.536 Y162.791
G1 F2100 X117.918 Y163.173 E741.99126
G0 F10500 X117.917 Y163.455
G1 F2100 X117.536 Y163.074 E742.12567
G0 F10500 X117.536 Y163.357
G1 F2100 X117.917 Y163.737 E742.2599
G0 F10500 X117.916 Y164.019
G1 F2100 X117.535 Y163.639 E742.39413
G0 F10500 X117.535 Y163.922
G1 F2100 X117.915 Y164.301 E742.52801
G0 F10500 X117.914 Y164.583
G1 F2100 X117.535 Y164.204 E742.66172
G0 F10500 X117.535 Y164.487
G1 F2100 X117.913 Y164.865 E742.79507
G0 F10500 X117.916 Y165.151
G1 F2100 X117.535 Y164.77 E742.92947
G0 F10500 X117.534 Y165.052
G1 F2100 X117.92 Y165.438 E743.06565
G0 F10500 X117.924 Y165.725
G1 F2100 X117.533 Y165.333 E743.20376
G0 F10500 X117.532 Y165.615
G1 F2100 X117.929 Y166.012 E743.34381
G0 F10500 X117.933 Y166.299
G1 F2100 X117.531 Y165.897 E743.48563
G0 F10500 X117.53 Y166.179
G1 F2100 X117.937 Y166.586 E743.62921
G0 F10500 X117.941 Y166.873
G1 F2100 X117.529 Y166.461 E743.77455
G0 F10500 X117.528 Y166.742
G1 F2100 X117.946 Y167.16 E743.92201
G0 F10500 X117.95 Y167.447
G1 F2100 X117.527 Y167.024 E744.07124
G0 F10500 X117.526 Y167.306
G1 F2100 X117.954 Y167.734 E744.22223
G0 F10500 X117.958 Y168.022
G1 F2100 X117.525 Y167.588 E744.37515
G0 F10500 X117.523 Y167.869
G1 F2100 X117.963 Y168.309 E744.53038
G0 F10500 X117.82 Y168.449
G1 F2100 X117.523 Y168.152 E744.63515
G0 F10500 X117.337 Y168.814
G1 F2100 X117.256 Y169.016 E744.70339
G1 X117.312 Y173.598 E746.1402
G1 X117.356 Y176.187 E746.95211
G1 X117.276 Y176.39 E747.02052
G0 F10500 X117.26 Y176.349
G0 X118.184 Y176.308
G0 X118.331 Y176.314
G1 F2100 X118.345 Y176.045 E747.10109
G1 X118.246 Y169.44 E749.0768
G1 X118.247 Y168.876 E749.24549
G0 F10500 X118.139 Y168.768
G0 X118.184 Y176.308
G0 X117.694 Y176.326
G0 X117.333 Y180.973
G0 X117.424 Y181.064
G1 F2100 X117.389 Y181.312 E749.29963
G1 X117.198 Y185.646 E750.23733
G1 X117.178 Y185.909 E750.29435
G0 F10500 X117.206 Y185.937
G0 X117.165 Y188.252
G0 X117.512 Y188.505
G1 F2100 X117.802 Y188.512 E750.41411
G1 X117.993 Y188.421 E750.50147
G1 X117.269 Y188.545 E750.80474
G1 X117.125 Y188.684 E750.88737
G0 F10500 X117.146 Y188.681
G0 X118.023 Y188.295
G0 X118.261 Y183.618
G0 X118.242 Y183.579
G1 F2100 X118.254 Y183.307 E750.9392
G1 X118.345 Y181.136 E751.35281
G1 F2700 E746.35281
G0 F10500 X118.255 Y181.046
G0 X118.354 Y158.663
G0 X118.477 Y158.28
G0 X118.499 Y156.092
G0 X119.956 Y156.318
G0 X120.294 Y154.145
G0 X121.738 Y143.283
G0 X118.301 Y142.796
G0 X118.198 Y134.886
G0 X118.074 Y134.762
G1 F2700 E751.35281
G1 F2100 X118.063 Y134.468 E751.44221
G1 X118.036 Y132.178 E752.1381
G1 X118.091 Y125.728 E754.09807
G1 X118.136 Y119.55 E755.97537
G1 X118.101 Y116.97 E756.7594
G1 X117.938 Y111.432 E758.44291
G1 X117.871 Y107.972 E759.49447
G1 X117.893 Y106.296 E760.00378
G0 F10500 X117.76 Y106.146
G0 X116.965 Y106.446
G0 X116.599 Y108.396
G0 X116.723 Y108.52
G1 F2100 X116.731 Y108.811 E760.09339
G1 X116.912 Y115.215 E762.0654
G1 X117.006 Y118.703 E763.13943
G1 X116.971 Y125.173 E765.131
G1 X116.931 Y131.356 E767.03423
G1 X116.925 Y132.199 E767.29372
G1 X116.838 Y132.394 E767.35945
G1 F2700 E762.35945
G0 F10500 X116.799 Y132.364
G0 X116.877 Y108.438
G0 X116.965 Y106.446
G0 X118.201 Y105.91
G0 X119.533 Y101.775
G0 X119.418 Y101.231
G0 X118.119 Y100.786
G0 X117.56 Y92.387
G0 X117.508 Y92.335
G1 F2700 E767.35945
G1 F2100 X117.729 Y92.274 E767.42688
G0 F10500 X117.727 Y92.473
G1 F2700 E762.42688
;MESH:NONMESH
G0 F300 X117.727 Y92.473 Z9.28
G0 F10500 X117.474 Y97.271
G0 X117.313 Y101.228
G0 X115.72 Y101.915
G0 X113.427 Y110.252
G0 X112.738 Y120.48
G0 X113.66 Y133.475
G0 X116.083 Y152.299
G0 X116.665 Y156.099
G0 X117.292 Y158.537
G0 X117.271 Y180.554
G0 X117.125 Y184.115
G0 X116.14 Y184.1
G0 X116.061 Y189.734
G0 X117.414 Y191.187
G0 X117.415 Y192.267
G0 X117.403 Y194.372
;TIME_ELAPSED:108.131796
;LAYER:3
M106 S255
;TYPE:WALL-INNER
;MESH:BoatHollow.stl
G1 F2700 E767.42688
G1 F2100 X117.805 Y194.374 E767.62744
G1 X117.788 Y195.129 E768.00421
G1 X117.756 Y195.547 E768.21336
G1 X117.772 Y196.219 E768.54871
G1 X117.8 Y197.295 E769.08571
G1 X117.669 Y197.442 E769.18395
G1 X117.581 Y197.442 E769.22785
G1 X117.344 Y197.103 E769.43421
G1 X117.372 Y196.581 E769.69501
G1 X117.408 Y195.91 E770.0202
G1 X117.411 Y195.485 E770.21869
G1 X117.403 Y194.372 E770.77399
G0 F10500 X117.43 Y193.972
;TYPE:WALL-OUTER
G1 F2100 X117.792 Y193.974 E770.95459
G1 X117.913 Y192.843 E771.52207
G1 X117.656 Y192.836 E771.65033
G1 X117.251 Y192.852 E771.85255
G1 X117.371 Y193.344 E772.1052
G1 X117.43 Y193.972 E772.41989
G1 F2700 E767.41989
G0 F10500 X117.429 Y194.171
G0 X117.471 Y197.654
G1 F2700 E772.41989
G0 F10500 X117.373 Y197.842
G1 F2100 X116.938 Y197.22 E772.79857
G1 X117.008 Y195.898 E773.45904
G1 X117.011 Y195.485 E773.66509
G1 X116.991 Y192.822 E774.99371
G1 X116.972 Y192.608 E775.10089
G1 X118.244 Y192.608 E775.73549
G1 X118.188 Y195.151 E777.00451
G1 X118.156 Y195.558 E777.20819
G1 X118.201 Y197.339 E778.09702
G1 X118.206 Y197.44 E778.14747
G1 X117.849 Y197.842 E778.4157
G1 X117.373 Y197.842 E778.65317
G0 F10500 X117.617 Y197.424
G0 X117.525 Y196.995
;TYPE:SKIN
G1 F2100 X117.615 Y196.905 E778.68492
G0 F10500 X117.649 Y196.902
G0 X117.202 Y194.211
G0 X117.199 Y194.21
G1 F2100 X117.27 Y194.139 E778.70997
G0 F10500 X117.503 Y194.364
G1 F2700 E773.70997
G0 F10500 X117.35 Y194.151
G0 X117.095 Y192.721
G0 X116.087 Y192.289
G0 X115.517 Y192.288
G0 X115.53 Y190.723
G0 X115.866 Y180.192
G0 X117.232 Y180.239
G0 X117.221 Y178.881
G0 X115.146 Y176.166
G0 X113.035 Y172.135
G0 X111.196 Y165.898
G0 X110.194 Y160.686
G0 X109.466 Y156.413
G0 X108.327 Y145.753
G0 X107.17 Y132.88
G0 X106.938 Y120.555
G0 X107.752 Y108.125
G0 X111.548 Y97.297
G0 X113.235 Y94.649
G0 X114.709 Y93.633
G0 X116.638 Y92.664
G0 X116.943 Y92.848
G0 X116.707 Y106.527
G1 F2700 E778.70997
G0 F10500 X117.255 Y107.168
;TYPE:WALL-OUTER
G1 F2100 X117.256 Y107.127 E778.73043
G1 X117.409 Y107.127 E778.80676
G1 X117.409 Y107.166 E778.82622
G1 X117.255 Y107.168 E778.90306
G1 F2700 E773.90306
G0 F10500 X116.707 Y106.555
G0 X117.282 Y93.012
G0 X118.567 Y92.646
G0 X120.498 Y93.533
G0 X121.444 Y94.41
G0 X123.079 Y97.443
G0 X126.129 Y108.927
G0 X127.001 Y120.347
G0 X127.031 Y133.735
G0 X126.043 Y146.379
G0 X125.383 Y152.95
G0 X124.889 Y156.404
G0 X123.27 Y165.893
G0 X123.067 Y166.553
G0 X119.076 Y174.342
G0 X118.568 Y174.217
G0 X118.191 Y138.464
G1 F2700 E778.90306
G0 F10500 X117.613 Y137.894
G1 F2100 X117.461 Y137.894 E778.97889
G1 X117.436 Y136.379 E779.73483
G1 X117.595 Y136.565 E779.85691
G1 X117.613 Y137.894 E780.52001
G1 F2700 E775.52001
G0 F10500 X118.191 Y138.464
G0 X118.309 Y149.468
G0 X118.236 Y176.002
G0 X118.155 Y176.669
;TYPE:WALL-INNER
G1 F2700 E780.52001
G1 F2100 X118.288 Y176.476 E780.63695
G1 X118.497 Y176.067 E780.8661
G1 X118.508 Y174.48 E781.65788
G1 X119.219 Y174.654 E782.02306
G1 X123.309 Y166.651 E786.50697
G1 X123.524 Y165.955 E786.8704
G1 X123.623 Y165.404 E787.14969
G1 X125.146 Y156.444 E791.68397
G1 X125.642 Y152.982 E793.42881
G1 X126.302 Y146.403 E796.72756
G1 X127.292 Y133.744 E803.06244
G1 X127.213 Y123.583 E808.13194
G1 X127.262 Y120.34 E809.75006
G1 X126.691 Y112.448 E813.69769
G1 X126.386 Y108.878 E815.48526
G1 X123.859 Y100.473 E819.86395
G1 X123.33 Y97.357 E821.44078
G1 X122.25 Y95.322 E822.59016
G1 X121.652 Y94.246 E823.20431
G1 X120.644 Y93.311 E823.89024
G1 X119.139 Y92.661 E824.70813
G1 X118.561 Y92.338 E825.03846
G1 X117.962 Y92.701 E825.3879
G1 X117.963 Y92.743 E825.40886
G1 X117.248 Y92.739 E825.76558
G1 X117.249 Y92.721 E825.77457
G1 X116.641 Y92.356 E826.12837
G1 X116.033 Y92.708 E826.47887
G1 X114.556 Y93.416 E827.29603
G1 X113.653 Y94.31 E827.92998
G1 X113.039 Y95.454 E828.57773
G1 X111.919 Y97.341 E829.6725
G1 X111.079 Y101.126 E831.60678
G1 X108.931 Y108.832 E835.59789
G1 X108.81 Y111.243 E836.80225
G1 X107.981 Y120.486 E841.43211
G1 X108.056 Y124.146 E843.25848
G1 X108.226 Y133.009 E847.68106
G1 X108.54 Y137.844 E850.09833
G1 X108.989 Y145.793 E854.07043
G1 X109.627 Y152.494 E857.42869
G1 X110.06 Y156.436 E859.40719
G1 X111.584 Y165.394 E863.94057
G1 X111.691 Y165.942 E864.21913
G1 X111.899 Y166.646 E864.58537
G1 X116.156 Y174.991 E869.25912
G1 X116.873 Y174.82 E869.62687
G1 X116.869 Y176.1 E870.26547
G1 X116.874 Y176.427 E870.42863
G1 X117.584 Y177.376 E871.01993
G1 X118.155 Y176.669 E871.47332
G0 F10500 X117.596 Y176.724
;TYPE:WALL-OUTER
G1 F2100 X117.834 Y176.429 E871.66242
G1 X117.944 Y176.27 E871.75888
G1 X118.098 Y175.969 E871.92756
G1 X118.15 Y168.559 E875.62452
G1 X118.093 Y164.728 E877.53602
G1 X118.133 Y150.773 E884.49823
G1 X118.169 Y149.467 E885.15004
G1 X118.019 Y138.294 E890.72478
G1 X118.617 Y138.294 E891.02312
G1 X118.765 Y149.453 E896.59086
G1 X118.735 Y150.582 E897.15432
G1 X118.69 Y164.73 E904.21282
G1 X118.743 Y168.237 E905.96267
G1 X118.7 Y174.115 E908.89529
G1 X119.007 Y174.19 E909.05296
G1 X122.937 Y166.5 E913.36149
G1 X123.135 Y165.86 E913.69572
G1 X123.229 Y165.335 E913.96181
G1 X124.751 Y156.382 E918.49256
G1 X125.245 Y152.934 E920.23034
G1 X125.904 Y146.367 E923.52309
G1 X126.892 Y133.73 E929.84695
G1 X126.813 Y123.577 E934.91246
G1 X126.862 Y120.351 E936.5221
G1 X126.292 Y112.479 E940.45974
G1 X125.991 Y108.953 E942.22527
G1 X123.469 Y100.566 E946.59464
G1 X122.946 Y97.488 E948.15227
G1 X121.898 Y95.513 E949.26773
G1 X121.333 Y94.496 E949.84816
G1 X120.422 Y93.651 E950.46807
G1 X118.963 Y93.021 E951.26093
G1 X118.569 Y92.801 E951.48607
G1 X118.369 Y92.922 E951.60269
G1 X118.524 Y97.728 E954.00166
G1 X118.5 Y100.023 E955.1467
G1 X118.416 Y106.727 E958.4916
G1 X117.814 Y106.727 E958.79194
G1 X117.902 Y100.199 E962.04907
G1 X117.93 Y97.737 E963.27744
G1 X117.792 Y93.142 E965.57093
G1 X117.405 Y93.14 E965.76401
G1 X117.234 Y97.763 E968.07201
G1 X116.872 Y106.727 E972.54781
G1 X116.271 Y106.727 E972.84765
G1 X116.644 Y97.738 E977.33614
G1 X116.84 Y92.942 E979.73088
G1 X116.637 Y92.82 E979.84903
G1 X116.212 Y93.066 E980.09403
G1 X114.79 Y93.748 E980.88084
G1 X113.977 Y94.552 E981.45129
G1 X113.383 Y95.658 E982.07762
G1 X112.296 Y97.49 E983.14038
G1 X111.47 Y101.213 E985.04296
G1 X109.328 Y108.897 E989.02269
G1 X109.208 Y111.279 E990.21258
G1 X108.381 Y120.5 E994.83142
G1 X108.456 Y124.138 E996.64681
G1 X108.626 Y132.992 E1001.0649
G1 X108.939 Y137.821 E1003.47916
G1 X109.388 Y145.763 E1007.44776
G1 X110.025 Y152.453 E1010.80051
G1 X110.456 Y156.381 E1012.77196
G1 X111.978 Y165.322 E1017.29681
G1 X112.08 Y165.847 E1017.56363
G1 X112.272 Y166.497 E1017.90177
G1 X116.369 Y174.529 E1022.40015
G1 X116.675 Y174.456 E1022.5571
G1 X116.708 Y164.73 E1027.40945
G1 X116.71 Y162.422 E1028.56092
G1 X116.659 Y149.452 E1035.03173
G1 X116.633 Y148.479 E1035.51733
G1 X116.464 Y138.294 E1040.59935
G1 X117.068 Y138.294 E1040.90069
G1 X117.231 Y148.245 E1045.86593
G1 X117.262 Y149.447 E1046.46581
G1 X117.312 Y162.137 E1052.79692
G1 X117.308 Y164.73 E1054.09058
G1 X117.269 Y176.097 E1059.76163
G1 X117.272 Y176.291 E1059.85843
G1 X117.596 Y176.724 E1060.12823
G1 F2700 E1055.12823
G0 F10500 X117.75 Y176.849
G0 X117.2 Y177.16
G0 X116.686 Y175.055
G0 X116.06 Y175.198
G0 X111.416 Y165.425
G0 X108.819 Y145.806
G0 X107.81 Y120.48
G0 X108.639 Y111.234
G0 X111.758 Y97.277
G0 X112.892 Y95.366
G0 X113.235 Y94.649
G0 X111.548 Y97.297
G0 X107.752 Y108.125
G0 X106.938 Y120.555
G0 X107.17 Y132.88
G0 X108.54 Y147.982
G0 X109.466 Y156.413
G0 X110.194 Y160.686
G0 X111.196 Y165.898
G0 X113.035 Y172.135
G0 X115.146 Y176.166
G0 X116.375 Y177.781
G0 X117.128 Y179.957
;TYPE:WALL-INNER
G1 F2700 E1060.12823
G1 F2100 X117.114 Y179.047 E1060.58229
G1 X115.001 Y176.258 E1062.32797
G1 X112.877 Y172.2 E1064.61307
G1 X111.029 Y165.935 E1067.87183
G1 X110.027 Y160.719 E1070.52168
G1 X109.297 Y156.436 E1072.68929
G1 X108.37 Y148.001 E1076.92287
G1 X108.156 Y145.762 E1078.045
G1 X107.601 Y135.837 E1083.00434
G1 X106.999 Y132.899 E1084.50057
G1 X107.036 Y127.918 E1086.98567
G1 X106.766 Y120.549 E1090.66454
G1 X107.582 Y108.086 E1096.89567
G1 X109.569 Y103.342 E1099.46168
G1 X111.394 Y97.213 E1102.65213
G1 X111.656 Y96.892 E1102.85885
G1 X113.194 Y94.306 E1104.35995
G1 X113.339 Y94.038 E1104.51197
G1 X114.74 Y92.666 E1105.49027
G1 X117.3 Y91.478 E1106.89828
G1 X117.437 Y88.137 E1108.56652
G1 X117.502 Y86.547 E1109.36043
G1 X117.6 Y86.297 E1109.4944
G1 X117.623 Y86.308
G1 X117.781 Y86.611 E1109.58006
G1 X117.828 Y88.202 E1110.26624
G1 X117.927 Y91.479 E1111.90189
G1 X120.464 Y92.537 E1113.27325
G1 X122.028 Y93.982 E1114.33559
G1 X122.08 Y94.074 E1114.38831
G1 X123.378 Y96.519 E1115.76936
G1 X123.673 Y96.914 E1116.01532
G1 X123.883 Y97.184 E1116.18597
G1 X125.406 Y101.509 E1118.4736
G1 X127.222 Y106.254 E1121.00834
G1 X127.784 Y108.149 E1121.99446
G1 X127.857 Y108.376 E1122.11342
G1 X128.793 Y119.951 E1127.90706
G1 X128.809 Y120.109 E1127.98629
G1 X128.926 Y122.304 E1129.08294
G1 X128.768 Y133.927 E1134.88221
G1 X127.98 Y136.629 E1136.2864
G1 X127.185 Y146.835 E1141.39362
G1 X126.979 Y148.9 E1142.42897
G1 X125.91 Y156.408 E1146.2125
G1 X125.178 Y160.727 E1148.39799
G1 X124.229 Y166.029 E1151.0852
G1 X122.332 Y172.195 E1154.30373
G1 X120.198 Y176.269 E1156.59821
G1 X118.434 Y178.678 E1158.08783
G1 X118.265 Y178.876 E1158.2177
G1 X118.258 Y179.76 E1158.65875
G1 X117.687 Y179.541 E1158.96385
G1 X117.41 Y179.862 E1159.17538
G1 X117.128 Y179.957 E1159.32384
G1 F2700 E1154.32384
G0 F10500 X116.496 Y191.243
G1 F2700 E1159.32384
G0 F10500 X116.632 Y191.116
;TYPE:WALL-OUTER
G1 F2100 X118.564 Y191.108 E1160.28773
G1 X118.55 Y190.749 E1160.46697
G1 X118.009 Y183.002 E1164.34138
G1 X118.069 Y180.116 E1165.78152
G1 X117.806 Y180.015 E1165.92208
G1 X117.602 Y180.252 E1166.07808
G1 X117.581 Y180.227 E1166.09437
G1 X117.327 Y180.312 E1166.228
G1 X116.632 Y191.116 E1171.62928
G0 F10500 X116.385 Y191.435
G1 F2100 X116.406 Y189.546 E1172.57177
G1 X116.732 Y180.175 E1177.2498
G1 X116.716 Y179.184 E1177.74428
G1 X114.665 Y176.478 E1179.43827
G1 X112.503 Y172.347 E1181.76443
G1 X110.64 Y166.031 E1185.04972
G1 X109.634 Y160.794 E1187.71024
G1 X108.899 Y156.48 E1189.89351
G1 X107.973 Y148.045 E1194.12703
G1 X107.758 Y145.8 E1195.25219
G1 X107.203 Y135.889 E1200.20456
G1 X106.599 Y132.938 E1201.70734
G1 X106.636 Y127.924 E1204.2089
G1 X106.365 Y120.549 E1207.89079
G1 X107.187 Y107.992 E1214.16891
G1 X109.192 Y103.207 E1216.75726
G1 X111.034 Y97.022 E1219.9769
G1 X111.327 Y96.662 E1220.20848
G1 X112.846 Y94.108 E1221.691
G1 X113.016 Y93.794 E1221.86914
G1 X114.509 Y92.332 E1222.91166
G1 X116.91 Y91.218 E1224.23217
G1 X117.102 Y86.531 E1226.57249
G1 X117.116 Y86.372 E1226.65212
G1 X117.415 Y85.772 E1226.98657
G1 X117.914 Y86.001 E1227.26049
G1 X118.168 Y86.487 E1227.53407
G1 X118.179 Y86.528 E1227.55525
G1 X118.319 Y91.209 E1229.89165
G1 X120.683 Y92.195 E1231.16953
G1 X122.344 Y93.73 E1232.29789
G1 X122.433 Y93.886 E1232.38749
G1 X123.717 Y96.304 E1233.75337
G1 X123.991 Y96.671 E1233.98187
G1 X124.238 Y96.988 E1234.18236
G1 X125.781 Y101.371 E1236.50059
G1 X127.602 Y106.127 E1239.04135
G1 X128.166 Y108.031 E1240.03206
G1 X128.252 Y108.297 E1240.17153
G1 X129.191 Y119.914 E1245.98618
G1 X129.207 Y120.067 E1246.06292
G1 X129.326 Y122.309 E1247.18304
G1 X129.167 Y133.987 E1253.00976
G1 X128.376 Y136.701 E1254.42011
G1 X127.583 Y146.875 E1259.51134
G1 X127.375 Y148.956 E1260.55472
G1 X126.304 Y156.475 E1264.34383
G1 X125.572 Y160.797 E1266.53079
G1 X124.619 Y166.121 E1269.22917
G1 X122.703 Y172.348 E1272.47956
G1 X120.538 Y176.482 E1274.80774
G1 X118.748 Y178.927 E1276.31952
G1 X118.664 Y179.025 E1276.38391
G1 X118.655 Y180.152 E1276.94619
G1 X118.492 Y182.742 E1278.2409
G1 X118.788 Y189.541 E1281.63615
G1 X118.818 Y191.434 E1282.58069
G1 X116.385 Y191.435 E1283.79452
G0 F10500 X116.557 Y191.265
G0 X117.201 Y180.215
G0 X117.767 Y179.858
G0 X118.152 Y179.197
G0 X117.873 Y179.195
;TYPE:SKIN
G1 F2100 X117.57 Y179.079 E1283.95639
G1 X117.506 Y179.154 E1284.00558
G1 X117.502 Y178.913 E1284.12583
G1 X115.331 Y176.048 E1285.9192
G1 X113.241 Y172.055 E1288.16771
G1 X111.898 Y167.503 E1290.53549
G1 X115.948 Y175.441 E1294.98144
G1 X116.481 Y175.315 E1295.25468
G1 X116.479 Y176.102 E1295.64732
G1 X116.486 Y176.559 E1295.87534
G1 X117.572 Y178.012 E1296.78035
G1 X118.467 Y176.903 E1297.49134
G1 X118.623 Y176.677 E1297.62834
G1 X118.887 Y176.162 E1297.91707
G1 X118.894 Y174.976 E1298.50878
G1 X119.426 Y175.106 E1298.782
G1 X123.45 Y167.233 E1303.19317
G1 X121.968 Y172.049 E1305.70707
G1 X119.865 Y176.065 E1307.96875
G1 X118.137 Y178.425 E1309.42804
G1 X117.877 Y178.731 E1309.62837
G1 X117.873 Y179.195 E1309.85986
G1 F2700 E1304.85986
G0 F10500 X118.152 Y179.197
G0 X118.073 Y179.489
G0 X117.32 Y179.667
G0 X115.146 Y176.166
G0 X113.035 Y172.135
G0 X111.196 Y165.898
G0 X110.194 Y160.686
G0 X109.466 Y156.413
G0 X108.327 Y145.753
G0 X107.17 Y132.88
G0 X106.938 Y120.555
G0 X107.752 Y108.125
G0 X111.548 Y97.297
G0 X113.235 Y94.649
G0 X112.892 Y95.366
G0 X110.912 Y101.089
G0 X108.639 Y111.234
G0 X107.885 Y124.15
G0 X109.891 Y156.46
G0 X111.74 Y166.71
G0 X116.06 Y175.198
G0 X116.686 Y175.055
G0 X117.578 Y177.679
G0 X118.692 Y174.716
G0 X119.683 Y174.19
G0 X123.067 Y166.553
G0 X123.366 Y165.359
G0 X125.812 Y153.003
G0 X127.463 Y133.75
G0 X126.554 Y108.845
G0 X122.4 Y95.241
G0 X120.739 Y93.166
G0 X119.21 Y92.505
G0 X117.329 Y92.568
G0 X115.949 Y92.559
G0 X114.438 Y93.246
G0 X114.84 Y92.808
G0 X117.472 Y91.593
G0 X117.63 Y88.531
G0 X117.753 Y91.599
G0 X120.37 Y92.684
G0 X121.918 Y94.143
G0 X123.731 Y97.268
G0 X127.061 Y106.311
G0 X127.689 Y108.412
G0 X128.638 Y120.117
G0 X128.755 Y122.315
G0 X128.597 Y133.899
G0 X126.384 Y152.297
G1 F2700 E1309.85986
G0 F10500 X126.107 Y152.257
G1 F2100 X126.69 Y146.438 E1312.77751
G1 X127.682 Y133.758 E1319.12292
G1 X127.603 Y123.589 E1324.1964
G1 X127.652 Y120.329 E1325.82301
G1 X127.079 Y112.417 E1329.78066
G1 X126.772 Y108.804 E1331.58969
G1 X124.238 Y100.374 E1335.98133
G1 X123.907 Y98.426 E1336.96712
G1 X125.04 Y101.644 E1338.66919
G1 X126.848 Y106.365 E1341.19132
G1 X127.412 Y108.264 E1342.17964
G1 X127.473 Y108.455 E1342.27967
G1 X128.405 Y119.986 E1348.05127
G1 X128.419 Y120.13 E1348.12345
G1 X128.536 Y122.325 E1349.2201
G1 X128.378 Y133.87 E1354.98046
G1 X127.594 Y136.559 E1356.37786
G1 X126.797 Y146.796 E1361.50058
G1 X126.593 Y148.845 E1362.52788
G1 X126.107 Y152.257 E1364.24732
G1 F2700 E1359.24732
G0 F10500 X126.384 Y152.297
G0 X128.597 Y133.899
G0 X128.755 Y122.315
G0 X128.623 Y119.967
G0 X127.689 Y108.412
G0 X127.061 Y106.311
G0 X123.731 Y97.268
G0 X121.893 Y94.09
G0 X120.37 Y92.684
G0 X117.753 Y91.599
G0 X117.63 Y88.531
G0 X117.472 Y91.593
G0 X114.84 Y92.808
G0 X114.438 Y93.246
G0 X115.949 Y92.559
G0 X117.844 Y92.57
G0 X119.21 Y92.505
G0 X121.788 Y94.139
G0 X123.494 Y97.3
G0 X124.026 Y100.435
G0 X126.554 Y108.845
G0 X127.463 Y133.75
G0 X125.383 Y152.95
G0 X124.889 Y156.404
G0 X123.27 Y165.893
G0 X123.067 Y166.553
G0 X119.076 Y174.342
G0 X118.568 Y174.217
G0 X118.236 Y176.002
G0 X117.946 Y176.512
G0 X117.593 Y176.926
G0 X117.136 Y176.337
G0 X116.806 Y174.559
G0 X116.3 Y174.681
G0 X112.142 Y166.548
G0 X111.841 Y165.347
G0 X109.325 Y151.134
G0 X107.81 Y120.48
G0 X108.639 Y111.234
G0 X111.758 Y97.277
G0 X112.892 Y95.366
G0 X113.235 Y94.649
G0 X111.548 Y97.297
G0 X107.752 Y108.125
G0 X106.938 Y120.555
G0 X107.17 Y132.88
G0 X108.822 Y151.101
G1 F2700 E1364.24732
G0 F10500 X109.1 Y151.072
G1 F2100 X108.758 Y147.958 E1365.81024
G1 X108.546 Y145.74 E1366.92185
G1 X107.989 Y135.786 E1371.89569
G1 X107.389 Y132.861 E1373.38536
G1 X107.426 Y127.912 E1375.8545
G1 X107.156 Y120.56 E1379.5249
G1 X107.968 Y108.172 E1385.71856
G1 X109.937 Y103.473 E1388.26039
G1 X110.809 Y100.546 E1389.78411
G1 X110.703 Y101.021 E1390.02691
G1 X108.543 Y108.769 E1394.03981
G1 X108.42 Y111.223 E1395.26565
G1 X107.591 Y120.472 E1399.89849
G1 X107.666 Y124.154 E1401.73583
G1 X107.836 Y133.026 E1406.1629
G1 X108.15 Y137.866 E1408.58266
G1 X108.601 Y145.822 E1412.5583
G1 X109.1 Y151.072 E1415.18934
G1 F2700 E1410.18934
G0 F10500 X108.822 Y151.101
G0 X107.17 Y132.88
G0 X106.938 Y120.555
G0 X107.752 Y108.125
G0 X111.548 Y97.297
G0 X113.235 Y94.649
G0 X114.709 Y93.633
G0 X116.638 Y92.664
G0 X117.244 Y92.588
G1 F2700 E1415.18934
G0 F10500 X117.388 Y92.349
G1 F2100 X116.935 Y92.077 E1415.45295
G1 X117.605 Y91.767 E1415.82126
G1 X118.284 Y92.05 E1416.18826
G1 X117.785 Y92.352 E1416.47926
G1 X117.388 Y92.349 E1416.67733
G0 F10500 X117.677 Y92.191
G1 F2100 X117.833 Y92.035 E1416.7874
G0 F10500 X118.002 Y91.631
G0 X120.37 Y92.684
G0 X121.918 Y94.143
G0 X123.731 Y97.268
G0 X125.371 Y101.725
G0 X124.957 Y101.882
G1 F2100 X124.881 Y101.958 E1416.84102
G0 F10500 X125.114 Y102.29
G1 F2100 X125.012 Y102.393 E1416.91334
G0 F10500 X125.271 Y102.7
G1 F2100 X125.143 Y102.828 E1417.00365
G0 F10500 X125.428 Y103.108
G1 F2100 X125.273 Y103.263 E1417.11301
G0 F10500 X125.584 Y103.517
G1 F2100 X125.404 Y103.697 E1417.24001
G0 F10500 X125.741 Y103.927
G1 F2100 X125.535 Y104.132 E1417.385
G0 F10500 X125.898 Y104.335
G1 F2100 X125.666 Y104.567 E1417.54869
G0 F10500 X126.054 Y104.745
G1 F2100 X125.796 Y105.003 E1417.73072
G0 F10500 X126.211 Y105.153
G1 F2100 X125.927 Y105.438 E1417.93145
G0 F10500 X126.058 Y105.872
G1 F2100 X126.368 Y105.562 E1418.15017
G0 F10500 X126.524 Y105.971
G1 F2100 X126.188 Y106.307 E1418.38724
G0 F10500 X126.319 Y106.742
G1 F2100 X126.681 Y106.38 E1418.64265
G0 F10500 X126.813 Y106.814
G1 F2100 X126.45 Y107.177 E1418.89877
G0 F10500 X126.581 Y107.612
G1 F2100 X126.942 Y107.251 E1419.15347
G0 F10500 X127.072 Y107.687
G1 F2100 X126.712 Y108.047 E1419.40747
G0 F10500 X126.842 Y108.482
G1 F2100 X127.201 Y108.123 E1419.66077
G0 F10500 X127.32 Y108.569
G1 F2100 X126.944 Y108.946 E1419.92641
G0 F10500 X127.363 Y109.093
G1 F2100 X126.988 Y109.467 E1420.19064
G0 F10500 X127.405 Y109.616
G1 F2100 X127.033 Y109.989 E1420.45346
G0 F10500 X127.448 Y110.139
G1 F2100 X127.076 Y110.51 E1420.71557
G0 F10500 X127.49 Y110.662
G1 F2100 X127.121 Y111.032 E1420.97627
G0 F10500 X127.533 Y111.186
G1 F2100 X127.165 Y111.553 E1421.23556
G0 F10500 X127.575 Y111.709
G1 F2100 X127.209 Y112.075 E1421.4938
G0 F10500 X127.617 Y112.233
G1 F2100 X127.251 Y112.598 E1421.75168
G0 F10500 X127.659 Y112.756
G1 F2100 X127.29 Y113.125 E1422.01203
G0 F10500 X127.702 Y113.279
G1 F2100 X127.328 Y113.653 E1422.2759
G0 F10500 X127.744 Y113.803
G1 F2100 X127.366 Y114.18 E1422.54225
G0 F10500 X127.786 Y114.326
G1 F2100 X127.405 Y114.708 E1422.81142
G0 F10500 X127.829 Y114.849
G1 F2100 X127.443 Y115.235 E1423.08376
G0 F10500 X127.871 Y115.373
G1 F2100 X127.481 Y115.763 E1423.35893
G0 F10500 X127.913 Y115.896
G1 F2100 X127.519 Y116.29 E1423.63692
G0 F10500 X127.955 Y116.42
G1 F2100 X127.557 Y116.818 E1423.91773
G0 F10500 X127.998 Y116.943
G1 F2100 X127.596 Y117.345 E1424.20136
G0 F10500 X128.04 Y117.466
G1 F2100 X127.634 Y117.873 E1424.48817
G0 F10500 X128.083 Y117.989
G1 F2100 X127.672 Y118.4 E1424.77815
G0 F10500 X128.124 Y118.513
G1 F2100 X127.71 Y118.928 E1425.0706
G0 F10500 X128.167 Y119.037
G1 F2100 X127.748 Y119.455 E1425.36588
G0 F10500 X128.209 Y119.56
G1 F2100 X127.786 Y119.983 E1425.66433
G0 F10500 X128.252 Y120.082
G1 F2100 X127.808 Y120.527 E1425.97795
G0 F10500 X128.284 Y120.617
G1 F2100 X127.799 Y121.101 E1426.31979
G0 F10500 X128.312 Y121.154
G1 F2100 X127.791 Y121.676 E1426.68773
G0 F10500 X128.34 Y121.692
G1 F2100 X127.782 Y122.25 E1427.08143
G0 F10500 X127.774 Y122.824
G1 F2100 X128.369 Y122.229 E1427.50124
G0 F10500 X128.368 Y122.795
G1 F2100 X127.765 Y123.398 E1427.92669
G0 F10500 X127.765 Y123.964
G1 F2100 X128.361 Y123.368 E1428.3472
G0 F10500 X128.353 Y123.942
G1 F2100 X127.769 Y124.525 E1428.75889
G0 F10500 X127.774 Y125.087
G1 F2100 X128.344 Y124.516 E1429.16141
G0 F10500 X128.337 Y125.09
G1 F2100 X127.778 Y125.648 E1429.55546
G0 F10500 X128.329 Y125.663
G1 F2100 X127.782 Y126.21 E1429.9414
G0 F10500 X128.321 Y126.236
G1 F2100 X127.787 Y126.77 E1430.31816
G0 F10500 X128.313 Y126.81
G1 F2100 X127.791 Y127.332 E1430.68646
G0 F10500 X128.305 Y127.383
G1 F2100 X127.796 Y127.893 E1431.04594
G0 F10500 X128.298 Y127.957
G1 F2100 X127.8 Y128.455 E1431.39731
G0 F10500 X128.29 Y128.53
G1 F2100 X127.804 Y129.016 E1431.74021
G0 F10500 X128.282 Y129.104
G1 F2100 X127.808 Y129.578 E1432.07464
G0 F10500 X128.274 Y129.677
G1 F2100 X127.813 Y130.138 E1432.3999
G0 F10500 X128.267 Y130.251
G1 F2100 X127.818 Y130.7 E1432.71669
G0 F10500 X128.259 Y130.824
G1 F2100 X127.822 Y131.261 E1433.02502
G0 F10500 X128.251 Y131.398
G1 F2100 X127.826 Y131.823 E1433.32488
G0 F10500 X128.243 Y131.971
G1 F2100 X127.83 Y132.384 E1433.61628
G0 F10500 X128.235 Y132.545
G1 F2100 X127.835 Y132.945 E1433.8985
G0 F10500 X128.228 Y133.118
G1 F2100 X127.839 Y133.506 E1434.1726
G0 F10500 X128.219 Y133.692
G1 F2100 X127.815 Y134.097 E1434.458
G0 F10500 X128.047 Y134.43
G1 F2100 X127.767 Y134.71 E1434.65556
G0 F10500 X127.813 Y135.23
G1 F2100 X127.748 Y135.294 E1434.70107
G1 F2700 E1429.70107
G0 F10500 X127.285 Y135.258
G0 X127.001 Y120.347
G0 X126.129 Y108.927
G0 X123.079 Y97.443
G0 X121.444 Y94.41
G0 X120.498 Y93.533
G0 X118.567 Y92.646
G0 X116.638 Y92.664
G0 X114.709 Y93.633
G0 X113.864 Y94.468
G0 X112.165 Y97.439
G0 X109.19 Y108.875
G0 X108.242 Y120.496
G0 X108.11 Y132.739
G1 F2700 E1434.70107
G0 F10500 X107.669 Y132.746
G1 F2100 X107.553 Y132.862 E1434.78291
G0 F10500 X107.553 Y132.296
G1 F2100 X107.658 Y132.192 E1434.85664
G0 F10500 X107.558 Y131.726
G1 F2100 X107.647 Y131.637 E1434.91944
G1 F2700 E1429.91944
G0 F10500 X108.089 Y131.63
G0 X107.81 Y120.48
G0 X108.639 Y111.234
G0 X111.758 Y97.277
G0 X112.892 Y95.366
G0 X113.235 Y94.649
G0 X111.548 Y97.297
G0 X107.752 Y108.125
G0 X106.938 Y120.555
G0 X106.961 Y122.85
G1 F2700 E1434.91944
G0 F10500 X107.398 Y122.835
G1 F2100 X107.476 Y122.757 E1434.97447
G0 F10500 X107.379 Y122.289
G1 F2100 X107.465 Y122.202 E1435.0355
G0 F10500 X107.359 Y121.743
G1 F2100 X107.454 Y121.648 E1435.10253
G0 F10500 X107.339 Y121.197
G1 F2100 X107.442 Y121.094 E1435.1752
G0 F10500 X107.319 Y120.651
G1 F2100 X107.432 Y120.539 E1435.25458
G0 F10500 X107.35 Y120.055
G1 F2100 X107.478 Y119.926 E1435.34524
G0 F10500 X107.389 Y119.45
G1 F2100 X107.534 Y119.305 E1435.44755
G0 F10500 X107.429 Y118.844
G1 F2100 X107.59 Y118.683 E1435.56114
G0 F10500 X107.468 Y118.239
G1 F2100 X107.645 Y118.062 E1435.68602
G0 F10500 X107.508 Y117.634
G1 F2100 X107.701 Y117.441 E1435.8222
G0 F10500 X107.548 Y117.028
G1 F2100 X107.757 Y116.819 E1435.96966
G0 F10500 X107.588 Y116.423
G1 F2100 X107.812 Y116.198 E1436.12805
G0 F10500 X107.628 Y115.817
G1 F2100 X107.868 Y115.577 E1436.29739
G0 F10500 X107.667 Y115.212
G1 F2100 X107.924 Y114.955 E1436.47871
G0 F10500 X107.707 Y114.607
G1 F2100 X107.979 Y114.334 E1436.67098
G0 F10500 X107.747 Y114.001
G1 F2100 X108.035 Y113.713 E1436.87418
G0 F10500 X107.787 Y113.395
G1 F2100 X108.091 Y113.091 E1437.08867
G0 F10500 X107.826 Y112.79
G1 F2100 X108.147 Y112.47 E1437.3148
G0 F10500 X107.866 Y112.185
G1 F2100 X108.202 Y111.849 E1437.55186
G0 F10500 X107.905 Y111.58
G1 F2100 X108.258 Y111.227 E1437.80092
G0 F10500 X107.946 Y110.974
G1 F2100 X108.288 Y110.631 E1438.04257
G0 F10500 X107.985 Y110.368
G1 F2100 X108.318 Y110.035 E1438.27752
G0 F10500 X108.025 Y109.763
G1 F2100 X108.349 Y109.439 E1438.50612
G0 F10500 X108.065 Y109.158
G1 F2100 X108.378 Y108.844 E1438.72732
G0 F10500 X108.104 Y108.552
G1 F2100 X108.566 Y108.091 E1439.05293
G0 F10500 X108.301 Y107.789
G1 F2100 X108.784 Y107.307 E1439.39336
G0 F10500 X108.709 Y106.816
G1 F2100 X109.002 Y106.523 E1439.60009
G1 F2700 E1434.60009
G0 F10500 X109.426 Y106.641
G0 X109.19 Y108.875
G0 X108.242 Y120.496
G0 X108.487 Y132.997
G0 X109.249 Y145.774
G0 X110.318 Y156.4
G0 X111.945 Y165.88
G0 X113.143 Y169.327
G1 F2700 E1439.60009
G0 F10500 X112.75 Y169.526
G1 F2100 X112.682 Y169.594 E1439.64806
G0 F10500 X112.941 Y169.9
G1 F2100 X112.811 Y170.03 E1439.73979
G0 F10500 X113.132 Y170.275
G1 F2100 X112.94 Y170.467 E1439.87525
G0 F10500 X113.323 Y170.65
G1 F2100 X113.069 Y170.904 E1440.05446
G0 F10500 X113.198 Y171.341
G1 F2100 X113.515 Y171.024 E1440.27812
G0 F10500 X113.706 Y171.399
G1 F2100 X113.328 Y171.777 E1440.54482
G0 F10500 X113.489 Y172.181
G1 F2100 X113.897 Y171.773 E1440.83269
G0 F10500 X114.088 Y172.148
G1 F2100 X113.683 Y172.553 E1441.11844
G0 F10500 X113.878 Y172.924
G1 F2100 X114.279 Y172.522 E1441.40172
G0 F10500 X114.47 Y172.897
G1 F2100 X114.072 Y173.295 E1441.68253
G0 F10500 X114.267 Y173.666
G1 F2100 X114.661 Y173.272 E1441.96052
G0 F10500 X114.853 Y173.646
G1 F2100 X114.46 Y174.038 E1442.23745
G0 F10500 X114.655 Y174.41
G1 F2100 X115.044 Y174.021 E1442.51191
G0 F10500 X115.235 Y174.395
G1 F2100 X114.849 Y174.781 E1442.78425
G0 F10500 X115.044 Y175.152
G1 F2100 X115.426 Y174.769 E1443.05413
G0 F10500 X115.617 Y175.144
G1 F2100 X115.237 Y175.524 E1443.32224
G0 F10500 X115.432 Y175.895
G1 F2100 X115.808 Y175.519 E1443.58753
G0 F10500 X116.319 Y175.574
G1 F2100 X115.667 Y176.226 E1444.04755
G0 F10500 X115.911 Y176.548
G1 F2100 X116.319 Y176.14 E1444.33541
G0 F10500 X116.363 Y176.661
G1 F2100 X116.155 Y176.87 E1444.48252
G0 F10500 X116.398 Y177.191
G1 F2100 X116.605 Y176.985 E1444.62822
G0 F10500 X116.847 Y177.309
G1 F2100 X116.642 Y177.513 E1444.7725
G0 F10500 X116.886 Y177.835
G1 F2100 X117.089 Y177.633 E1444.91538
G0 F10500 X117.33 Y177.956
G1 F2100 X117.13 Y178.156 E1445.05649
G0 F10500 X117.374 Y178.478
G1 F2100 X119.333 Y176.52 E1446.43832
G0 F10500 X119.004 Y176.283
G1 F2100 X120.19 Y175.097 E1447.2751
G0 F10500 X119.594 Y175.127
G1 F2100 X120.812 Y173.91 E1448.13412
G0 F10500 X120.185 Y173.97
G1 F2100 X121.433 Y172.722 E1449.01465
G0 F10500 X120.777 Y172.813
G1 F2100 X121.914 Y171.676 E1449.81686
G0 F10500 X121.368 Y171.656
G1 F2100 X122.166 Y170.858 E1450.3799
G0 F10500 X121.96 Y170.499
G1 F2100 X122.418 Y170.04 E1450.70339
G1 F2700 E1445.70339
G0 F10500 X122.839 Y170.17
G0 X124.062 Y165.988
G0 X125.742 Y156.379
G0 X126.81 Y148.874
G0 X128.597 Y133.899
G0 X128.755 Y122.315
G0 X128.623 Y119.967
G0 X127.689 Y108.412
G0 X127.061 Y106.311
G0 X123.731 Y97.268
G0 X121.893 Y94.09
G0 X120.37 Y92.684
G0 X117.753 Y91.599
G0 X117.63 Y88.531
G0 X117.472 Y91.593
G0 X114.84 Y92.808
G0 X114.438 Y93.246
G0 X115.949 Y92.559
G0 X117.844 Y92.57
G0 X119.21 Y92.505
G0 X121.788 Y94.139
G0 X123.494 Y97.3
G0 X124.026 Y100.435
G0 X126.554 Y108.845
G0 X127.463 Y133.75
G0 X125.314 Y156.47
G0 X123.652 Y165.69
G0 X119.289 Y174.807
G1 F2700 E1450.70339
G0 F10500 X119.447 Y175.274
G1 F2100 X119.05 Y175.671 E1450.9835
G1 F2700 E1445.9835
G0 F10500 X118.61 Y175.668
G0 X117.578 Y177.679
G0 X116.686 Y175.055
G0 X116.06 Y175.198
G0 X111.416 Y165.425
G0 X108.819 Y145.806
G0 X107.81 Y120.48
G0 X108.639 Y111.234
G0 X111.758 Y97.277
G0 X112.892 Y95.366
G0 X113.235 Y94.649
G0 X111.548 Y97.297
G0 X107.752 Y108.125
G0 X106.938 Y120.555
G0 X107.17 Y132.88
G0 X108.54 Y147.982
G0 X109.466 Y156.413
G0 X110.194 Y160.686
G0 X111.196 Y165.898
G0 X113.035 Y172.135
G0 X115.146 Y176.166
G0 X117.32 Y179.667
G0 X118.073 Y179.489
G0 X118.149 Y178.832
G1 F2700 E1450.9835
G0 F10500 X117.717 Y178.701
G1 F2100 X117.618 Y178.8 E1451.05335
G0 F10500 X117.4 Y179.301
;TYPE:SKIN
G1 F2100 X117.279 Y179.422 E1451.09603
G0 F10500 X117.296 Y179.688
G1 F2100 X117.608 Y179.376 E1451.2061
G0 F10500 X117.65 Y179.414
G0 X117.32 Y179.667
G0 X115.146 Y176.166
G0 X113.035 Y172.135
G0 X111.58 Y167.414
G0 X111.821 Y167.344
G1 F2100 X111.989 Y167.176 E1451.26537
G0 F10500 X111.893 Y166.988
G1 F2100 X111.596 Y167.286 E1451.37032
G0 F10500 X111.531 Y167.068
G1 F2100 X111.798 Y166.801 E1451.46451
G0 F10500 X111.717 Y166.6
G1 F2100 X111.466 Y166.85 E1451.55288
G0 F10500 X111.402 Y166.631
G1 F2100 X111.653 Y166.38 E1451.64143
G0 F10500 X111.589 Y166.162
G1 F2100 X111.338 Y166.413 E1451.72997
G0 F10500 X111.273 Y166.194
G1 F2100 X111.527 Y165.94 E1451.81958
G0 F10500 X111.481 Y165.704
G1 F2100 X111.208 Y165.977 E1451.91589
G0 F10500 X111.155 Y165.747
G1 F2100 X111.435 Y165.467 E1452.01466
G0 F10500 X111.393 Y165.226
G1 F2100 X111.109 Y165.51 E1452.11485
G0 F10500 X111.064 Y165.272
G1 F2100 X111.352 Y164.984 E1452.21645
G0 F10500 X111.31 Y164.743
G1 F2100 X111.019 Y165.035 E1452.31929
G0 F10500 X110.973 Y164.798
G1 F2100 X111.269 Y164.502 E1452.42371
G0 F10500 X111.228 Y164.26
G1 F2100 X110.928 Y164.56 E1452.52954
G0 F10500 X110.882 Y164.323
G1 F2100 X111.187 Y164.018 E1452.63714
G0 F10500 X111.146 Y163.776
G1 F2100 X110.836 Y164.086 E1452.7465
G0 F10500 X110.791 Y163.848
G1 F2100 X111.105 Y163.534 E1452.85727
G0 F10500 X111.063 Y163.293
G1 F2100 X110.745 Y163.611 E1452.96946
G0 F10500 X110.7 Y163.374
G1 F2100 X111.022 Y163.051 E1453.08323
G0 F10500 X110.981 Y162.809
G1 F2100 X110.654 Y163.137 E1453.19876
G0 F10500 X110.609 Y162.899
G1 F2100 X110.94 Y162.568 E1453.31553
G0 F10500 X110.899 Y162.326
G1 F2100 X110.563 Y162.662 E1453.43406
G0 F10500 X110.517 Y162.425
G1 F2100 X110.858 Y162.084 E1453.55436
G0 F10500 X110.817 Y161.842
G1 F2100 X110.472 Y162.187 E1453.67607
G0 F10500 X110.426 Y161.95
G1 F2100 X110.776 Y161.601 E1453.79936
G0 F10500 X110.735 Y161.359
G1 F2100 X110.381 Y161.713 E1453.92425
G0 F10500 X110.335 Y161.476
G1 F2100 X110.694 Y161.117 E1454.05089
G0 F10500 X110.653 Y160.875
G1 F2100 X110.29 Y161.238 E1454.17895
G0 F10500 X110.245 Y161.001
G1 F2100 X110.612 Y160.634 E1454.30842
G0 F10500 X110.57 Y160.392
G1 F2100 X110.199 Y160.764 E1454.43948
G0 F10500 X110.156 Y160.523
G1 F2100 X110.529 Y160.151 E1454.57089
G0 F10500 X110.488 Y159.909
G1 F2100 X110.115 Y160.282 E1454.70247
G0 F10500 X110.073 Y160.04
G1 F2100 X110.447 Y159.667 E1454.83424
G0 F10500 X110.406 Y159.425
G1 F2100 X110.032 Y159.799 E1454.96617
G0 F10500 X109.991 Y159.557
G1 F2100 X110.365 Y159.183 E1455.09811
G0 F10500 X110.324 Y158.942
G1 F2100 X109.95 Y159.316 E1455.23005
G0 F10500 X109.909 Y159.074
G1 F2100 X110.283 Y158.7 E1455.36199
G0 F10500 X110.241 Y158.459
G1 F2100 X109.868 Y158.832 E1455.49358
G0 F10500 X109.826 Y158.591
G1 F2100 X110.2 Y158.217 E1455.62551
G0 F10500 X110.159 Y157.975
G1 F2100 X109.785 Y158.349 E1455.75745
G0 F10500 X109.744 Y158.107
G1 F2100 X110.118 Y157.733 E1455.88939
G0 F10500 X110.077 Y157.491
G1 F2100 X109.702 Y157.866 E1456.02168
G0 F10500 X109.661 Y157.624
G1 F2100 X110.036 Y157.249 E1456.15397
G0 F10500 X109.995 Y157.008
G1 F2100 X109.62 Y157.382 E1456.28609
G0 F10500 X109.578 Y157.141
G1 F2100 X109.953 Y156.766 E1456.41838
G0 F10500 X109.912 Y156.525
G1 F2100 X109.537 Y156.899 E1456.5505
G0 F10500 X109.496 Y156.658
G1 F2100 X109.881 Y156.273 E1456.68632
G0 F10500 X109.853 Y156.018
G1 F2100 X109.455 Y156.416 E1456.82672
G0 F10500 X109.427 Y156.161
G1 F2100 X109.824 Y155.764 E1456.96677
G0 F10500 X109.797 Y155.509
G1 F2100 X109.399 Y155.907 E1457.10718
G0 F10500 X109.371 Y155.652
G1 F2100 X109.769 Y155.254 E1457.24758
G0 F10500 X109.741 Y154.999
G1 F2100 X109.343 Y155.397 E1457.38799
G0 F10500 X109.315 Y155.142
G1 F2100 X109.713 Y154.744 E1457.52839
G0 F10500 X109.684 Y154.49
G1 F2100 X109.287 Y154.887 E1457.66845
G0 F10500 X109.259 Y154.632
G1 F2100 X109.657 Y154.234 E1457.80885
G0 F10500 X109.629 Y153.98
G1 F2100 X109.231 Y154.377 E1457.94908
G0 F10500 X109.203 Y154.123
G1 F2100 X109.6 Y153.725 E1458.08931
G0 F10500 X109.573 Y153.47
G1 F2100 X109.175 Y153.867 E1458.22954
G0 F10500 X109.147 Y153.613
G1 F2100 X109.544 Y153.215 E1458.36977
G0 F10500 X109.517 Y152.96
G1 F2100 X109.12 Y153.358 E1458.51
G0 F10500 X109.091 Y153.103
G1 F2100 X109.489 Y152.706 E1458.65023
G0 F10500 X109.461 Y152.45
G1 F2100 X109.064 Y152.848 E1458.79045
G0 F10500 X109.035 Y152.593
G1 F2100 X109.437 Y152.192 E1458.93209
G0 F10500 X109.412 Y151.933
G1 F2100 X109.008 Y152.338 E1459.07479
G0 F10500 X108.98 Y152.083
G1 F2100 X109.388 Y151.675 E1459.21873
G0 F10500 X109.363 Y151.417
G1 F2100 X108.951 Y151.829 E1459.36407
G0 F10500 X108.924 Y151.573
G1 F2100 X109.267 Y151.23 E1459.48507
G0 F10500 X108.953 Y151.262
G1 F2100 X108.895 Y151.319 E1459.50536
G1 F2700 E1454.50536
G0 F10500 X108.846 Y151.323
G0 X107.17 Y132.88
G0 X106.938 Y120.555
G0 X107.752 Y108.125
G0 X111.548 Y97.297
G0 X113.235 Y94.649
G0 X112.892 Y95.366
G0 X110.912 Y101.089
G0 X108.639 Y111.234
G0 X107.885 Y124.15
G0 X109.35 Y151.395
G0 X111.945 Y165.88
G0 X112.142 Y166.548
G0 X116.3 Y174.681
G0 X116.806 Y174.559
G0 X117.136 Y176.337
G0 X117.593 Y176.926
G0 X118.064 Y176.341
G0 X118.236 Y176.002
G0 X118.568 Y174.217
G0 X119.076 Y174.342
G0 X123.067 Y166.553
G0 X123.236 Y165.877
G0 X125.644 Y153.748
G1 F2700 E1459.50536
G0 F10500 X125.693 Y153.755
G1 F2100 X126.198 Y153.25 E1459.68351
G0 F10500 X126.244 Y152.921
G1 F2100 X125.74 Y153.425 E1459.86131
G0 F10500 X125.787 Y153.094
G1 F2100 X126.292 Y152.59 E1460.03929
G0 F10500 X126.161 Y152.438
G1 F2100 X125.823 Y152.776 E1460.15852
G0 F10500 X125.855 Y152.462
G1 F2100 X125.908 Y152.408 E1460.1774
G0 F10500 X125.813 Y152.399
G0 X127.463 Y133.75
G0 X126.554 Y108.845
G0 X122.4 Y95.241
G0 X120.739 Y93.166
G0 X119.21 Y92.505
G0 X117.329 Y92.568
G0 X115.949 Y92.559
G0 X114.438 Y93.246
G0 X114.84 Y92.808
G0 X117.472 Y91.593
G0 X117.63 Y88.531
G0 X117.753 Y91.599
G0 X120.37 Y92.684
G0 X121.918 Y94.143
G0 X123.731 Y97.268
G0 X127.061 Y106.311
G0 X127.689 Y108.412
G0 X128.638 Y120.117
G0 X128.755 Y122.315
G0 X128.597 Y133.899
G0 X126.2 Y153.588
G0 X126.15 Y153.58
G1 F2100 X125.645 Y154.085 E1460.35555
G0 F10500 X125.598 Y154.415
G1 F2100 X126.104 Y153.91 E1460.53388
G0 F10500 X126.057 Y154.239
G1 F2100 X125.551 Y154.746 E1460.71256
G0 F10500 X125.504 Y155.075
G1 F2100 X126.009 Y154.57 E1460.89071
G0 F10500 X125.963 Y154.899
G1 F2100 X125.457 Y155.405 E1461.06922
G0 F10500 X125.409 Y155.736
G1 F2100 X125.915 Y155.229 E1461.2479
G0 F10500 X125.869 Y155.559
G1 F2100 X125.362 Y156.066 E1461.42676
G0 F10500 X125.314 Y156.396
G1 F2100 X125.821 Y155.889 E1461.60562
G0 F10500 X125.775 Y156.218
G1 F2100 X125.26 Y156.733 E1461.7873
G0 F10500 X125.202 Y157.074
G1 F2100 X125.722 Y156.554 E1461.97074
G0 F10500 X125.664 Y156.894
G1 F2100 X125.144 Y157.415 E1462.15436
G0 F10500 X125.086 Y157.756
G1 F2100 X125.606 Y157.235 E1462.33798
G0 F10500 X125.549 Y157.575
G1 F2100 X125.028 Y158.097 E1462.52196
G0 F10500 X124.97 Y158.437
G1 F2100 X125.491 Y157.916 E1462.70575
G0 F10500 X125.433 Y158.257
G1 F2100 X124.912 Y158.778 E1462.88955
G0 F10500 X124.854 Y159.119
G1 F2100 X125.375 Y158.598 E1463.07335
G0 F10500 X125.318 Y158.938
G1 F2100 X124.796 Y159.46 E1463.2575
G0 F10500 X124.738 Y159.801
G1 F2100 X125.26 Y159.279 E1463.44165
G0 F10500 X125.202 Y159.62
G1 F2100 X124.68 Y160.142 E1463.62579
G0 F10500 X124.622 Y160.482
G1 F2100 X125.144 Y159.96 E1463.80994
G0 F10500 X125.087 Y160.301
G1 F2100 X124.564 Y160.823 E1463.99427
G0 F10500 X124.506 Y161.164
G1 F2100 X125.029 Y160.641 E1464.17877
G0 F10500 X124.968 Y160.985
G1 F2100 X124.448 Y161.505 E1464.36222
G0 F10500 X124.39 Y161.846
G1 F2100 X124.906 Y161.33 E1464.54425
G0 F10500 X124.844 Y161.675
G1 F2100 X124.332 Y162.186 E1464.7247
G0 F10500 X124.274 Y162.527
G1 F2100 X124.783 Y162.019 E1464.90408
G0 F10500 X124.721 Y162.363
G1 F2100 X124.216 Y162.868 E1465.08224
G0 F10500 X124.158 Y163.209
G1 F2100 X124.66 Y162.708 E1465.25915
G0 F10500 X124.597 Y163.053
G1 F2100 X124.1 Y163.55 E1465.43448
G0 F10500 X124.043 Y163.89
G1 F2100 X124.536 Y163.397 E1465.6084
G0 F10500 X124.474 Y163.741
G1 F2100 X123.985 Y164.231 E1465.78109
G0 F10500 X123.927 Y164.572
G1 F2100 X124.413 Y164.086 E1465.95254
G0 F10500 X124.351 Y164.43
G1 F2100 X123.869 Y164.912 E1466.12257
G0 F10500 X123.811 Y165.253
G1 F2100 X124.289 Y164.775 E1466.2912
G0 F10500 X124.228 Y165.12
G1 F2100 X123.751 Y165.596 E1466.4593
G0 F10500 X123.69 Y165.94
G1 F2100 X124.166 Y165.464 E1466.62722
G0 F10500 X124.105 Y165.808
G1 F2100 X123.572 Y166.341 E1466.81525
G0 F10500 X123.887 Y166.591
G1 F2100 X123.439 Y167.039 E1466.9733
G0 F10500 X123.641 Y167.121
G1 F2100 X123.762 Y167 E1467.01598
G0 F10500 X123.428 Y166.768
G1 F2100 X124.013 Y166.183 E1467.22236
G1 F2700 E1462.22236
G0 F10500 X124.06 Y166.198
G0 X125.742 Y156.379
G0 X126.81 Y148.874
G0 X128.597 Y133.899
G0 X128.755 Y122.315
G0 X128.623 Y119.967
G0 X127.689 Y108.412
G0 X127.061 Y106.311
G0 X123.731 Y97.268
G0 X121.893 Y94.09
G0 X120.37 Y92.684
G0 X117.753 Y91.599
G0 X117.63 Y88.531
G0 X117.472 Y91.593
G0 X114.84 Y92.808
G0 X114.438 Y93.246
G0 X112.165 Y97.439
G0 X111.118 Y100.437
G1 F2700 E1467.22236
G0 F10500 X110.895 Y100.387
G1 F2100 X111.129 Y100.153 E1467.30491
G0 F10500 X111.21 Y99.79
G1 F2100 X110.67 Y100.329 E1467.49523
G0 F10500 X110.736 Y99.981
G1 F2100 X111.29 Y99.426 E1467.69085
G0 F10500 X111.371 Y99.063
G1 F2100 X110.855 Y99.579 E1467.87288
G0 F10500 X110.976 Y99.175
G1 F2100 X111.452 Y98.699 E1468.0408
G0 F10500 X111.095 Y98.773
G1 F2100 X111.533 Y98.335 E1468.19532
G0 F10500 X111.215 Y98.37
G1 F2100 X111.613 Y97.972 E1468.33572
G0 F10500 X111.335 Y97.968
G1 F2100 X111.694 Y97.609 E1468.46237
G0 F10500 X111.455 Y97.565
G1 F2100 X111.807 Y97.213 E1468.58655
G0 F10500 X111.836 Y96.901
G1 F2100 X112.22 Y96.517 E1468.72201
G0 F10500 X112.251 Y96.203
G1 F2100 X112.633 Y95.821 E1468.85677
G0 F10500 X112.666 Y95.505
G1 F2100 X113.016 Y95.155 E1468.98024
G0 F10500 X113.081 Y94.807
G1 F2100 X113.344 Y94.545 E1469.07285
G0 F10500 X113.464 Y94.142
G1 F2100 X113.604 Y94.002 E1469.12224
G0 F10500 X114.76 Y93.196
G0 X114.739 Y93.15
G1 F2100 X115.314 Y92.575 E1469.32508
G0 F10500 X115.281 Y92.89
G1 F2100 X115.841 Y92.33 E1469.52264
G0 F10500 X115.824 Y92.63
G1 F2100 X116.369 Y92.085 E1469.7149
G0 F10500 X116.464 Y92.273
G1 F2100 X116.763 Y91.974 E1469.82038
G0 F10500 X117.455 Y91.565
G1 F2100 X117.759 Y91.261 E1469.92763
G0 F10500 X117.767 Y91.535
G1 F2100 X117.69 Y91.613 E1469.95497
G0 F10500 X117.467 Y91.27
G1 F2100 X117.75 Y90.986 E1470.05498
G0 F10500 X117.48 Y90.974
G1 F2100 X117.743 Y90.711 E1470.14776
G0 F10500 X117.492 Y90.68
G1 F2100 X117.734 Y90.437 E1470.23331
G0 F10500 X117.504 Y90.385
G1 F2100 X117.726 Y90.163 E1470.31163
G0 F10500 X117.516 Y90.09
G1 F2100 X117.718 Y89.888 E1470.38289
G0 F10500 X117.528 Y89.794
G1 F2100 X117.709 Y89.613 E1470.44674
G0 F10500 X117.54 Y89.499
G1 F2100 X117.701 Y89.339 E1470.50336
G0 F10500 X117.552 Y89.205
G1 F2100 X117.692 Y89.065 E1470.55275
G0 F10500 X117.565 Y88.909
G1 F2100 X117.685 Y88.789 E1470.59508
G0 F10500 X117.577 Y88.614
G1 F2100 X117.676 Y88.515 E1470.63001
G0 F10500 X117.589 Y88.319
G1 F2100 X117.663 Y88.246 E1470.65594
G0 F10500 X118.189 Y91.298
G0 X118.549 Y91.859
G0 X118.53 Y91.904
G1 F2100 X118.453 Y91.981 E1470.6831
G0 F10500 X118.562 Y92.155
G1 F2100 X118.73 Y91.987 E1470.74237
G0 F10500 X118.929 Y92.07
G1 F2100 X118.743 Y92.256 E1470.80798
G0 F10500 X118.925 Y92.358
G1 F2100 X119.129 Y92.154 E1470.87995
G0 F10500 X119.329 Y92.237
G1 F2100 X119.107 Y92.459 E1470.95827
G0 F10500 X119.295 Y92.553
G1 F2100 X119.528 Y92.32 E1471.04046
G0 F10500 X119.728 Y92.404
G1 F2100 X119.492 Y92.639 E1471.12354
G0 F10500 X119.689 Y92.725
G1 F2100 X119.928 Y92.486 E1471.20786
G0 F10500 X120.127 Y92.57
G1 F2100 X119.887 Y92.809 E1471.29235
G0 F10500 X120.085 Y92.895
G1 F2100 X120.326 Y92.653 E1471.37754
G0 F10500 X120.486 Y92.776
G1 F2100 X120.282 Y92.981 E1471.44969
G0 F10500 X120.48 Y93.065
G1 F2100 X120.633 Y92.912 E1471.50366
G0 F10500 X120.78 Y93.048
G1 F2100 X120.677 Y93.151 E1471.54
G0 F10500 X120.838 Y93.273
G1 F2100 X120.927 Y93.183 E1471.57157
G0 F10500 X121.075 Y93.319
G1 F2100 X120.985 Y93.409 E1471.60332
G0 F10500 X121.132 Y93.545
G1 F2100 X121.222 Y93.455 E1471.63507
G0 F10500 X121.369 Y93.591
G1 F2100 X121.278 Y93.681 E1471.667
G0 F10500 X121.425 Y93.817
G1 F2100 X121.516 Y93.727 E1471.69893
G0 F10500 X121.663 Y93.862
G1 F2100 X121.572 Y93.953 E1471.73103
G0 F10500 X121.718 Y94.09
G1 F2100 X121.81 Y93.998 E1471.76348
G0 F10500 X121.939 Y94.151
G1 F2100 X121.838 Y94.253 E1471.79929
G0 F10500 X121.939 Y94.434
G1 F2100 X122.036 Y94.337 E1471.83351
G0 F10500 X122.134 Y94.523
G1 F2100 X122.04 Y94.616 E1471.8665
G0 F10500 X122.142 Y94.798
G1 F2100 X122.232 Y94.707 E1471.89842
G0 F10500 X122.33 Y94.892
G1 F2100 X122.243 Y94.979 E1471.92911
G0 F10500 X122.344 Y95.161
G1 F2100 X122.429 Y95.076 E1471.9591
G0 F10500 X122.527 Y95.261
G1 F2100 X122.443 Y95.345 E1471.98873
G0 F10500 X122.625 Y95.445
G1 F2100 X122.541 Y95.53 E1472.01854
G0 F10500 X122.723 Y95.631
G1 F2100 X122.639 Y95.714 E1472.048
G0 F10500 X122.821 Y95.815
G1 F2100 X122.737 Y95.899 E1472.07763
G0 F10500 X122.919 Y96
G1 F2100 X122.835 Y96.084 E1472.10727
G0 F10500 X123.018 Y96.184
G1 F2100 X122.934 Y96.269 E1472.13708
G0 F10500 X123.116 Y96.369
G1 F2100 X123.031 Y96.454 E1472.16706
G0 F10500 X123.129 Y96.638
G1 F2100 X123.214 Y96.554 E1472.19687
G0 F10500 X123.329 Y96.722
G1 F2100 X123.228 Y96.823 E1472.2325
G0 F10500 X123.325 Y97.008
G1 F2100 X123.45 Y96.884 E1472.27642
G0 F10500 X123.571 Y97.045
G1 F2100 X123.424 Y97.193 E1472.32846
G0 F10500 X123.499 Y97.4
G1 F2100 X123.695 Y97.204 E1472.3976
G0 F10500 X123.786 Y97.396
G1 F2100 X123.54 Y97.642 E1472.48439
G0 F10500 X123.581 Y97.884
G1 F2100 X123.86 Y97.605 E1472.58281
G0 F10500 X123.933 Y97.814
G1 F2100 X123.622 Y98.125 E1472.69253
G0 F10500 X123.744 Y98.287
G1 F2100 X124.007 Y98.024 E1472.78531
G0 F10500 X124.056 Y98.008
G0 X123.731 Y97.268
G0 X121.893 Y94.09
G0 X120.37 Y92.684
G0 X117.753 Y91.599
G0 X117.63 Y88.531
G0 X117.472 Y91.593
G0 X114.84 Y92.808
G0 X114.438 Y93.246
G0 X115.949 Y92.559
G0 X118.003 Y92.819
G0 X118.321 Y98.028
G0 X118.221 Y98.152
G1 F2100 X118.218 Y98.438 E1472.87757
G1 X118.139 Y104.739 E1474.91043
G1 X118.135 Y106.441 E1475.4595
G0 F10500 X118.221 Y106.33
G0 X118.07 Y97.736
G0 X117.916 Y93.015
G0 X117.282 Y93.012
G0 X116.696 Y106.16
G0 X116.588 Y106.291
G1 F2100 X116.658 Y106.503 E1475.52388
G1 X116.624 Y105.406 E1475.84039
G1 X116.89 Y98.918 E1477.71297
G1 X117.121 Y93.03 E1479.41226
G1 X118.03 Y92.97 E1479.67497
G1 X118.11 Y94.021 E1479.97893
G1 X118.224 Y97.867 E1481.08853
G1 F2700 E1476.08853
G0 F10500 X118.127 Y97.991
G0 X118.232 Y92.848
G0 X118.567 Y92.646
G0 X120.498 Y93.533
G0 X121.444 Y94.41
G0 X123.079 Y97.443
G0 X126.129 Y108.927
G0 X127.001 Y120.347
G0 X127.031 Y133.735
G0 X126.043 Y146.379
G0 X125.383 Y152.95
G0 X124.889 Y156.404
G0 X123.27 Y165.893
G0 X123.067 Y166.553
G0 X119.076 Y174.342
G0 X118.568 Y174.217
G0 X118.353 Y138.494
G1 F2700 E1481.08853
G0 F10500 X118.276 Y138.544
G1 F2100 X118.324 Y138.778 E1481.16191
G1 X118.41 Y145.198 E1483.13422
G1 X118.46 Y149.673 E1484.50896
G1 X118.425 Y153.385 E1485.64929
G1 X118.405 Y159.911 E1487.65399
G1 X118.395 Y165.012 E1489.22095
G1 X118.442 Y168.925 E1490.42305
G1 X118.405 Y174.052 E1491.99804
G1 X118.484 Y174.257 E1492.06553
G0 F10500 X118.521 Y174.254
G0 X118.236 Y176.002
G0 X117.946 Y176.512
G0 X117.593 Y176.926
G0 X117.136 Y176.337
G0 X117.076 Y174.226
G0 X116.975 Y174.351
G1 F2100 X117.04 Y174.57 E1492.1371
G1 X116.979 Y173.216 E1492.56177
G1 X117 Y166.973 E1494.51787
G1 X117.005 Y161.028 E1496.38058
G1 X116.98 Y154.547 E1498.41126
G1 X116.954 Y149.2 E1500.08662
G1 X116.853 Y143.644 E1501.82774
G1 X116.77 Y138.635 E1503.3974
G1 F2700 E1498.3974
G0 F10500 X116.872 Y138.51
G0 X117.136 Y176.337
G0 X116.686 Y175.055
G0 X116.06 Y175.198
G0 X111.416 Y165.425
G0 X108.819 Y145.806
G0 X107.81 Y120.48
G0 X108.639 Y111.234
G0 X111.758 Y97.277
G0 X112.892 Y95.366
G0 X113.235 Y94.649
G0 X111.548 Y97.297
G0 X107.752 Y108.125
G0 X106.938 Y120.555
G0 X107.17 Y132.88
G0 X108.54 Y147.982
G0 X109.466 Y156.413
G0 X110.194 Y160.686
G0 X111.196 Y165.898
G0 X113.035 Y172.135
G0 X115.146 Y176.166
G0 X117.32 Y179.667
G0 X118.41 Y179.988
G0 X118.326 Y180.071
G1 F2700 E1503.3974
G1 F2100 X118.356 Y180.325 E1503.44805
G1 X118.255 Y182.972 E1503.97263
G1 X118.391 Y185.38 E1504.45026
G0 F10500 X118.378 Y185.419
G0 X118.203 Y180.026
G0 X117.767 Y179.858
G0 X117.201 Y180.215
G0 X116.811 Y185.239
G0 X116.781 Y185.294
G1 F2100 X116.765 Y185.592 E1504.51555
G1 X117.018 Y180.532 E1505.62383
G1 X117.025 Y180.242 E1505.68729
G0 F10500 X117.23 Y179.991
G1 F2700 E1500.68729
;MESH:NONMESH
G0 F300 X117.23 Y179.991 Z12.28
G0 F10500 X116.496 Y191.243
G0 X117.437 Y191.334
G0 X117.437 Y192.728
G0 X117.094 Y192.733
G0 X117.438 Y194.797
;TIME_ELAPSED:228.329479
;LAYER:4
;TYPE:WALL-INNER
;MESH:BoatHollow.stl
G1 F2700 E1505.68729
G1 F2100 X117.808 Y194.774 E1505.87224
G1 X117.799 Y195.195 E1506.08233
G1 X117.733 Y196.066 E1506.51812
G1 X117.753 Y196.864 E1506.91636
G1 X117.77 Y197.539 E1507.25323
G1 X117.784 Y197.878 E1507.4225
G1 X117.677 Y197.999 E1507.50309
G1 X117.581 Y197.999 E1507.55098
G1 X117.396 Y197.734 E1507.6727
G1 X117.441 Y196.872 E1508.05242
G1 X117.448 Y196.024 E1508.37259
G1 X117.442 Y195.198 E1508.70242
G1 X117.438 Y194.797 E1508.88425
G0 F10500 X117.481 Y194.394
;TYPE:WALL-OUTER
G1 F2100 X117.817 Y194.373 E1509.05221
G1 X117.92 Y193.418 E1509.53142
G1 X117.625 Y193.406 E1509.67872
G1 X117.248 Y193.421 E1509.86695
G1 X117.481 Y194.394 E1510.36611
G1 F2700 E1505.36611
G0 F10500 X117.493 Y194.594
G0 X117.471 Y198.211
G1 F2700 E1510.36611
G0 F10500 X117.373 Y198.399
G1 F2100 X117.025 Y197.901 E1510.66921
G1 X116.989 Y197.864 E1510.69497
G1 X117.041 Y196.86 E1511.19654
G1 X117.048 Y196.024 E1511.61363
G1 X117.031 Y193.856 E1512.69529
G1 X116.972 Y193.165 E1513.04128
G1 X118.244 Y193.165 E1513.67589
G1 X118.199 Y195.216 E1514.69938
G1 X118.133 Y196.076 E1515.1297
G1 X118.17 Y197.526 E1515.85334
G1 X118.19 Y198.023 E1516.1015
G1 X117.91 Y198.34 E1516.31251
G1 X117.851 Y198.399 E1516.35414
G1 X117.373 Y198.399 E1516.59261
G0 F10500 X117.617 Y197.981
G0 X117.344 Y194.579
G0 X117.34 Y194.556
;TYPE:SKIN
G1 F2100 X117.21 Y194.426 E1516.63847
G0 F10500 X117.564 Y194.891
G1 F2700 E1511.63847
G0 F10500 X117.416 Y194.6
G0 X117.095 Y193.278
G0 X117.095 Y192.258
G0 X116.697 Y191.798
G0 X116.484 Y190.809
G0 X116.562 Y186.32
G0 X114.43 Y185.932
;TYPE:WALL-INNER
G1 F2700 E1516.63847
G1 F2100 X113.935 Y185.846 E1516.88913
G1 X113.391 Y185.751 E1517.16464
G1 X112.92 Y185.716 E1517.40027
G1 X111.506 Y182.297 E1519.24614
G1 X109.573 Y177.274 E1521.93128
G1 X109.363 Y176.565 E1522.30019
G1 X109.18 Y176.317 E1522.45395
G1 X107.949 Y174.736 E1523.45362
G1 X106.384 Y168.503 E1526.6598
G1 X105.93 Y166.699 E1527.58788
G1 X105.698 Y165.494 E1528.2001
G1 X104.597 Y159.78 E1531.10326
G1 X104.51 Y159.33 E1531.33192
G1 X104.047 Y156.738 E1532.64555
G1 X103.027 Y148.714 E1536.68095
G1 X102.453 Y145.856 E1538.13529
G1 X101.741 Y137.78 E1542.18005
G1 X101.334 Y133.448 E1544.35081
G1 X101.28 Y131.7 E1545.22331
G1 X101.778 Y119.926 E1551.10263
G1 X103.472 Y108.907 E1556.66462
G1 X103.655 Y108.164 E1557.04638
G1 X103.824 Y107.411 E1557.4314
G1 X105.159 Y102.582 E1559.93096
G1 X107.261 Y95.675 E1563.53292
G1 X107.328 Y95.565 E1563.59718
G1 X107.573 Y95.182 E1563.82401
G1 X108.982 Y93.717 E1564.83808
G1 X109.713 Y92.717 E1565.45607
G1 X110.468 Y91.685 E1566.09401
G1 X110.549 Y91.594 E1566.15479
G1 X112.972 Y88.741 E1568.02221
G1 X113.462 Y88.164 E1568.39987
G1 X113.723 Y87.857 E1568.60091
G1 X115.2 Y87.512 E1569.35762
G1 X115.881 Y87.354 E1569.7064
G1 X117.249 Y86.951 E1570.41789
G1 X117.448 Y84.579 E1571.60545
G1 X117.497 Y83.984 E1571.9033
G1 X117.616 Y83.744 E1572.03695
G1 X117.797 Y84.065 E1572.13394
G1 X117.839 Y84.661 E1572.40211
G1 X117.906 Y85.585 E1572.86431
G1 X117.989 Y86.985 E1573.56399
G1 X119.265 Y87.37 E1574.22894
G1 X120.693 Y87.725 E1574.96306
G1 X121.319 Y87.881 E1575.28492
G1 X121.629 Y88.18 E1575.4998
G1 X122.454 Y88.976 E1576.07174
G1 X123.055 Y89.42 E1576.44453
G1 X124.854 Y90.749 E1577.5604
G1 X125.433 Y91.258 E1577.94502
G1 X127.853 Y95.528 E1580.39367
G1 X127.955 Y95.693 E1580.49045
G1 X131.53 Y106.373 E1586.10931
G1 X132.053 Y107.999 E1586.96146
G1 X133.287 Y118.76 E1592.36533
G1 X133.36 Y119.305 E1592.63966
G1 X133.722 Y127.296 E1596.63047
G1 X133.739 Y133.681 E1599.81597
G1 X133.365 Y138.733 E1602.34332
G1 X132.748 Y145.866 E1605.91528
G1 X132.178 Y148.717 E1607.3658
G1 X131.93 Y150.682 E1608.35392
G1 X131.163 Y156.775 E1611.41772
G1 X130.729 Y159.331 E1612.71116
G1 X129.577 Y165.434 E1615.80973
G1 X129.326 Y166.76 E1616.48302
G1 X128.808 Y168.787 E1617.5268
G1 X127.266 Y174.816 E1620.6315
G1 X126.026 Y176.34 E1621.61171
G1 X125.847 Y176.589 E1621.7647
G1 X125.64 Y177.25 E1622.11027
G1 X123.707 Y182.294 E1624.80519
G1 X122.302 Y185.715 E1626.65027
G1 X121.342 Y185.787 E1627.13056
G1 X120.796 Y185.884 E1627.40723
G1 X121.061 Y185.559 E1627.49148
G1 X121.841 Y184.602 E1628.10743
G1 X122.618 Y183.479 E1628.78873
G1 X123.88 Y180.255 E1630.51603
G1 X125.028 Y177.195 E1632.14657
G1 X127.14 Y170.538 E1635.63089
G1 X128.228 Y169.095 E1636.53251
G1 X128.552 Y168.722 E1636.77901
G1 X129.011 Y166.917 E1637.4951
G1 X129.301 Y165.383 E1638.13322
G1 X130.337 Y159.265 E1640.75936
G1 X130.742 Y156.874 E1641.96468
G1 X131.504 Y150.78 E1645.02492
G1 X132.065 Y146.383 E1647.23638
G1 X132.392 Y137.517 E1651.66265
G1 X132.666 Y133.822 E1653.51115
G1 X132.367 Y120.515 E1660.15172
G1 X132.308 Y119.409 E1660.70429
G1 X131.52 Y112.128 E1664.35801
G1 X131.293 Y108.029 E1666.40614
G1 X130.61 Y106.408 E1667.28371
G1 X129.919 Y104.504 E1668.29425
G1 X127.541 Y97.176 E1672.13788
G1 X127.205 Y96.039 E1672.72938
G1 X125.181 Y92.298 E1674.85143
G1 X124.902 Y91.778 E1675.14584
G1 X124.536 Y91.443 E1675.39338
G1 X122.781 Y89.71 E1676.62389
G1 X122.249 Y89.185 E1676.94691
G1 X121.435 Y88.382 E1677.3556
G1 X120.604 Y88.086 E1677.7957
G1 X119.18 Y87.652 E1678.41533
G1 X118.239 Y87.364 E1678.77476
G1 X117.545 Y87.154 E1679.1365
G1 X116.973 Y87.393 E1679.42738
G1 X115.984 Y87.692 E1679.86596
G1 X115.315 Y87.895 E1680.19467
G1 X113.717 Y88.38 E1681.02782
G1 X113.167 Y88.905 E1681.3099
G1 X110.575 Y91.767 E1682.35687
G1 X109.961 Y92.897 E1682.7122
G1 X109.311 Y93.924 E1683.23883
G1 X107.991 Y96.012 E1684.47125
G1 X107.721 Y96.911 E1684.93955
G1 X104.69 Y107.65 E1690.50657
G1 X104.46 Y109.809 E1691.5898
G1 X103.361 Y116.114 E1694.7828
G1 X102.967 Y117.797 E1695.64516
G1 X102.429 Y119.958 E1696.75619
G1 X102.606 Y124.708 E1699.12762
G1 X102.467 Y133.518 E1703.52349
G1 X102.779 Y136.958 E1705.24676
G1 X103.374 Y145.868 E1709.70188
G1 X103.712 Y150.815 E1712.1757
G1 X104.483 Y156.857 E1715.21451
G1 X104.99 Y159.705 E1716.65772
G1 X106.008 Y165.434 E1719.2551
G1 X106.273 Y166.8 E1719.84616
G1 X106.679 Y168.428 E1720.53165
G1 X106.969 Y168.778 E1720.75842
G1 X108.109 Y170.262 E1721.69203
G1 X110.174 Y177.194 E1725.30061
G1 X111.335 Y180.267 E1726.9395
G1 X112.611 Y183.51 E1728.67817
G1 X114.128 Y185.53 E1729.9385
G1 X114.43 Y185.932 E1730.07267
G1 F2700 E1725.07267
G0 F10500 X116.564 Y185.983
G1 F2700 E1730.07267
G0 F10500 X116.439 Y185.837
;TYPE:WALL-OUTER
G1 F2100 X116.5 Y179.929 E1733.02034
G1 X117.091 Y179.929 E1733.31519
G1 X116.839 Y185.832 E1736.26289
G1 X117.629 Y185.786 E1736.65769
G1 X118.343 Y185.828 E1737.01452
G1 X118.064 Y179.93 E1739.96034
G1 X118.658 Y179.93 E1740.25669
G1 X118.683 Y181.1 E1740.84054
G1 X118.758 Y185.84 E1743.20563
G1 X119.492 Y185.749 E1743.57462
G1 X120.474 Y185.646 E1744.06723
G1 X121.521 Y184.361 E1744.89418
G1 X122.263 Y183.29 E1745.54421
G1 X123.506 Y180.112 E1747.24669
G1 X124.65 Y177.064 E1748.87092
G1 X126.78 Y170.352 E1752.38412
G1 X127.917 Y168.843 E1753.32675
G1 X128.188 Y168.531 E1753.53292
G1 X128.62 Y166.831 E1754.40801
G1 X128.907 Y165.312 E1755.17925
G1 X130.346 Y156.816 E1759.47829
G1 X131.107 Y150.729 E1762.53875
G1 X131.666 Y146.35 E1764.74117
G1 X131.993 Y137.487 E1769.16595
G1 X132.266 Y133.812 E1771.00447
G1 X131.967 Y120.53 E1777.63256
G1 X131.909 Y119.441 E1778.17664
G1 X131.122 Y112.171 E1781.82484
G1 X130.897 Y108.12 E1783.84901
G1 X130.241 Y106.563 E1784.69193
G1 X129.543 Y104.641 E1785.7121
G1 X127.157 Y97.289 E1789.56835
G1 X126.833 Y96.192 E1790.13902
G1 X124.829 Y92.488 E1792.24008
G1 X124.582 Y92.027 E1792.50101
G1 X124.255 Y91.728 E1792.72206
G1 X121.217 Y88.729 E1794.85182
G1 X120.478 Y88.466 E1795.24316
G1 X118.435 Y87.842 E1796.3089
G1 X118.526 Y90.868 E1797.81926
G1 X118.647 Y94.704 E1799.734
G1 X118.046 Y94.704 E1800.03384
G1 X117.936 Y91.02 E1801.87262
G1 X117.847 Y87.662 E1803.54852
G1 X117.567 Y87.578 E1803.69436
G1 X117.364 Y87.663 E1803.80416
G1 X117.111 Y94.704 E1807.3192
G1 X116.51 Y94.704 E1807.61904
G1 X116.777 Y87.873 E1811.02964
G1 X113.924 Y88.735 E1812.51656
G1 X113.454 Y89.184 E1812.84084
G1 X110.904 Y92 E1814.73617
G1 X110.31 Y93.094 E1815.35723
G1 X108.358 Y96.179 E1817.17857
G1 X108.105 Y97.023 E1817.61815
G1 X105.084 Y107.726 E1823.16653
G1 X104.857 Y109.861 E1824.23769
G1 X103.755 Y116.185 E1827.44029
G1 X103.355 Y117.894 E1828.31596
G1 X102.831 Y120 E1829.39868
G1 X103.006 Y124.693 E1831.74165
G1 X102.867 Y133.503 E1836.13753
G1 X103.178 Y136.931 E1837.85479
G1 X103.773 Y145.841 E1842.30991
G1 X104.11 Y150.776 E1844.77772
G1 X104.879 Y156.797 E1847.80601
G1 X106.401 Y165.361 E1852.14556
G1 X106.664 Y166.713 E1852.83272
G1 X107.045 Y168.243 E1853.61935
G1 X107.286 Y168.534 E1853.80785
G1 X108.471 Y170.076 E1854.77808
G1 X110.553 Y177.066 E1858.41681
G1 X111.708 Y180.123 E1860.04718
G1 X112.963 Y183.313 E1861.75742
G1 X114.696 Y185.62 E1863.19695
G1 X115.034 Y185.643 E1863.36597
G1 X115.27 Y185.673 E1863.48466
G1 X116.439 Y185.837 E1864.07358
G0 F10500 X116.639 Y185.84
G0 X116.495 Y190.956
G0 X116.398 Y191.228
;TYPE:WALL-INNER
G1 F2100 X118.798 Y191.227 E1865.27095
G1 X118.651 Y191.978 E1865.65273
G1 X116.55 Y191.978 E1866.70093
G1 X116.398 Y191.228 E1867.08271
G0 F10500 X116.621 Y190.828
;TYPE:WALL-OUTER
G1 F2100 X118.58 Y190.827 E1868.06006
G1 X118.372 Y186.43 E1870.25619
G1 X117.648 Y186.398 E1870.61774
G1 X116.813 Y186.434 E1871.03471
G1 X116.621 Y190.828 E1873.22898
G1 F2700 E1868.22898
G0 F10500 X116.423 Y190.819
G0 X116.368 Y192.201
G1 F2700 E1873.22898
G0 F10500 X116.223 Y192.378
G1 F2100 X115.908 Y190.828 E1874.01809
G1 X116.369 Y190.828 E1874.24808
G1 X116.417 Y187.944 E1875.68711
G1 X116.432 Y186.452 E1876.43151
G1 X115.553 Y186.49 E1876.87046
G1 X114.683 Y186.382 E1877.30783
G1 X113.342 Y186.148 E1877.98697
G1 X112.644 Y186.096 E1878.33617
G1 X111.136 Y182.45 E1880.30461
G1 X109.192 Y177.398 E1883.00523
G1 X108.999 Y176.746 E1883.34446
G1 X108.861 Y176.559 E1883.46041
G1 X107.582 Y174.916 E1884.49919
G1 X105.538 Y166.78 E1888.6844
G1 X104.117 Y159.406 E1892.43099
G1 X103.653 Y156.808 E1893.74764
G1 X102.632 Y148.779 E1897.78558
G1 X102.057 Y145.916 E1899.24246
G1 X101.343 Y137.816 E1903.29924
G1 X100.934 Y133.466 E1905.47903
G1 X100.879 Y131.695 E1906.36302
G1 X101.379 Y119.893 E1912.25634
G1 X103.08 Y108.829 E1917.84105
G1 X103.266 Y108.073 E1918.22946
G1 X103.438 Y107.304 E1918.6226
G1 X104.773 Y102.475 E1921.12217
G1 X106.893 Y95.51 E1924.75442
G1 X106.991 Y95.35 E1924.84803
G1 X107.257 Y94.934 E1925.09437
G1 X108.675 Y93.459 E1926.11515
G1 X110.153 Y91.438 E1927.3643
G1 X110.247 Y91.332 E1927.43498
G1 X113.504 Y87.497 E1929.94517
G1 X115.779 Y86.967 E1931.11056
G1 X116.873 Y86.645 E1931.67951
G1 X117.104 Y83.874 E1933.06677
G1 X117.332 Y83.417 E1933.32156
G1 X117.433 Y83.257 E1933.41596
G1 X117.563 Y83.279 E1933.48174
G1 X117.932 Y83.449 E1933.68443
G1 X118.097 Y83.766 E1933.86273
G1 X118.191 Y83.961 E1933.97073
G1 X118.305 Y85.561 E1934.77099
G1 X118.372 Y86.683 E1935.33176
G1 X119.371 Y86.984 E1935.85229
G1 X121.52 Y87.519 E1936.95716
G1 X122.713 Y88.67 E1937.7842
G1 X125.105 Y90.437 E1939.26788
G1 X125.747 Y91.001 E1939.69421
G1 X128.197 Y95.324 E1942.17325
G1 X128.319 Y95.52 E1942.28843
G1 X131.911 Y106.251 E1947.93412
G1 X132.445 Y107.912 E1948.80456
G1 X133.684 Y118.711 E1954.22755
G1 X133.76 Y119.279 E1954.51345
G1 X134.122 Y127.278 E1958.50826
G1 X134.139 Y133.697 E1961.71072
G1 X133.764 Y138.767 E1964.24706
G1 X133.146 Y145.916 E1967.82701
G1 X132.573 Y148.781 E1969.28468
G1 X131.56 Y156.825 E1973.32954
G1 X131.122 Y159.405 E1974.63512
G1 X129.714 Y166.859 E1978.4197
G1 X127.633 Y174.998 E1982.61089
G1 X126.344 Y176.583 E1983.63014
G1 X126.209 Y176.77 E1983.7452
G1 X126.014 Y177.393 E1984.07089
G1 X124.081 Y182.437 E1986.76581
G1 X122.578 Y186.095 E1988.73884
G1 X121.392 Y186.184 E1989.3322
G1 X119.689 Y186.488 E1990.19526
G1 X118.767 Y186.448 E1990.65568
G1 X118.835 Y190.827 E1992.84064
G1 X119.291 Y190.827 E1993.06813
G1 X119.239 Y191.06 E1993.18724
G1 X118.98 Y192.378 E1993.85737
G1 X116.223 Y192.378 E1995.23284
G0 F10500 X116.368 Y192.201
G0 X116.718 Y191.337
G0 X116.717 Y191.387
;TYPE:SKIN
G1 F2100 X117.146 Y191.816 E1995.53552
G0 F10500 X117.282 Y191.387
G1 F2100 X117.712 Y191.816 E1995.83856
G0 F10500 X117.848 Y191.387
G1 F2100 X118.277 Y191.816 E1996.14124
G0 F10500 X118.572 Y191.546
G1 F2100 X118.414 Y191.387 E1996.25307
G0 F10500 X118.415 Y191.337
G0 X116.489 Y190.955
G0 X116.562 Y186.32
G0 X115.406 Y186.266
G0 X113.75 Y185.211
G0 X113.527 Y185.378
G1 F2100 X113.439 Y185.363 E1996.29761
G1 X113.189 Y185.345 E1996.42266
G1 X112.806 Y184.419 E1996.9226
G1 X113.527 Y185.378 E1997.52118
G0 F10500 X113.75 Y185.211
G0 X113.977 Y185.654
G0 X113.042 Y185.548
G0 X109.181 Y176.138
G0 X109.401 Y175.967
G1 F2100 X108.307 Y174.56 E1998.41036
G1 X107.038 Y169.509 E2001.00863
G1 X107.757 Y170.444 E2001.59707
G1 X109.401 Y175.967 E2004.47199
G0 F10500 X109.181 Y176.138
G0 X108.107 Y174.659
G0 X106.64 Y168.696
G0 X107.955 Y170.343
G0 X109.184 Y174.257
G0 X108.762 Y174.382
G1 F2100 X108.314 Y173.934 E2004.78808
G0 F10500 X108.523 Y173.577
G1 F2100 X108.124 Y173.178 E2005.06959
G0 F10500 X108.282 Y172.77
G1 F2100 X107.934 Y172.423 E2005.31477
G0 F10500 X108.043 Y171.965
G1 F2100 X107.744 Y171.667 E2005.52538
G0 F10500 X107.803 Y171.16
G1 F2100 X107.555 Y170.911 E2005.70071
G0 F10500 X107.129 Y171.017
G0 X106.729 Y169.426
G0 X106.881 Y169.389
;TYPE:SKIN
G1 F2100 X106.733 Y169.241 E2005.75292
G0 F10500 X107.071 Y169.296
G1 F2100 X106.638 Y168.864 E2005.9055
G0 F10500 X106.591 Y168.875
G0 X107.955 Y170.343
G0 X109.712 Y176.029
G0 X109.595 Y176.063
G1 F2100 X109.704 Y176.172 E2005.94395
G0 F10500 X109.409 Y176.16
G1 F2100 X109.823 Y176.574 E2006.09
G0 F10500 X109.529 Y176.563
G1 F2100 X109.942 Y176.976 E2006.2357
G0 F10500 X109.648 Y176.964
G1 F2100 X110.079 Y177.396 E2006.38792
G0 F10500 X109.788 Y177.387
G1 F2100 X110.25 Y177.85 E2006.55108
G0 F10500 X109.965 Y177.847
G1 F2100 X110.422 Y178.304 E2006.7123
G0 F10500 X110.141 Y178.306
G1 F2100 X110.594 Y178.759 E2006.87211
G0 F10500 X110.319 Y178.767
G1 F2100 X110.765 Y179.213 E2007.02945
G0 F10500 X110.496 Y179.226
G1 F2100 X110.937 Y179.668 E2007.1852
G0 F10500 X110.672 Y179.686
G1 F2100 X111.109 Y180.122 E2007.33919
G0 F10500 X110.85 Y180.146
G1 F2100 X111.287 Y180.583 E2007.49335
G0 F10500 X111.027 Y180.606
G1 F2100 X111.47 Y181.049 E2007.64963
G0 F10500 X111.203 Y181.066
G1 F2100 X111.654 Y181.516 E2007.80856
G0 F10500 X111.381 Y181.526
G1 F2100 X111.837 Y181.982 E2007.96942
G0 F10500 X111.558 Y181.985
G1 F2100 X112.021 Y182.449 E2008.13293
G0 F10500 X111.744 Y182.455
G1 F2100 X112.205 Y182.915 E2008.29539
G0 F10500 X111.944 Y182.937
G1 F2100 X112.388 Y183.381 E2008.45202
G0 F10500 X112.143 Y183.419
G1 F2100 X112.891 Y184.167 E2008.7159
G0 F10500 X112.71 Y184.269
G1 F2100 X112.343 Y183.902 E2008.84537
G0 F10500 X112.297 Y183.92
G0 X113.042 Y185.548
G0 X113.977 Y185.654
G0 X113.808 Y185.289
G0 X113.763 Y185.322
G1 F2100 X113.803 Y185.362 E2008.85948
G0 F10500 X113.656 Y185.498
G1 F2100 X113.82 Y185.662 E2008.91733
G0 F10500 X113.811 Y185.711
G0 X116.564 Y185.983
G0 X118.635 Y185.983
G0 X120.544 Y185.776
G0 X121.504 Y185.191
G0 X121.72 Y185.368
;TYPE:SKIN
G1 F2100 X122.153 Y184.836 E2009.25955
G1 X122.37 Y184.523 E2009.44957
G1 X122.032 Y185.345 E2009.89298
G1 X121.72 Y185.368 E2010.04906
G0 F10500 X121.504 Y185.191
G0 X122.004 Y184.151
G0 X125.561 Y175.881
G0 X125.827 Y175.966
G1 F2100 X127.492 Y170.72 E2012.79496
G1 X128.125 Y169.879 E2013.3201
G1 X126.908 Y174.638 E2015.77078
G1 X125.827 Y175.966 E2016.62508
G0 F10500 X125.561 Y175.881
G0 X127.294 Y170.618
G0 X128.356 Y169.208
G0 X127.11 Y174.735
G0 X126.722 Y175.309
G0 X126.381 Y175.03
G1 F2100 X126.313 Y174.962 E2016.67306
G0 F10500 X126.635 Y174.719
G1 F2100 X126.449 Y174.533 E2016.80429
G0 F10500 X126.819 Y174.337
G1 F2100 X126.585 Y174.103 E2016.96939
G0 F10500 X126.934 Y173.886
G1 F2100 X126.722 Y173.673 E2017.11932
G0 F10500 X127.05 Y173.436
G1 F2100 X126.858 Y173.244 E2017.25478
G0 F10500 X127.165 Y172.985
G1 F2100 X126.994 Y172.815 E2017.37508
G0 F10500 X127.28 Y172.535
G1 F2100 X127.13 Y172.385 E2017.48092
G0 F10500 X127.395 Y172.085
G1 F2100 X127.267 Y171.956 E2017.57158
G0 F10500 X127.511 Y171.634
G1 F2100 X127.403 Y171.527 E2017.64743
G0 F10500 X127.626 Y171.184
G1 F2100 X127.539 Y171.097 E2017.70881
G0 F10500 X127.121 Y170.964
G0 X127.992 Y169.592
G0 X128.088 Y169.666
;TYPE:SKIN
G1 F2100 X128.035 Y169.613 E2017.72751
G0 F10500 X128.157 Y169.452
G1 F2100 X128.407 Y169.702 E2017.8157
G0 F10500 X128.465 Y169.477
G1 F2100 X128.279 Y169.291 E2017.88132
G0 F10500 X128.404 Y169.134
G1 F2100 X128.523 Y169.252 E2017.92312
G0 F10500 X128.571 Y169.264
G0 X127.11 Y174.735
G0 X125.944 Y176.265
G0 X125.807 Y176.153
G1 F2100 X125.898 Y176.244 E2017.95523
G0 F10500 X125.779 Y176.408
G1 F2100 X125.524 Y176.153 E2018.04518
G0 F10500 X125.457 Y176.368
G1 F2100 X125.679 Y176.591 E2018.12368
G0 F10500 X125.611 Y176.806
G1 F2100 X125.389 Y176.583 E2018.20217
G0 F10500 X125.32 Y176.797
G1 F2100 X125.543 Y177.021 E2018.28102
G0 F10500 X125.474 Y177.234
G1 F2100 X125.252 Y177.012 E2018.35933
G0 F10500 X125.184 Y177.227
G1 F2100 X125.396 Y177.439 E2018.43412
G0 F10500 X125.317 Y177.643
G1 F2100 X125.108 Y177.434 E2018.50785
G0 F10500 X125.031 Y177.64
G1 F2100 X125.239 Y177.847 E2018.58105
G0 F10500 X125.16 Y178.052
G1 F2100 X124.954 Y177.845 E2018.6539
G0 F10500 X124.876 Y178.05
G1 F2100 X125.082 Y178.256 E2018.72657
G0 F10500 X125.004 Y178.461
G1 F2100 X124.799 Y178.256 E2018.79889
G0 F10500 X124.722 Y178.462
G1 F2100 X124.925 Y178.666 E2018.87068
G0 F10500 X124.847 Y178.87
G1 F2100 X124.645 Y178.668 E2018.94194
G0 F10500 X124.568 Y178.873
G1 F2100 X124.768 Y179.074 E2019.01268
G0 F10500 X124.69 Y179.279
G1 F2100 X124.491 Y179.079 E2019.08306
G0 F10500 X124.414 Y179.285
G1 F2100 X124.612 Y179.483 E2019.15291
G0 F10500 X124.534 Y179.688
G1 F2100 X124.336 Y179.491 E2019.22258
G0 F10500 X124.259 Y179.697
G1 F2100 X124.455 Y179.892 E2019.29155
G0 F10500 X124.377 Y180.097
G1 F2100 X124.182 Y179.902 E2019.36034
G0 F10500 X124.105 Y180.108
G1 F2100 X124.298 Y180.301 E2019.42842
G0 F10500 X124.22 Y180.505
G1 F2100 X124.028 Y180.314 E2019.49598
G0 F10500 X123.948 Y180.517
G1 F2100 X124.141 Y180.71 E2019.56407
G0 F10500 X124.064 Y180.915
G1 F2100 X123.869 Y180.72 E2019.63286
G0 F10500 X123.789 Y180.923
G1 F2100 X123.985 Y181.119 E2019.702
G0 F10500 X123.907 Y181.324
G1 F2100 X123.71 Y181.127 E2019.7715
G0 F10500 X123.63 Y181.33
G1 F2100 X123.828 Y181.528 E2019.84135
G0 F10500 X123.75 Y181.732
G1 F2100 X123.551 Y181.534 E2019.91138
G0 F10500 X123.471 Y181.737
G1 F2100 X123.671 Y181.937 E2019.98193
G0 F10500 X123.593 Y182.141
G1 F2100 X123.391 Y181.939 E2020.05319
