;FLAVOR:Marlin
;TIME:924
;Filament used: 3.75161m
;Layer height: 3
;MINX:90.369
;MINY:90.369
;MINZ:0.28
;MAXX:144.631
;MAXY:144.631
;MAXZ:120.28
;Generated with Cura_SteamEngine master
M140 S50
M105
M190 S50
M104 S200
M105
M109 S200
M82 ;absolute extrusion mode
; Ender 3 Custom Start G-code
G92 E0 ; Reset Extruder
G28 ; Home all axes
G1 Z2.0 F3000 ; Move Z Axis up little to prevent scratching of Heat Bed
G1 X0.1 Y20 Z0.3 F5000.0 ; Move to start position
G1 X0.1 Y200.0 Z0.3 F1500.0 E15 ; Draw the first line
G1 X0.4 Y200.0 Z0.3 F5000.0 ; Move to side a little
G1 X0.4 Y20 Z0.3 F1500.0 E30 ; Draw the second line
G92 E0 ; Reset Extruder
G1 Z2.0 F3000 ; Move Z Axis up little to prevent scratching of Heat Bed
G1 X5 Y20 Z0.3 F5000.0 ; Move over to prevent blob squish
G92 E0
G92 E0
G1 F2700 E-5
;LAYER_COUNT:41
;LAYER:0
M107
;MESH:eiffel_final.stl
G0 F6000 X133.545 Y144.231 Z0.28
;TYPE:WALL-INNER
G1 F2700 E0
G1 F1200 X133.545 Y133.545 E0.49758
G1 X144.231 Y133.545 E0.99517
G1 X144.231 Y144.231 E1.49275
G1 X133.545 Y144.231 E1.99034
G0 F6000 X133.145 Y144.631
;TYPE:WALL-OUTER
G1 F1200 X133.145 Y133.145 E2.52518
G1 X144.631 Y133.145 E3.06001
G1 X144.631 Y144.631 E3.59485
G1 X133.145 Y144.631 E4.12968
G0 F6000 X133.415 Y144.361
G0 X133.655 Y143.841
G0 X133.935 Y143.841
;TYPE:SKIN
G1 F1200 X133.935 Y133.935 E4.59095
G1 X143.841 Y133.935 E5.05221
G1 X143.841 Y143.841 E5.51348
G1 X133.935 Y143.841 E5.97474
G0 F6000 X134.629 Y143.68
G1 F1200 X134.094 Y143.145 E6.00997
G0 F6000 X134.094 Y142.579
G1 F1200 X135.195 Y143.68 E6.08248
G0 F6000 X135.76 Y143.68
G1 F1200 X134.094 Y142.013 E6.19222
G0 F6000 X134.094 Y141.448
G1 F1200 X136.326 Y143.68 E6.3392
G0 F6000 X136.892 Y143.68
G1 F1200 X134.094 Y140.882 E6.52345
G0 F6000 X134.094 Y140.316
G1 F1200 X137.458 Y143.68 E6.74498
G0 F6000 X138.023 Y143.68
G1 F1200 X134.094 Y139.751 E7.00371
G0 F6000 X134.094 Y139.185
G1 F1200 X138.589 Y143.68 E7.29971
G0 F6000 X139.155 Y143.68
G1 F1200 X134.094 Y138.619 E7.63299
G0 F6000 X134.094 Y138.054
G1 F1200 X139.72 Y143.68 E8.00347
G0 F6000 X140.286 Y143.68
G1 F1200 X134.094 Y137.488 E8.41122
G0 F6000 X134.094 Y136.922
G1 F1200 X140.852 Y143.68 E8.85625
G0 F6000 X141.417 Y143.68
G1 F1200 X134.094 Y136.357 E9.33848
G0 F6000 X134.094 Y135.791
G1 F1200 X141.983 Y143.68 E9.85799
G0 F6000 X142.549 Y143.68
G1 F1200 X134.094 Y135.225 E10.41476
G0 F6000 X134.094 Y134.66
G1 F1200 X143.114 Y143.68 E11.00875
G0 F6000 X143.68 Y143.68
G1 F1200 X134.094 Y134.094 E11.64
G0 F6000 X134.66 Y134.095
G1 F1200 X143.68 Y143.114 E12.23395
G0 F6000 X143.68 Y142.549
G1 F1200 X135.226 Y134.095 E12.79066
G0 F6000 X135.792 Y134.095
G1 F1200 X143.68 Y141.983 E13.3101
G0 F6000 X143.68 Y141.417
G1 F1200 X136.357 Y134.095 E13.7923
G0 F6000 X136.923 Y134.095
G1 F1200 X143.68 Y140.852 E14.23726
G0 F6000 X143.68 Y140.286
G1 F1200 X137.489 Y134.095 E14.64494
G0 F6000 X138.054 Y134.095
G1 F1200 X143.68 Y139.72 E15.01539
G0 F6000 X143.68 Y139.155
G1 F1200 X138.62 Y134.095 E15.3486
G0 F6000 X139.186 Y134.095
G1 F1200 X143.68 Y138.589 E15.64454
G0 F6000 X143.68 Y138.023
G1 F1200 X139.751 Y134.095 E15.90324
G0 F6000 X140.317 Y134.095
G1 F1200 X143.68 Y137.458 E16.1247
G0 F6000 X143.68 Y136.892
G1 F1200 X140.883 Y134.095 E16.30889
G0 F6000 X141.448 Y134.095
G1 F1200 X143.68 Y136.326 E16.45583
G0 F6000 X143.68 Y135.76
G1 F1200 X142.014 Y134.095 E16.56551
G0 F6000 X142.58 Y134.095
G1 F1200 X143.68 Y135.195 E16.63795
G0 F6000 X143.68 Y134.629
G1 F1200 X143.145 Y134.095 E16.67314
G0 F6000 X143.145 Y133.745
G1 F2700 E11.67314
G0 F6000 X143.145 Y133.655
G0 X133.727 Y133.727
G0 X133.365 Y144.231
G0 X132.28 Y144.231
G0 X102.716 Y144.231
G0 X101.631 Y144.231
G0 X101.451 Y144.231
;TYPE:WALL-INNER
G1 F2700 E16.67314
G1 F1200 X90.769 Y144.231 E17.17054
G1 X90.769 Y133.545 E17.66813
G1 X101.451 Y133.545 E18.16553
G1 X101.451 Y144.231 E18.66311
G0 F6000 X101.851 Y144.631
;TYPE:WALL-OUTER
G1 F1200 X90.369 Y144.631 E19.19776
G1 X90.369 Y133.145 E19.7326
G1 X101.851 Y133.145 E20.26725
G1 X101.851 Y144.631 E20.80208
G0 F6000 X101.581 Y144.361
G0 X101.341 Y143.841
G0 X101.061 Y143.841
;TYPE:SKIN
G1 F1200 X91.159 Y143.841 E21.26316
G1 X91.159 Y133.935 E21.72443
G1 X101.061 Y133.935 E22.18551
G1 X101.061 Y143.841 E22.64677
G0 F6000 X101.341 Y143.841
G0 X91.637 Y144.121
G0 X91.637 Y143.68
G1 F1200 X91.318 Y143.361 E22.66778
G0 F6000 X91.318 Y142.795
G1 F1200 X92.203 Y143.68 E22.72606
G0 F6000 X92.768 Y143.68
G1 F1200 X91.318 Y142.23 E22.82154
G0 F6000 X91.318 Y141.664
G1 F1200 X93.334 Y143.68 E22.9543
G0 F6000 X93.9 Y143.68
G1 F1200 X91.318 Y141.098 E23.12433
G0 F6000 X91.318 Y140.533
G1 F1200 X94.465 Y143.68 E23.33156
G0 F6000 X95.031 Y143.68
G1 F1200 X91.318 Y139.967 E23.57607
G0 F6000 X91.318 Y139.401
G1 F1200 X95.597 Y143.68 E23.85785
G0 F6000 X96.162 Y143.68
G1 F1200 X91.318 Y138.836 E24.17684
G0 F6000 X91.318 Y138.27
G1 F1200 X96.728 Y143.68 E24.53309
G0 F6000 X97.294 Y143.68
G1 F1200 X91.318 Y137.704 E24.92662
G0 F6000 X91.318 Y137.139
G1 F1200 X97.86 Y143.68 E25.35739
G0 F6000 X98.425 Y143.68
G1 F1200 X91.318 Y136.573 E25.8254
G0 F6000 X91.318 Y136.007
G1 F1200 X98.991 Y143.68 E26.33068
G0 F6000 X99.557 Y143.68
G1 F1200 X91.318 Y135.442 E26.8732
G0 F6000 X91.318 Y134.876
G1 F1200 X100.122 Y143.68 E27.45296
G0 F6000 X100.688 Y143.68
G1 F1200 X91.318 Y134.31 E28.06999
G0 F6000 X91.667 Y134.094
G1 F1200 X100.901 Y143.327 E28.67803
G0 F6000 X100.901 Y142.762
G1 F1200 X92.233 Y134.094 E29.24883
G0 F6000 X92.799 Y134.094
G1 F1200 X100.901 Y142.196 E29.78236
G0 F6000 X100.901 Y141.63
G1 F1200 X93.364 Y134.094 E30.27865
G0 F6000 X93.93 Y134.094
G1 F1200 X100.901 Y141.064 E30.73767
G0 F6000 X100.901 Y140.499
G1 F1200 X94.496 Y134.094 E31.15945
G0 F6000 X95.062 Y134.094
G1 F1200 X100.901 Y139.933 E31.54396
G0 F6000 X100.901 Y139.367
G1 F1200 X95.627 Y134.094 E31.89123
G0 F6000 X96.193 Y134.094
G1 F1200 X100.901 Y138.802 E32.20126
G0 F6000 X100.901 Y138.236
G1 F1200 X96.759 Y134.094 E32.47402
G0 F6000 X97.324 Y134.094
G1 F1200 X100.901 Y137.67 E32.70954
G0 F6000 X100.901 Y137.105
G1 F1200 X97.89 Y134.094 E32.90782
G0 F6000 X98.456 Y134.094
G1 F1200 X100.901 Y136.539 E33.06882
G0 F6000 X100.901 Y135.973
G1 F1200 X99.021 Y134.094 E33.19259
G0 F6000 X99.587 Y134.094
G1 F1200 X100.901 Y135.408 E33.27912
G0 F6000 X100.901 Y134.842
G1 F1200 X100.153 Y134.094 E33.32838
G0 F6000 X100.718 Y134.094
G1 F1200 X100.901 Y134.276 E33.3404
G0 F6000 X101.251 Y134.276
G1 F2700 E28.3404
G0 F6000 X101.341 Y134.276
G0 X101.451 Y133.365
G0 X101.451 Y132.28
G0 X101.451 Y102.716
G0 X101.451 Y101.631
G0 X101.451 Y101.451
;TYPE:WALL-INNER
G1 F2700 E33.3404
G1 F1200 X90.769 Y101.451 E33.8378
G1 X90.769 Y90.769 E34.33519
G1 X101.451 Y90.769 E34.83259
G1 X101.451 Y101.451 E35.32999
G0 F6000 X101.851 Y101.851
;TYPE:WALL-OUTER
G1 F1200 X90.369 Y101.851 E35.86464
G1 X90.369 Y90.369 E36.39929
G1 X101.851 Y90.369 E36.93394
G1 X101.851 Y101.851 E37.46859
G0 F6000 X101.581 Y101.581
G0 X101.341 Y101.061
G0 X101.061 Y101.061
;TYPE:SKIN
G1 F1200 X91.159 Y101.061 E37.92967
G1 X91.159 Y91.159 E38.39075
G1 X101.061 Y91.159 E38.85183
G1 X101.061 Y101.061 E39.31291
G0 F6000 X101.341 Y101.061
G0 X101.341 Y91.849
G0 X100.9 Y91.849
G1 F1200 X100.37 Y91.319 E39.34781
G0 F6000 X99.804 Y91.319
G1 F1200 X100.9 Y92.415 E39.41998
G0 F6000 X100.9 Y92.981
G1 F1200 X99.238 Y91.319 E39.52943
G0 F6000 X98.673 Y91.319
G1 F1200 X100.9 Y93.546 E39.67608
G0 F6000 X100.9 Y94.112
G1 F1200 X98.107 Y91.319 E39.86
G0 F6000 X97.541 Y91.319
G1 F1200 X100.9 Y94.678 E40.0812
G0 F6000 X100.9 Y95.243
G1 F1200 X96.976 Y91.319 E40.3396
G0 F6000 X96.41 Y91.319
G1 F1200 X100.9 Y95.809 E40.63527
G0 F6000 X100.9 Y96.375
G1 F1200 X95.844 Y91.319 E40.96822
G0 F6000 X95.279 Y91.319
G1 F1200 X100.9 Y96.94 E41.33837
G0 F6000 X100.9 Y97.506
G1 F1200 X94.713 Y91.319 E41.7458
G0 F6000 X94.147 Y91.319
G1 F1200 X100.9 Y98.072 E42.19049
G0 F6000 X100.9 Y98.637
G1 F1200 X93.582 Y91.319 E42.6724
G0 F6000 X93.016 Y91.319
G1 F1200 X100.9 Y99.203 E43.19157
G0 F6000 X100.9 Y99.769
G1 F1200 X92.45 Y91.319 E43.74802
G0 F6000 X91.884 Y91.319
G1 F1200 X100.9 Y100.334 E44.3417
G0 F6000 X100.9 Y100.9
G1 F1200 X91.318 Y91.318 E44.9727
G0 F6000 X91.318 Y91.884
G1 F1200 X100.334 Y100.9 E45.56641
G0 F6000 X99.769 Y100.9
G1 F1200 X91.318 Y92.449 E46.12293
G0 F6000 X91.318 Y93.015
G1 F1200 X99.203 Y100.9 E46.64217
G0 F6000 X98.637 Y100.9
G1 F1200 X91.318 Y93.581 E47.12414
G0 F6000 X91.318 Y94.147
G1 F1200 X98.072 Y100.9 E47.56887
G0 F6000 X97.506 Y100.9
G1 F1200 X91.318 Y94.712 E47.97636
G0 F6000 X91.318 Y95.278
G1 F1200 X96.94 Y100.9 E48.34658
G0 F6000 X96.375 Y100.9
G1 F1200 X91.318 Y95.844 E48.67955
G0 F6000 X91.318 Y96.409
G1 F1200 X95.809 Y100.9 E48.97529
G0 F6000 X95.243 Y100.9
G1 F1200 X91.318 Y96.975 E49.23376
G0 F6000 X91.318 Y97.541
G1 F1200 X94.678 Y100.9 E49.45499
G0 F6000 X94.112 Y100.9
G1 F1200 X91.318 Y98.106 E49.63898
G0 F6000 X91.318 Y98.672
G1 F1200 X93.546 Y100.9 E49.7857
G0 F6000 X92.981 Y100.9
G1 F1200 X91.318 Y99.238 E49.89518
G0 F6000 X91.318 Y99.803
G1 F1200 X92.415 Y100.9 E49.96742
G0 F6000 X91.849 Y100.9
G1 F1200 X91.318 Y100.369 E50.00238
G0 F6000 X90.969 Y100.369
G1 F2700 E45.00238
G0 F6000 X90.879 Y100.369
G0 X90.951 Y101.269
G0 X101.631 Y101.451
G0 X102.716 Y101.451
G0 X132.28 Y101.451
G0 X133.365 Y101.451
G0 X133.545 Y101.451
;TYPE:WALL-INNER
G1 F2700 E50.00238
G1 F1200 X133.545 Y90.769 E50.49978
G1 X144.231 Y90.769 E50.99737
G1 X144.231 Y101.451 E51.49477
G1 X133.545 Y101.451 E51.99235
G0 F6000 X133.145 Y101.851
;TYPE:WALL-OUTER
G1 F1200 X133.145 Y90.369 E52.527
G1 X144.631 Y90.369 E53.06184
G1 X144.631 Y101.851 E53.59649
G1 X133.145 Y101.851 E54.13132
G0 F6000 X133.415 Y101.581
G0 X133.655 Y101.061
G0 X133.935 Y101.061
;TYPE:SKIN
G1 F1200 X133.935 Y91.159 E54.5924
G1 X143.841 Y91.159 E55.05367
G1 X143.841 Y101.061 E55.51475
G1 X133.935 Y101.061 E55.97601
G0 F6000 X134.276 Y100.9
G1 F1200 X134.094 Y100.718 E55.988
G0 F6000 X134.094 Y100.153
G1 F1200 X134.841 Y100.9 E56.03719
G0 F6000 X135.407 Y100.9
G1 F1200 X134.094 Y99.587 E56.12365
G0 F6000 X134.094 Y99.021
G1 F1200 X135.973 Y100.9 E56.24738
G0 F6000 X136.538 Y100.9
G1 F1200 X134.094 Y98.456 E56.40833
G0 F6000 X134.094 Y97.89
G1 F1200 X137.104 Y100.9 E56.60654
G0 F6000 X137.67 Y100.9
G1 F1200 X134.094 Y97.324 E56.84203
G0 F6000 X134.094 Y96.759
G1 F1200 X138.235 Y100.9 E57.11472
G0 F6000 X138.801 Y100.9
G1 F1200 X134.094 Y96.193 E57.42468
G0 F6000 X134.094 Y95.627
G1 F1200 X139.367 Y100.9 E57.77192
G0 F6000 X139.932 Y100.9
G1 F1200 X134.094 Y95.062 E58.15636
G0 F6000 X134.094 Y94.496
G1 F1200 X140.498 Y100.9 E58.57807
G0 F6000 X141.064 Y100.9
G1 F1200 X134.094 Y93.93 E59.03706
G0 F6000 X134.094 Y93.364
G1 F1200 X141.629 Y100.9 E59.53329
G0 F6000 X142.195 Y100.9
G1 F1200 X134.094 Y92.799 E60.06675
G0 F6000 X134.094 Y92.233
G1 F1200 X142.761 Y100.9 E60.63749
G0 F6000 X143.327 Y100.9
G1 F1200 X134.094 Y91.667 E61.2455
G0 F6000 X134.311 Y91.319
G1 F1200 X143.68 Y100.688 E61.86246
G0 F6000 X143.68 Y100.122
G1 F1200 X134.877 Y91.319 E62.44215
G0 F6000 X135.442 Y91.319
G1 F1200 X143.68 Y99.557 E62.98464
G0 F6000 X143.68 Y98.991
G1 F1200 X136.008 Y91.319 E63.48985
G0 F6000 X136.574 Y91.319
G1 F1200 X143.68 Y98.425 E63.9578
G0 F6000 X143.68 Y97.86
G1 F1200 X137.139 Y91.319 E64.38853
G0 F6000 X137.705 Y91.319
G1 F1200 X143.68 Y97.294 E64.782
G0 F6000 X143.68 Y96.728
G1 F1200 X138.271 Y91.319 E65.13819
G0 F6000 X138.836 Y91.319
G1 F1200 X143.68 Y96.162 E65.45714
G0 F6000 X143.68 Y95.597
G1 F1200 X139.402 Y91.319 E65.73886
G0 F6000 X139.968 Y91.319
G1 F1200 X143.68 Y95.031 E65.9833
G0 F6000 X143.68 Y94.465
G1 F1200 X140.533 Y91.319 E66.1905
G0 F6000 X141.099 Y91.319
G1 F1200 X143.68 Y93.9 E66.36046
G0 F6000 X143.68 Y93.334
G1 F1200 X141.665 Y91.319 E66.49315
G0 F6000 X142.23 Y91.319
G1 F1200 X143.68 Y92.768 E66.58861
G0 F6000 X143.68 Y92.203
G1 F1200 X142.796 Y91.319 E66.64682
G0 F6000 X143.362 Y91.319
G1 F1200 X143.68 Y91.637 E66.66776
G0 F6000 X144.031 Y91.637
G1 F2700 E61.66776
;MESH:NONMESH
G0 F300 X144.031 Y91.637 Z3.28
G0 F6000 X144.121 Y91.637
G0 X144.049 Y101.269
G0 X133.655 Y101.631
G0 X133.655 Y102.716
G0 X133.655 Y132.28
G0 X133.655 Y133.365
G0 X133.655 Y143.041
G1 F2700 E66.66776
G0 F6000 X134.735 Y143.041
;TIME_ELAPSED:92.976666
;LAYER:1
M106 S85
;TYPE:WALL-INNER
;MESH:eiffel_final.stl
G1 F1650 X134.735 Y134.735 E70.81164
G1 X143.041 Y134.735 E74.95552
G1 X143.041 Y143.041 E79.0994
G1 X134.735 Y143.041 E83.24328
G0 F8250 X134.335 Y143.441
;TYPE:WALL-OUTER
G1 F1650 X134.335 Y134.335 E87.78628
G1 X143.441 Y134.335 E92.32928
G1 X143.441 Y143.441 E96.87229
G1 X134.335 Y143.441 E101.41529
G0 F8250 X134.605 Y143.171
G0 X134.845 Y142.651
G0 X135.125 Y142.651
;TYPE:SKIN
G1 F1650 X135.125 Y135.125 E105.17002
G1 X142.651 Y135.125 E108.92476
G1 X142.651 Y142.651 E112.6795
G1 X135.125 Y142.651 E116.43423
G0 F8250 X134.845 Y142.651
G0 X134.845 Y135.678
G0 X135.285 Y135.678
G1 F1650 X135.678 Y135.284 E116.71187
G0 F8250 X136.244 Y135.284
G1 F1650 X135.285 Y136.243 E117.3885
G0 F8250 X135.285 Y136.809
G1 F1650 X136.81 Y135.284 E118.46447
G0 F8250 X137.375 Y135.284
G1 F1650 X135.285 Y137.375 E119.93943
G0 F8250 X135.285 Y137.94
G1 F1650 X137.941 Y135.284 E121.81338
G0 F8250 X138.507 Y135.284
G1 F1650 X135.285 Y138.506 E124.08667
G0 F8250 X135.285 Y139.072
G1 F1650 X139.073 Y135.284 E126.75931
G0 F8250 X139.638 Y135.284
G1 F1650 X135.285 Y139.638 E129.83094
G0 F8250 X135.285 Y140.203
G1 F1650 X140.204 Y135.284 E133.30156
G0 F8250 X140.77 Y135.284
G1 F1650 X135.285 Y140.769 E137.17153
G0 F8250 X135.285 Y141.335
G1 F1650 X141.335 Y135.284 E141.44048
G0 F8250 X141.901 Y135.284
G1 F1650 X135.285 Y141.9 E146.10842
G0 F8250 X135.285 Y142.466
G1 F1650 X142.467 Y135.284 E151.17571
G0 F8250 X142.49 Y135.826
G1 F1650 X135.826 Y142.49 E155.87753
G0 F8250 X136.392 Y142.49
G1 F1650 X142.49 Y136.392 E160.17999
G0 F8250 X142.49 Y136.958
G1 F1650 X136.958 Y142.49 E164.08312
G0 F8250 X137.523 Y142.49
G1 F1650 X142.49 Y137.523 E167.58761
G0 F8250 X142.49 Y138.089
G1 F1650 X138.089 Y142.49 E170.69275
G0 F8250 X138.655 Y142.49
G1 F1650 X142.49 Y138.655 E173.39855
G0 F8250 X142.49 Y139.22
G1 F1650 X139.22 Y142.49 E175.70571
G0 F8250 X139.786 Y142.49
G1 F1650 X142.49 Y139.786 E177.61353
G0 F8250 X142.49 Y140.352
G1 F1650 X140.352 Y142.49 E179.122
G0 F8250 X140.917 Y142.49
G1 F1650 X142.49 Y140.917 E180.23184
G0 F8250 X142.49 Y141.483
G1 F1650 X141.483 Y142.49 E180.94233
G0 F8250 X142.049 Y142.49
G1 F1650 X142.49 Y142.049 E181.25348
G0 F8250 X142.841 Y142.049
G1 F2700 E176.25348
G0 F8250 X142.931 Y142.049
G0 X142.859 Y142.859
G0 X134.555 Y143.041
G0 X133.47 Y143.041
G0 X101.526 Y143.041
G0 X100.441 Y143.041
G0 X100.261 Y143.041
;TYPE:WALL-INNER
G1 F2700 E181.25348
G1 F1650 X91.957 Y143.041 E185.39636
G1 X91.957 Y134.735 E189.54024
G1 X100.261 Y134.735 E193.68313
G1 X100.261 Y143.041 E197.82701
G0 F8250 X100.661 Y143.441
;TYPE:WALL-OUTER
G1 F1650 X91.557 Y143.441 E202.36901
G1 X91.557 Y134.335 E206.91201
G1 X100.661 Y134.335 E211.45402
G1 X100.661 Y143.441 E215.99702
G0 F8250 X100.391 Y143.171
G0 X100.151 Y142.651
G0 X99.871 Y142.651
;TYPE:SKIN
G1 F1650 X92.347 Y142.651 E219.75076
G1 X92.347 Y135.125 E223.50549
G1 X99.871 Y135.125 E227.25923
G1 X99.871 Y142.651 E231.01397
G0 F8250 X99.622 Y142.49
G1 F1650 X99.71 Y142.402 E231.07606
G0 F8250 X99.71 Y141.837
G1 F1650 X99.057 Y142.49 E231.53678
G0 F8250 X98.491 Y142.49
G1 F1650 X99.71 Y141.271 E232.39686
G0 F8250 X99.71 Y140.705
G1 F1650 X97.925 Y142.49 E233.65627
G0 F8250 X97.36 Y142.49
G1 F1650 X99.71 Y140.14 E235.31432
G0 F8250 X99.71 Y139.574
G1 F1650 X96.794 Y142.49 E237.37172
G0 F8250 X96.228 Y142.49
G1 F1650 X99.71 Y139.008 E239.82846
G0 F8250 X99.71 Y138.443
G1 F1650 X95.663 Y142.49 E242.68383
G0 F8250 X95.097 Y142.49
G1 F1650 X99.71 Y137.877 E245.93855
G0 F8250 X99.71 Y137.311
G1 F1650 X94.531 Y142.49 E249.59262
G0 F8250 X93.966 Y142.49
G1 F1650 X99.71 Y136.745 E253.64567
G0 F8250 X99.71 Y136.18
G1 F1650 X93.4 Y142.49 E258.09772
G0 F8250 X92.834 Y142.49
G1 F1650 X99.71 Y135.614 E262.94911
G0 F8250 X99.475 Y135.284
G1 F1650 X92.507 Y142.252 E267.86541
G0 F8250 X92.507 Y141.686
G1 F1650 X98.909 Y135.284 E272.38236
G0 F8250 X98.343 Y135.284
G1 F1650 X92.507 Y141.12 E276.49998
G0 F8250 X92.507 Y140.555
G1 F1650 X97.778 Y135.284 E280.21895
G0 F8250 X97.212 Y135.284
G1 F1650 X92.507 Y139.989 E283.53859
G0 F8250 X92.507 Y139.423
G1 F1650 X96.646 Y135.284 E286.45887
G0 F8250 X96.08 Y135.284
G1 F1650 X92.507 Y138.858 E288.98017
G0 F8250 X92.507 Y138.292
G1 F1650 X95.515 Y135.284 E291.10248
G0 F8250 X94.949 Y135.284
G1 F1650 X92.507 Y137.726 E292.82544
G0 F8250 X92.507 Y137.161
G1 F1650 X94.383 Y135.284 E294.14941
G0 F8250 X93.818 Y135.284
G1 F1650 X92.507 Y136.595 E295.07439
G0 F8250 X92.507 Y136.029
G1 F1650 X93.252 Y135.284 E295.60003
G0 F8250 X92.686 Y135.284
G1 F1650 X92.507 Y135.463 E295.72633
G0 F8250 X92.157 Y135.463
G1 F2700 E290.72633
G0 F8250 X92.067 Y135.463
G0 X92.139 Y134.917
G0 X100.261 Y134.555
G0 X100.261 Y133.47
G0 X100.261 Y101.526
G0 X100.261 Y100.441
G0 X100.261 Y100.261
;TYPE:WALL-INNER
G1 F2700 E295.72633
G1 F1650 X91.957 Y100.261 E299.86921
G1 X91.957 Y91.957 E304.01209
G1 X100.261 Y91.957 E308.15497
G1 X100.261 Y100.261 E312.29785
G0 F8250 X100.661 Y100.661
;TYPE:WALL-OUTER
G1 F1650 X91.557 Y100.661 E316.83986
G1 X91.557 Y91.557 E321.38186
G1 X100.661 Y91.557 E325.92387
G1 X100.661 Y100.661 E330.46587
G0 F8250 X100.391 Y100.391
G0 X100.151 Y99.871
G0 X99.871 Y99.871
;TYPE:SKIN
G1 F1650 X92.347 Y99.871 E334.21961
G1 X92.347 Y92.347 E337.97335
G1 X99.871 Y92.347 E341.72709
G1 X99.871 Y99.871 E345.48083
G0 F8250 X99.709 Y99.411
G1 F1650 X99.41 Y99.71 E345.69179
G0 F8250 X98.845 Y99.71
G1 F1650 X99.709 Y98.845 E346.30174
G0 F8250 X99.709 Y98.28
G1 F1650 X98.279 Y99.71 E347.31068
G0 F8250 X97.713 Y99.71
G1 F1650 X99.709 Y97.714 E348.71897
G0 F8250 X99.709 Y97.148
G1 F1650 X97.147 Y99.71 E350.5266
G0 F8250 X96.582 Y99.71
G1 F1650 X99.709 Y96.583 E352.73286
G0 F8250 X99.709 Y96.017
G1 F1650 X96.016 Y99.71 E355.33847
G0 F8250 X95.45 Y99.71
G1 F1650 X99.709 Y95.451 E358.34343
G0 F8250 X99.709 Y94.885
G1 F1650 X94.885 Y99.71 E361.74737
G0 F8250 X94.319 Y99.71
G1 F1650 X99.709 Y94.32 E365.55031
G0 F8250 X99.709 Y93.754
G1 F1650 X93.753 Y99.71 E369.75259
G0 F8250 X93.188 Y99.71
G1 F1650 X99.709 Y93.188 E374.35386
G0 F8250 X99.709 Y92.623
G1 F1650 X92.622 Y99.71 E379.35412
G0 F8250 X92.507 Y99.26
G1 F1650 X99.26 Y92.506 E384.11908
G0 F8250 X98.695 Y92.506
G1 F1650 X92.507 Y98.694 E388.48505
G0 F8250 X92.507 Y98.128
G1 F1650 X98.129 Y92.506 E392.45167
G0 F8250 X97.563 Y92.506
G1 F1650 X92.507 Y97.563 E396.01931
G0 F8250 X92.507 Y96.997
G1 F1650 X96.998 Y92.506 E399.18795
G0 F8250 X96.432 Y92.506
G1 F1650 X92.507 Y96.431 E401.95725
G0 F8250 X92.507 Y95.866
G1 F1650 X95.866 Y92.506 E404.32756
G0 F8250 X95.301 Y92.506
G1 F1650 X92.507 Y95.3 E406.29888
G0 F8250 X92.507 Y94.734
G1 F1650 X94.735 Y92.506 E407.87085
G0 F8250 X94.169 Y92.506
G1 F1650 X92.507 Y94.168 E409.04348
G0 F8250 X92.507 Y93.603
G1 F1650 X93.603 Y92.506 E409.81712
G0 F8250 X93.038 Y92.506
G1 F1650 X92.507 Y93.037 E410.19177
G0 F8250 X92.157 Y93.037
G1 F2700 E405.19177
G0 F8250 X92.067 Y93.037
G0 X92.139 Y100.079
G0 X100.441 Y100.261
G0 X101.526 Y100.261
G0 X133.47 Y100.261
G0 X134.555 Y100.261
G0 X134.735 Y100.261
;TYPE:WALL-INNER
G1 F2700 E410.19177
G1 F1650 X134.735 Y91.957 E414.33465
G1 X143.041 Y91.957 E418.47853
G1 X143.041 Y100.261 E422.62142
G1 X134.735 Y100.261 E426.7653
G0 F8250 X134.335 Y100.661
;TYPE:WALL-OUTER
G1 F1650 X134.335 Y91.557 E431.3073
G1 X143.441 Y91.557 E435.8503
G1 X143.441 Y100.661 E440.39231
G1 X134.335 Y100.661 E444.93531
G0 F8250 X134.605 Y100.391
G0 X134.845 Y99.871
G0 X135.125 Y99.871
;TYPE:SKIN
G1 F1650 X135.125 Y92.347 E448.68905
G1 X142.651 Y92.347 E452.44378
G1 X142.651 Y99.871 E456.19752
G1 X135.125 Y99.871 E459.95226
G0 F8250 X134.845 Y99.871
G0 X134.845 Y92.686
G0 X135.284 Y92.686
G1 F1650 X135.464 Y92.506 E460.07926
G0 F8250 X136.03 Y92.506
G1 F1650 X135.284 Y93.252 E460.6056
G0 F8250 X135.284 Y93.818
G1 F1650 X136.596 Y92.506 E461.53129
G0 F8250 X137.161 Y92.506
G1 F1650 X135.284 Y94.383 E462.85561
G0 F8250 X135.284 Y94.949
G1 F1650 X137.727 Y92.506 E464.57928
G0 F8250 X138.293 Y92.506
G1 F1650 X135.284 Y95.515 E466.70229
G0 F8250 X135.284 Y96.08
G1 F1650 X138.858 Y92.506 E469.22394
G0 F8250 X139.424 Y92.506
G1 F1650 X135.284 Y96.646 E472.14494
G0 F8250 X135.284 Y97.212
G1 F1650 X139.99 Y92.506 E475.46528
G0 F8250 X140.555 Y92.506
G1 F1650 X135.284 Y97.778 E479.1846
G0 F8250 X135.284 Y98.343
G1 F1650 X141.121 Y92.506 E483.30292
G0 F8250 X141.687 Y92.506
G1 F1650 X135.284 Y98.909 E487.82058
G0 F8250 X135.284 Y99.475
G1 F1650 X142.252 Y92.506 E492.73724
G0 F8250 X142.49 Y92.834
G1 F1650 X135.613 Y99.711 E497.58933
G0 F8250 X136.179 Y99.711
G1 F1650 X142.49 Y93.4 E502.04208
G0 F8250 X142.49 Y93.966
G1 F1650 X136.745 Y99.711 E506.09549
G0 F8250 X137.31 Y99.711
G1 F1650 X142.49 Y94.531 E509.75026
G0 F8250 X142.49 Y95.097
G1 F1650 X137.876 Y99.711 E513.00569
G0 F8250 X138.442 Y99.711
G1 F1650 X142.49 Y95.663 E515.86177
G0 F8250 X142.49 Y96.228
G1 F1650 X139.008 Y99.711 E518.31886
G0 F8250 X139.573 Y99.711
G1 F1650 X142.49 Y96.794 E520.37696
G0 F8250 X142.49 Y97.36
G1 F1650 X140.139 Y99.711 E522.03572
G0 F8250 X140.705 Y99.711
G1 F1650 X142.49 Y97.925 E523.29549
G0 F8250 X142.49 Y98.491
G1 F1650 X141.27 Y99.711 E524.15626
G0 F8250 X141.836 Y99.711
G1 F1650 X142.49 Y99.057 E524.6177
G0 F8250 X142.49 Y99.622
G1 F1650 X142.402 Y99.711 E524.68014
G0 F8250 X142.402 Y100.061
G1 F2700 E519.68014
;MESH:NONMESH
G0 F300 X142.402 Y100.061 Z6.28
G0 F8250 X142.402 Y100.151
G0 X134.549 Y100.447
G0 X133.47 Y100.447
G0 X100.447 Y133.47
G0 X100.447 Y134.549
G0 X100.272 Y141.446
;TIME_ELAPSED:142.554073
;LAYER:2
M106 S170
;TYPE:WALL-OUTER
;MESH:eiffel_final.stl
G1 F2700 E524.68014
G1 F2100 X100.272 Y141.719 E524.81634
G1 X99.722 Y141.718 E525.09073
G1 X99.722 Y141.164 E525.36713
G1 X101.253 Y141.165 E526.13095
G1 X101.28 Y141.446 E526.27178
G1 X100.272 Y141.446 E526.77468
G0 F10500 X100.07 Y141.365
;TYPE:SKIN
G1 F2100 X99.93 Y141.508 E526.81761
G1 F2700 E521.81761
G0 F10500 X99.964 Y141.519
G0 X101.085 Y141.284
G0 X101.088 Y138.974
G1 F2700 E526.81761
G0 F10500 X101.261 Y139.094
;TYPE:WALL-OUTER
G1 F2100 X99.723 Y139.093 E527.58492
G1 X99.722 Y138.54 E527.86081
G1 X101.249 Y138.54 E528.62264
G1 X101.261 Y139.094 E528.89909
G0 F10500 X100.914 Y138.815
;TYPE:SKIN
G1 F2100 X100.631 Y138.815 E529.00033
G1 X100.066 Y138.815 E529.20245
G1 F2700 E524.20245
G0 F10500 X99.965 Y138.74
G0 X101.138 Y138.654
G0 X101.141 Y137.887
G0 X101.253 Y137.707
;TYPE:WALL-OUTER
G1 F2700 E529.20245
G1 F2100 X99.721 Y137.704 E529.96677
G1 X99.72 Y137.545 E530.04609
G1 X101.257 Y137.545 E530.8129
G1 X101.253 Y137.707 E530.89375
G0 F10500 X101.253 Y137.745
G1 F2700 E525.89375
G0 F10500 X100.122 Y137.365
G0 X100.121 Y135.076
G0 X100.122 Y134.877
;TYPE:WALL-INNER
G1 F2700 E530.89375
G1 F2100 X100.123 Y134.136 E531.26344
G1 X100.876 Y134.132 E531.63912
G1 X100.886 Y134.876 E532.01033
G1 X100.122 Y134.877 E532.39149
G0 F10500 X99.721 Y135.277
;TYPE:WALL-OUTER
G1 F2100 X99.724 Y133.74 E533.15831
G1 X99.806 Y133.738 E533.19923
G1 X101.271 Y133.73 E533.93013
G1 X101.291 Y135.276 E534.7015
G1 X99.721 Y135.277 E535.48478
G0 F10500 X100.386 Y134.61
;TYPE:SKIN
G1 F2100 X100.538 Y134.479 E535.59222
G1 X100.676 Y134.334 E535.6994
G0 F10500 X100.649 Y134.334
G1 F2700 E530.6994
G0 F10500 X99.935 Y135.063
G0 X97.632 Y135.06
G0 X97.451 Y135.278
;TYPE:WALL-OUTER
G1 F2700 E535.6994
G1 F2100 X97.292 Y135.277 E535.77873
G1 X97.291 Y133.746 E536.54255
G1 X97.452 Y133.744 E536.62288
G1 X97.451 Y135.278 E537.38819
G0 F10500 X97.252 Y135.078
G0 X96.456 Y135.276
G1 F2100 X95.905 Y135.274 E537.66309
G1 X95.904 Y133.736 E538.4304
G1 X96.46 Y133.746 E538.70784
G1 X96.456 Y135.276 E539.47116
G0 F10500 X96.18 Y134.929
;TYPE:SKIN
G1 F2100 X96.18 Y134.647 E539.57248
G1 X96.18 Y134.081 E539.77583
G1 F2700 E534.77583
G0 F10500 X96.105 Y133.98
G0 X96.342 Y135.162
G0 X96.331 Y137.367
G0 X96.456 Y137.705
;TYPE:WALL-OUTER
G1 F2700 E539.77583
G1 F2100 X95.909 Y137.704 E540.04873
G1 X95.907 Y137.546 E540.12756
G1 X96.457 Y137.548 E540.40196
G1 X96.456 Y137.705 E540.48029
G0 F10500 X96.455 Y137.748
G0 X97.45 Y137.706
G1 F2100 X97.292 Y137.705 E540.55912
G1 X97.292 Y137.547 E540.63795
G1 X97.451 Y137.546 E540.71727
G1 X97.45 Y137.706 E540.7971
G0 F10500 X97.451 Y137.747
G0 X97.453 Y138.359
G0 X97.451 Y139.092
G1 F2100 X97.292 Y139.092 E540.87642
G1 X97.291 Y138.539 E541.15232
G1 X97.45 Y138.54 E541.23164
G1 X97.451 Y139.092 E541.50704
G0 F10500 X97.492 Y139.092
G0 X97.092 Y138.891
G0 X96.336 Y138.885
G0 X96.455 Y139.091
G1 F2100 X95.904 Y139.093 E541.78193
G1 X95.906 Y138.54 E542.05783
G1 X96.457 Y138.541 E542.33272
G1 X96.455 Y139.091 E542.60712
G0 F10500 X96.206 Y138.916
;TYPE:SKIN
G1 F2100 X96.079 Y138.788 E542.6521
G1 F2700 E537.6521
G0 F10500 X96.105 Y138.788
G0 X96.018 Y140.985
G0 X95.904 Y141.176
;TYPE:WALL-OUTER
G1 F2700 E542.6521
G1 F2100 X95.905 Y141.165 E542.65761
G1 X96.457 Y141.165 E542.93301
G1 X96.457 Y141.175 E542.938
G1 X95.904 Y141.176 E543.21389
G0 F10500 X95.905 Y141.365
G1 F2700 E538.21389
G0 F10500 X95.906 Y141.275
G0 X93.712 Y141.362
G1 F2700 E543.21389
G0 F10500 X93.832 Y141.718
G1 F2100 X93.28 Y141.72 E543.48928
G1 X93.28 Y141.164 E543.76667
G1 X93.832 Y141.165 E544.04207
G1 X93.832 Y141.718 E544.31796
G0 F10500 X93.657 Y141.457
;TYPE:SKIN
G1 F2100 X93.538 Y141.338 E544.35994
G1 F2700 E539.35994
G0 F10500 X93.538 Y141.364
G0 X93.724 Y139.273
G0 X93.83 Y139.093
;TYPE:WALL-OUTER
G1 F2700 E544.35994
G1 F2100 X93.823 Y139.092 E544.36347
G1 X93.824 Y138.54 E544.63886
G1 X93.831 Y138.54 E544.64236
G1 X93.83 Y139.093 E544.91825
G0 F10500 X93.631 Y138.893
G1 F2700 E539.91825
G0 F10500 X93.723 Y138.893
G0 X93.663 Y138.359
G0 X93.666 Y137.674
G0 X93.656 Y136.14
G0 X93.654 Y135.175
G0 X93.682 Y134.722
G1 F2700 E544.91825
G0 F10500 X93.553 Y134.723
G1 F2100 X93.55 Y134.105 E545.22657
G1 X93.551 Y133.7 E545.42863
G1 X93.833 Y133.7 E545.56932
G1 X93.831 Y135.275 E546.35509
G1 X93.28 Y135.276 E546.62999
G1 X93.28 Y134.725 E546.90488
G1 X93.553 Y134.723 E547.04109
G0 F10500 X93.628 Y134.923
;TYPE:SKIN
G1 F2100 X93.487 Y135.065 E547.08377
G1 F2700 E542.08377
G0 F10500 X93.48 Y135.032
G0 X93.667 Y134.836
G0 X94.697 Y134.837
G0 X96.037 Y102.123
G0 X96.017 Y101.145
G1 F2700 E547.08377
G0 F10500 X95.904 Y101.261
;TYPE:WALL-OUTER
G1 F2100 X95.904 Y99.723 E547.85108
G1 X96.456 Y99.722 E548.12647
G1 X96.456 Y101.249 E548.8883
G1 X95.904 Y101.261 E549.16375
G0 F10500 X96.173 Y100.981
;TYPE:SKIN
G1 F2100 X96.179 Y100.705 E549.24745
G1 X96.25 Y99.927 E549.48431
G1 F2700 E544.48431
G0 F10500 X96.256 Y99.958
G0 X96.342 Y101.138
G0 X97.112 Y101.138
G0 X97.451 Y101.257
;TYPE:WALL-OUTER
G1 F2700 E549.48431
G1 F2100 X97.292 Y101.253 E549.56366
G1 X97.292 Y99.721 E550.32797
G1 X97.45 Y99.721 E550.4068
G1 X97.451 Y101.257 E551.17311
G0 F10500 X97.492 Y101.256
G1 F2700 E546.17311
G0 F10500 X97.451 Y99.541
G0 X97.456 Y97.631
G0 X97.451 Y97.451
G1 F2700 E551.17311
G1 F2100 X97.292 Y97.45 E551.25244
G1 X97.292 Y97.292 E551.33127
G1 X97.45 Y97.292 E551.41009
G1 X97.451 Y97.451 E551.48942
G0 F10500 X97.492 Y97.45
G0 X97.449 Y96.457
G1 F2100 X97.292 Y96.456 E551.56775
G1 X97.292 Y95.909 E551.84065
G1 X97.451 Y95.907 E551.91998
G1 X97.449 Y96.457 E552.19438
G0 F10500 X97.25 Y96.257
G0 X96.455 Y96.457
G1 F2100 X95.909 Y96.455 E552.46678
G1 X95.905 Y95.905 E552.74119
G1 X96.455 Y95.908 E553.01559
G1 X96.455 Y96.457 E553.28948
G0 F10500 X96.28 Y96.28
;TYPE:SKIN
G1 F2100 X96.08 Y96.08 E553.36004
G0 F10500 X96.107 Y96.106
G0 X96.341 Y96.343
G0 X96.341 Y97.092
G0 X96.456 Y97.45
;TYPE:WALL-OUTER
G1 F2100 X95.906 Y97.451 E553.63443
G1 X95.908 Y97.292 E553.71377
G1 X96.457 Y97.291 E553.98766
G1 X96.456 Y97.45 E554.06699
G0 F10500 X96.456 Y97.492
G1 F2700 E549.06699
G0 F10500 X95.723 Y97.106
G0 X94.017 Y96.642
G0 X93.831 Y96.457
G1 F2700 E554.06699
G1 F2100 X93.823 Y96.457 E554.07098
G1 X93.822 Y95.904 E554.34688
G1 X93.831 Y95.905 E554.35139
G1 X93.831 Y96.457 E554.62679
G0 F10500 X94.023 Y96.458
G1 F2700 E549.62679
G0 F10500 X93.931 Y96.458
G0 X93.655 Y95.724
G0 X93.655 Y93.712
G1 F2700 E554.62679
G0 F10500 X93.832 Y93.832
G1 F2100 X93.28 Y93.832 E554.90218
G1 X93.28 Y93.28 E555.17757
G1 X93.833 Y93.281 E555.45347
G1 X93.832 Y93.832 E555.72836
G0 F10500 X93.656 Y93.656
;TYPE:SKIN
G1 F2100 X93.454 Y93.454 E555.79962
G1 F2700 E550.79962
G0 F10500 X93.48 Y93.48
G0 X93.718 Y93.718
G0 X95.725 Y93.718
G0 X96.456 Y93.831
;TYPE:WALL-OUTER
G1 F2700 E555.79962
G1 F2100 X95.905 Y93.831 E556.07452
G1 X95.905 Y93.823 E556.07851
G1 X96.456 Y93.824 E556.35341
G1 X96.456 Y93.831 E556.3569
G0 F10500 X96.256 Y93.631
G1 F2700 E551.3569
G0 F10500 X96.256 Y93.723
G0 X96.637 Y93.661
G0 X97.322 Y93.664
G0 X98.858 Y93.654
G0 X99.823 Y93.652
G0 X100.273 Y93.68
G1 F2700 E556.3569
G0 F10500 X100.274 Y93.553
G1 F2100 X100.894 Y93.55 E556.66622
G1 X101.28 Y93.551 E556.8588
G1 X101.253 Y93.83 E556.99864
G1 X99.723 Y93.831 E557.76196
G1 X99.722 Y93.28 E558.03686
G1 X100.273 Y93.28 E558.31175
G1 X100.274 Y93.553 E558.44795
G0 F10500 X100.098 Y93.593
;TYPE:SKIN
G1 F2100 X99.96 Y93.454 E558.49681
G1 F2700 E553.49681
G0 F10500 X99.96 Y93.48
G0 X100.146 Y93.681
G0 X101.083 Y93.73
G0 X101.084 Y96.005
G0 X101.084 Y96.26
G1 F2700 E558.49681
G0 F10500 X101.252 Y96.46
;TYPE:WALL-OUTER
G1 F2100 X99.722 Y96.456 E559.26014
G1 X99.724 Y95.905 E559.53503
G1 X101.262 Y95.904 E560.30235
G1 X101.252 Y96.46 E560.57978
G0 F10500 X100.983 Y96.175
;TYPE:SKIN
G1 F2100 X100.706 Y96.181 E560.66421
G1 X99.928 Y96.251 E560.90226
G1 F2700 E555.90226
G0 F10500 X99.959 Y96.257
G0 X101.14 Y96.346
G0 X101.14 Y97.092
G0 X101.255 Y97.452
;TYPE:WALL-OUTER
G1 F2700 E560.90226
G1 F2100 X99.72 Y97.451 E561.66808
G1 X99.721 Y97.292 E561.7474
G1 X101.252 Y97.291 E562.51122
G1 X101.255 Y97.452 E562.59156
G0 F10500 X101.254 Y97.492
G1 F2700 E557.59156
G0 F10500 X100.879 Y97.632
G0 X100.874 Y99.942
G0 X100.876 Y100.862
;TYPE:WALL-INNER
G1 F2700 E562.59156
G1 F2100 X100.122 Y100.857 E562.96774
G1 X100.122 Y100.122 E563.33443
G1 X100.885 Y100.122 E563.71509
G1 X100.876 Y100.862 E564.08431
G0 F10500 X101.271 Y101.267
;TYPE:WALL-OUTER
G1 F2100 X100.847 Y101.262 E564.29586
G1 X99.723 Y101.254 E564.85664
G1 X99.721 Y99.721 E565.62146
G1 X101.293 Y99.723 E566.40573
G1 X101.29 Y99.78 E566.43421
G1 X101.271 Y101.267 E567.17614
G0 F10500 X100.49 Y100.49
;TYPE:SKIN
G1 F2100 X100.347 Y100.63 E567.2679
G1 X100.642 Y100.359 E567.45159
G0 F10500 X100.58 Y100.322
G1 F2700 E562.45159
G0 F10500 X99.922 Y100.06
G0 X98.857 Y100.062
G0 X98.303 Y98.868
G0 X95.051 Y98.873
G0 X94.697 Y100.06
G0 X93.712 Y100.06
G1 F2700 E567.45159
G0 F10500 X93.551 Y100.271
;TYPE:WALL-OUTER
G1 F2100 X93.28 Y100.272 E567.5868
G1 X93.281 Y99.722 E567.86119
G1 X93.832 Y99.722 E568.13609
G1 X93.832 Y101.28 E568.91338
G1 X93.552 Y101.255 E569.05363
G1 X93.551 Y100.271 E569.54455
G0 F10500 X93.589 Y100.095
;TYPE:SKIN
G1 F2100 X93.455 Y99.96 E569.592
G1 F2700 E564.592
G0 F10500 X93.48 Y99.96
G0 X93.712 Y100.866
G0 X94.697 Y100.866
G0 X95.051 Y102.104
G0 X102.113 Y102.129
G0 X132.85 Y100.353
G0 X133.914 Y100.339
G0 X134.121 Y100.866
;TYPE:WALL-INNER
G1 F2700 E569.592
G1 F2100 X134.11 Y100.122 E569.96322
G1 X134.876 Y100.122 E570.34538
G1 X134.875 Y100.862 E570.71457
G1 X134.121 Y100.866 E571.09074
G0 F10500 X133.726 Y101.268
;TYPE:WALL-OUTER
G1 F2100 X133.705 Y99.723 E571.86162
G1 X135.277 Y99.721 E572.64589
G1 X135.274 Y101.258 E573.41271
G1 X135.192 Y101.26 E573.45363
G1 X133.726 Y101.268 E574.18503
G0 F10500 X134.319 Y100.661
;TYPE:SKIN
G1 F2100 X134.457 Y100.516 E574.28736
G1 X134.61 Y100.386 E574.39
G0 F10500 X134.519 Y100.322
G1 F2700 E569.39
G0 F10500 X133.922 Y99.937
G0 X133.922 Y97.631
G0 X133.743 Y97.451
;TYPE:WALL-OUTER
G1 F2700 E574.39
G1 F2100 X133.746 Y97.292 E574.46934
G1 X135.277 Y97.292 E575.23316
G1 X135.278 Y97.451 E575.31249
G1 X133.743 Y97.451 E576.0783
G0 F10500 X133.743 Y97.492
G0 X133.946 Y97.112
G0 X133.946 Y96.336
G0 X133.749 Y96.456
G1 F2100 X133.737 Y95.904 E576.35376
G1 X135.275 Y95.904 E577.12107
G1 X135.276 Y96.456 E577.39647
G1 X133.749 Y96.456 E578.15829
G0 F10500 X134.08 Y96.18
;TYPE:SKIN
G1 F2100 X134.363 Y96.18 E578.25831
G1 X134.929 Y96.18 E578.45835
G1 F2700 E573.45835
G0 F10500 X135.03 Y96.256
G0 X134.725 Y96.024
G0 X134.725 Y93.712
G1 F2700 E578.45835
G0 F10500 X134.726 Y93.552
;TYPE:WALL-OUTER
G1 F2100 X134.725 Y93.28 E578.59405
G1 X135.276 Y93.281 E578.86895
G1 X135.276 Y93.832 E579.14385
G1 X133.762 Y93.832 E579.89918
G1 X133.756 Y93.552 E580.03891
G1 X134.267 Y93.552 E580.29385
G1 X134.304 Y93.55 E580.31233
G1 X134.726 Y93.552 E580.52287
G0 F10500 X134.925 Y93.63
;TYPE:SKIN
G1 F2100 X135.067 Y93.489 E580.56455
G1 F2700 E575.56455
G0 F10500 X135.034 Y93.48
G0 X135.162 Y93.718
G0 X136.142 Y93.788
G0 X137.363 Y95.039
G0 X137.359 Y95.719
G0 X137.704 Y96.457
;TYPE:WALL-OUTER
G1 F2700 E580.56455
G1 F2100 X137.547 Y96.456 E580.64288
G1 X137.546 Y95.906 E580.91728
G1 X137.704 Y95.908 E580.99611
G1 X137.704 Y96.457 E581.27001
G0 F10500 X137.748 Y96.457
G0 X138.539 Y96.455
G1 F2100 X138.541 Y95.909 E581.54241
G1 X139.093 Y95.905 E581.81781
G1 X139.093 Y96.456 E582.09271
G1 X138.539 Y96.455 E582.3691
G0 F10500 X138.791 Y96.082
;TYPE:SKIN
G1 F2100 X138.917 Y96.208 E582.41355
G0 F10500 X138.893 Y96.208
G0 X138.653 Y96.341
G0 X138.653 Y97.112
G0 X138.539 Y97.449
;TYPE:WALL-OUTER
G1 F2100 X138.54 Y97.292 E582.49188
G1 X139.092 Y97.292 E582.76727
G1 X139.092 Y97.451 E582.8466
G1 X138.539 Y97.449 E583.12249
G0 F10500 X138.739 Y97.25
G0 X138.359 Y97.454
G0 X137.885 Y97.452
G0 X137.546 Y97.451
G1 F2100 X137.547 Y97.292 E583.20182
G1 X137.705 Y97.292 E583.28065
G1 X137.704 Y97.45 E583.35947
G1 X137.546 Y97.451 E583.4383
G0 F10500 X137.547 Y97.492
G1 F2700 E578.4383
G0 F10500 X137.891 Y97.106
G0 X138.39 Y98.314
G0 X139.948 Y98.305
G0 X140.299 Y96.641
G0 X140.979 Y96.641
G0 X141.165 Y96.456
G1 F2700 E583.4383
G1 F2100 X141.166 Y95.904 E583.7137
G1 X141.175 Y95.905 E583.71821
G1 X141.174 Y96.456 E583.99311
G1 X141.165 Y96.456 E583.9976
G0 F10500 X141.365 Y96.256
G1 F2700 E578.9976
G0 F10500 X141.275 Y96.256
G0 X141.328 Y95.724
G0 X141.328 Y93.712
G1 F2700 E583.9976
G0 F10500 X141.165 Y93.832
G1 F2100 X141.164 Y93.28 E584.27299
G1 X141.72 Y93.281 E584.55038
G1 X141.718 Y93.832 E584.82528
G1 X141.165 Y93.832 E585.10117
G0 F10500 X141.457 Y93.657
;TYPE:SKIN
G1 F2100 X141.338 Y93.538 E585.14315
G1 F2700 E580.14315
G0 F10500 X141.365 Y93.539
G0 X139.273 Y93.712
G0 X139.093 Y93.822
;TYPE:WALL-OUTER
G1 F2700 E585.14315
G1 F2100 X139.092 Y93.831 E585.14767
G1 X138.539 Y93.831 E585.42357
G1 X138.539 Y93.823 E585.42756
G1 X139.093 Y93.822 E585.70395
G0 F10500 X139.092 Y93.631
G1 F2700 E580.70395
G0 F10500 X139.091 Y93.723
G0 X139.278 Y94.017
G0 X139.278 Y94.696
G0 X139.946 Y95.047
G0 X140.311 Y97.305
G0 X141.273 Y98.858
G0 X141.278 Y99.837
G0 X141.315 Y100.273
G1 F2700 E585.70395
G0 F10500 X141.443 Y100.274
G1 F2100 X141.447 Y100.735 E585.93395
G1 X141.445 Y101.255 E586.19338
G1 X141.165 Y101.28 E586.33363
G1 X141.164 Y99.723 E587.11042
G1 X141.718 Y99.722 E587.38681
G1 X141.72 Y100.273 E587.66171
G1 X141.443 Y100.274 E587.79991
G0 F10500 X141.365 Y100.07
;TYPE:SKIN
G1 F2100 X141.509 Y99.931 E587.84309
G1 F2700 E582.84309
G0 F10500 X141.518 Y99.964
G0 X141.265 Y101.087
G0 X138.993 Y101.09
G1 F2700 E587.84309
G0 F10500 X139.094 Y101.262
;TYPE:WALL-OUTER
G1 F2100 X138.538 Y101.252 E588.12053
G1 X138.54 Y99.722 E588.88385
G1 X139.092 Y99.724 E589.15924
G1 X139.094 Y101.262 E589.92656
G0 F10500 X138.815 Y100.914
;TYPE:SKIN
G1 F2100 X138.815 Y100.631 E590.02861
G1 X138.814 Y100.065 E590.23271
G1 F2700 E585.23271
G0 F10500 X138.739 Y99.963
G0 X138.652 Y101.14
G0 X137.907 Y101.141
G0 X137.544 Y101.255
;TYPE:WALL-OUTER
G1 F2700 E590.23271
G1 F2100 X137.545 Y99.72 E590.99852
G1 X137.704 Y99.721 E591.07785
G1 X137.708 Y101.252 E591.84167
G1 X137.544 Y101.255 E591.92351
G0 F10500 X137.507 Y101.254
G1 F2700 E586.92351
G0 F10500 X137.894 Y101.435
G0 X137.906 Y102.114
G0 X141.282 Y132.834
G0 X141.28 Y133.814
G0 X141.314 Y134.727
G1 F2700 E591.92351
G0 F10500 X141.446 Y134.726
G1 F2100 X141.719 Y134.725 E592.05971
G1 X141.718 Y135.276 E592.3346
G1 X141.164 Y135.276 E592.611
G1 X141.166 Y133.7 E593.39727
G1 X141.447 Y133.7 E593.53746
G1 X141.446 Y134.726 E594.04933
G0 F10500 X141.406 Y134.901
;TYPE:SKIN
G1 F2100 X141.542 Y135.037 E594.09731
G1 F2700 E589.09731
G0 F10500 X141.519 Y135.037
G0 X138.974 Y135.077
G0 X138.711 Y135.075
G1 F2700 E594.09731
G0 F10500 X138.54 Y135.276
;TYPE:WALL-OUTER
G1 F2100 X138.54 Y133.749 E594.85913
G1 X139.094 Y133.737 E595.13559
G1 X139.093 Y135.275 E595.9029
G1 X138.54 Y135.276 E596.17879
G0 F10500 X138.745 Y135.068
;TYPE:SKIN
G1 F2100 X138.815 Y134.855 E596.24331
G1 X138.823 Y134.014 E596.48531
G1 F2700 E591.48531
G0 F10500 X138.74 Y133.946
G0 X138.654 Y135.162
G0 X137.885 Y135.159
G0 X137.546 Y135.277
;TYPE:WALL-OUTER
G1 F2700 E596.48531
G1 F2100 X137.545 Y133.743 E597.25062
G1 X137.707 Y133.746 E597.33146
G1 X137.704 Y135.277 E598.09528
G1 X137.546 Y135.277 E598.17411
G0 F10500 X137.746 Y135.078
G1 F2700 E593.17411
G0 F10500 X137.547 Y135.457
G0 X137.535 Y137.366
G0 X137.547 Y137.704
G1 F2700 E598.17411
G1 F2100 X137.546 Y137.546 E598.25293
G1 X137.706 Y137.547 E598.33276
G1 X137.705 Y137.705 E598.41159
G1 X137.547 Y137.704 E598.49042
G0 F10500 X137.506 Y137.704
G0 X137.886 Y137.701
G0 X138.359 Y137.703
G0 X138.539 Y137.704
G1 F2100 X138.54 Y137.547 E598.56874
G1 X139.092 Y137.546 E598.84414
G1 X139.092 Y137.704 E598.92297
G1 X138.539 Y137.704 E599.19886
G0 F10500 X138.539 Y137.748
G0 X138.735 Y138.659
G0 X138.741 Y138.921
G0 X138.541 Y139.091
G1 F2100 X138.541 Y138.539 E599.47425
G1 X139.091 Y138.541 E599.74865
G1 X139.093 Y139.093 E600.02405
G1 X138.541 Y139.091 E600.29944
G0 F10500 X138.916 Y138.916
;TYPE:SKIN
G1 F2100 X138.715 Y138.715 E600.37035
G0 F10500 X138.741 Y138.739
G0 X138.655 Y138.977
G0 X137.885 Y138.975
G0 X137.546 Y139.092
;TYPE:WALL-OUTER
G1 F2100 X137.548 Y138.539 E600.64624
G1 X137.705 Y138.54 E600.72457
G1 X137.704 Y139.092 E600.99997
G1 X137.546 Y139.092 E601.07879
G0 F10500 X137.746 Y138.893
G1 F2700 E596.07879
G0 F10500 X137.89 Y139.277
G0 X138.355 Y140.979
G0 X138.54 Y141.174
G1 F2700 E601.07879
G1 F2100 X138.54 Y141.165 E601.08328
G1 X139.093 Y141.165 E601.35918
G1 X139.093 Y141.175 E601.36417
G1 X138.54 Y141.174 E601.64006
G0 F10500 X138.54 Y141.365
G1 F2700 E596.64006
G0 F10500 X138.54 Y141.275
G0 X139.278 Y141.361
G0 X141.285 Y141.361
G1 F2700 E601.64006
G0 F10500 X141.165 Y141.718
G1 F2100 X141.165 Y141.165 E601.91595
G1 X141.718 Y141.164 E602.19185
G1 X141.72 Y141.719 E602.46874
G1 X141.165 Y141.718 E602.74563
G0 F10500 X141.543 Y141.543
;TYPE:SKIN
G1 F2100 X141.339 Y141.339 E602.8176
G1 F2700 E597.8176
G0 F10500 X141.364 Y141.365
G0 X141.285 Y139.273
G0 X141.176 Y139.093
;TYPE:WALL-OUTER
G1 F2700 E602.8176
G1 F2100 X141.165 Y139.092 E602.82311
G1 X141.165 Y138.539 E603.099
G1 X141.175 Y138.539 E603.10399
G1 X141.176 Y139.093 E603.38038
G0 F10500 X141.365 Y139.092
G1 F2700 E598.38038
G0 F10500 X141.275 Y139.091
G0 X140.979 Y139.278
G0 X140.3 Y139.278
G0 X139.947 Y139.947
G0 X137.691 Y140.312
G0 X136.14 Y141.277
G0 X135.161 Y141.279
G0 X134.923 Y141.443
G1 F2700 E603.38038
G0 F10500 X134.723 Y141.443
G1 F2100 X134.303 Y141.447 E603.58993
G1 X134.268 Y141.445 E603.60742
G1 X133.756 Y141.444 E603.86286
G1 X133.761 Y141.166 E604.00157
G1 X135.275 Y141.165 E604.75691
G1 X135.276 Y141.718 E605.03281
G1 X134.725 Y141.72 E605.3077
G1 X134.723 Y141.443 E605.4459
G0 F10500 X134.897 Y141.402
;TYPE:SKIN
G1 F2100 X135.037 Y141.542 E605.49529
G1 F2700 E600.49529
G0 F10500 X135.038 Y141.518
G0 X134.85 Y141.314
G0 X134.496 Y141.325
G0 X133.911 Y141.266
G0 X133.908 Y138.993
G1 F2700 E605.49529
G0 F10500 X133.736 Y139.094
;TYPE:WALL-OUTER
G1 F2100 X133.746 Y138.538 E605.77273
G1 X135.276 Y138.54 E606.53605
G1 X135.274 Y139.092 E606.81144
G1 X133.736 Y139.094 E607.57875
G0 F10500 X134.013 Y138.821
;TYPE:SKIN
G1 F2100 X134.289 Y138.815 E607.66307
G1 X135.068 Y138.745 E607.90196
G1 F2700 E602.90196
G0 F10500 X135.037 Y138.739
G0 X133.858 Y138.652
G0 X133.857 Y137.907
G0 X133.746 Y137.708
;TYPE:WALL-OUTER
G1 F2700 E607.90196
G1 F2100 X133.744 Y137.544 E607.98379
G1 X135.278 Y137.545 E608.7491
G1 X135.277 Y137.704 E608.82843
G1 X133.746 Y137.708 E609.59225
G0 F10500 X133.747 Y137.744
G1 F2700 E604.59225
G0 F10500 X134.108 Y137.364
G0 X134.111 Y135.057
G0 X134.111 Y134.876
;TYPE:WALL-INNER
G1 F2700 E609.59225
G1 F2100 X134.121 Y134.136 E609.96147
G1 X134.876 Y134.141 E610.33815
G1 X134.876 Y134.877 E610.70534
G1 X134.111 Y134.876 E611.087
G0 F10500 X133.703 Y135.276
;TYPE:WALL-OUTER
G1 F2100 X133.706 Y135.22 E611.11498
G1 X133.726 Y133.731 E611.85791
G1 X134.152 Y133.736 E612.07046
G1 X135.275 Y133.744 E612.63074
G1 X135.277 Y135.277 E613.39556
G1 X133.703 Y135.276 E614.18083
G0 F10500 X134.353 Y134.636
;TYPE:SKIN
G1 F2100 X134.506 Y134.506 E614.29522
G1 X134.649 Y134.366 E614.40924
G0 F10500 X134.675 Y134.417
G1 F2700 E609.40924
;MESH:NONMESH
G0 F300 X134.675 Y134.417 Z9.28
G0 F10500 X133.922 Y135.062
G0 X133.922 Y136.142
G0 X132.879 Y136.691
G0 X132.888 Y138.187
G0 X133.915 Y138.658
G1 F2700 E614.40924
G0 F10500 X132.926 Y139.376
;TIME_ELAPSED:184.067502
;LAYER:3
M106 S255
;TYPE:WALL-INNER
;MESH:eiffel_final.stl
G1 F2100 X132.929 Y137.458 E615.36614
G1 X132.926 Y133.941 E617.12078
G1 X132.9 Y132.896 E617.64229
G1 X133.835 Y132.914 E618.10885
G1 X134.204 Y132.929 E618.2931
G1 X138.979 Y132.928 E620.67535
G1 X139.376 Y132.896 E620.87406
G1 X139.375 Y133.206 E620.94846
G1 X139.104 Y133.206 E621.04524
G1 X139.104 Y139.104 E623.98776
G1 X133.205 Y139.104 E626.93079
G1 X133.206 Y139.374 E627.06549
G1 X132.926 Y139.376 E627.20519
G0 F10500 X133.054 Y139.775
;TYPE:WALL-OUTER
G1 F2100 X132.522 Y139.778 E627.47061
G1 X132.526 Y139.469 E627.62478
G1 X132.529 Y137.457 E628.62857
G1 X132.526 Y133.946 E630.38022
G1 X132.489 Y132.488 E631.10785
G1 X133.851 Y132.514 E631.78748
G1 X134.169 Y132.527 E631.94626
G1 X134.213 Y132.529 E631.96824
G1 X138.963 Y132.528 E634.33802
G1 X139.446 Y132.489 E634.57978
G1 X139.777 Y132.473 E634.74511
G1 X139.775 Y133.055 E635.03547
G1 X140.05 Y133.055 E635.17267
G1 X140.048 Y133.606 E635.44756
G1 X139.504 Y133.606 E635.71897
G1 X139.503 Y139.039 E638.4295
G1 X139.507 Y139.499 E638.659
G1 X140.049 Y139.496 E638.92941
G1 X140.051 Y140.05 E639.20581
G1 X139.496 Y140.048 E639.4827
G1 X139.499 Y139.776 E639.61841
G1 X139.492 Y139.504 E639.75416
G1 X133.606 Y139.504 E642.69069
G1 X133.607 Y140.049 E642.96259
G1 X133.055 Y140.05 E643.23799
G1 X133.054 Y139.775 E643.37519
G0 F10500 X133.354 Y139.775
G0 X133.038 Y138.713
G0 X133.317 Y138.714
;TYPE:SKIN
G1 F2100 X133.319 Y137.458 E644.00181
G1 X133.316 Y133.937 E645.75844
G1 X133.3 Y133.294 E646.07934
G1 X133.819 Y133.304 E646.33832
G1 X134.196 Y133.319 E646.52655
G1 X138.714 Y133.318 E648.78059
G1 X138.714 Y138.714 E651.47267
G1 X133.317 Y138.714 E654.16524
G0 F10500 X133.038 Y138.713
G0 X138.066 Y138.994
G0 X138.066 Y138.553
G1 F2100 X138.553 Y138.066 E654.50884
G0 F10500 X138.553 Y137.501
G1 F2100 X137.501 Y138.553 E655.25109
G0 F10500 X136.935 Y138.553
G1 F2100 X138.553 Y136.935 E656.39267
G0 F10500 X138.553 Y136.369
G1 F2100 X136.369 Y138.553 E657.9336
G0 F10500 X135.804 Y138.553
G1 F2100 X138.553 Y135.804 E659.87317
G0 F10500 X138.553 Y135.238
G1 F2100 X135.238 Y138.553 E662.21208
G0 F10500 X134.672 Y138.553
G1 F2100 X138.553 Y134.672 E664.95034
G0 F10500 X138.553 Y134.107
G1 F2100 X134.107 Y138.553 E668.08723
G0 F10500 X133.541 Y138.553
G1 F2100 X138.553 Y133.541 E671.62347
G0 F10500 X138.049 Y133.479
G1 F2100 X133.478 Y138.05 E674.84856
G0 F10500 X133.479 Y137.484
G1 F2100 X137.484 Y133.479 E677.6743
G0 F10500 X136.918 Y133.479
G1 F2100 X133.479 Y136.918 E680.1007
G0 F10500 X133.478 Y136.353
G1 F2100 X136.352 Y133.479 E682.12846
G0 F10500 X135.787 Y133.479
G1 F2100 X133.478 Y135.787 E683.75723
G0 F10500 X133.477 Y135.222
G1 F2100 X135.221 Y133.479 E684.98737
G0 F10500 X134.655 Y133.479
G1 F2100 X133.477 Y134.657 E685.81851
G0 F10500 X133.477 Y134.092
G1 F2100 X134.094 Y133.474 E686.25419
G0 F10500 X133.544 Y133.458
G1 F2100 X133.465 Y133.537 E686.30993
G0 F10500 X133.026 Y133.547
G0 X133.109 Y138.922
G0 X133.306 Y139.532
G0 X133.319 Y139.623
;TYPE:SKIN
G1 F2100 X133.391 Y139.834 E686.40262
G1 F2700 E681.40262
G0 F10500 X133.354 Y139.795
G0 X133.378 Y139.276
G0 X139.291 Y139.29
G0 X139.711 Y139.711
G1 F2700 E686.40262
G0 F10500 X139.673 Y139.775
G1 F2100 X139.776 Y139.671 E686.43913
G1 F2700 E681.43913
G0 F10500 X139.776 Y139.749
G0 X139.283 Y139.041
G0 X139.276 Y133.378
G0 X139.795 Y133.355
G1 F2700 E686.43913
G0 F10500 X139.833 Y133.392
G1 F2100 X139.623 Y133.319 E686.52957
G0 F10500 X139.175 Y133.005
G1 F2700 E681.52957
G0 F10500 X133.087 Y133.082
G0 X132.749 Y137.457
G0 X131.664 Y137.456
G0 X103.368 Y139.355
G0 X102.296 Y139.443
G0 X101.793 Y139.375
;TYPE:WALL-INNER
G1 F2700 E686.52957
G1 F2100 X101.794 Y139.104 E686.66477
G1 X95.894 Y139.104 E689.60829
G1 X95.894 Y133.205 E692.55131
G1 X95.621 Y133.206 E692.68751
G1 X95.621 Y132.896 E692.77607
G1 X96.019 Y132.928 E692.90971
G1 X100.781 Y132.928 E695.28548
G1 X101.057 Y132.926 E695.42318
G1 X102.099 Y132.9 E695.9432
G1 X102.073 Y133.937 E696.46073
G1 X102.069 Y134.21 E696.59694
G1 X102.07 Y138.979 E698.9762
G1 X102.102 Y139.376 E699.13583
G1 X101.793 Y139.375 E699.20957
G0 F10500 X101.942 Y139.775
;TYPE:WALL-OUTER
G1 F2100 X101.942 Y140.05 E699.34677
G1 X101.391 Y140.048 E699.62166
G1 X101.393 Y139.504 E699.89307
G1 X95.959 Y139.503 E702.6041
G1 X95.501 Y139.507 E702.83261
G1 X95.502 Y140.048 E703.10251
G1 X94.949 Y140.05 E703.37841
G1 X94.95 Y139.496 E703.6548
G1 X95.222 Y139.499 E703.79051
G1 X95.49 Y139.491 E703.92428
G1 X95.495 Y138.956 E704.1912
G1 X95.494 Y133.606 E706.86033
G1 X94.95 Y133.607 E707.13173
G1 X94.95 Y133.055 E707.40712
G1 X95.221 Y133.054 E707.54233
G1 X95.22 Y132.473 E707.83219
G1 X95.551 Y132.489 E707.99752
G1 X96.035 Y132.528 E708.23977
G1 X100.78 Y132.528 E710.60706
G1 X101.05 Y132.526 E710.74177
G1 X102.51 Y132.489 E711.4704
G1 X102.473 Y133.945 E712.19703
G1 X102.469 Y134.213 E712.33075
G1 X102.47 Y138.963 E714.70054
G1 X102.509 Y139.446 E714.94229
G1 X102.525 Y139.777 E715.10762
G1 X101.942 Y139.775 E715.39848
G0 F10500 X101.642 Y139.775
G0 X101.96 Y138.714
G0 X101.68 Y138.714
;TYPE:SKIN
G1 F2100 X96.284 Y138.714 E718.09056
G1 X96.284 Y133.318 E720.78264
G1 X100.783 Y133.318 E723.0272
G1 X101.063 Y133.316 E723.16689
G1 X101.699 Y133.3 E723.48429
G1 X101.683 Y133.929 E723.7982
G1 X101.679 Y134.208 E723.93741
G1 X101.68 Y138.714 E726.18546
G0 F10500 X101.297 Y138.553
G1 F2100 X101.519 Y138.331 E726.3421
G0 F10500 X101.519 Y137.765
G1 F2100 X100.731 Y138.553 E726.89807
G0 F10500 X100.165 Y138.553
G1 F2100 X101.519 Y137.199 E727.85339
G0 F10500 X101.519 Y136.634
G1 F2100 X99.6 Y138.553 E729.20735
G0 F10500 X99.034 Y138.553
G1 F2100 X101.519 Y136.068 E730.96065
G0 F10500 X101.519 Y135.502
G1 F2100 X98.468 Y138.553 E733.1133
G0 F10500 X97.903 Y138.553
G1 F2100 X101.519 Y134.937 E735.66458
G0 F10500 X101.519 Y134.371
G1 F2100 X97.337 Y138.553 E738.61521
G0 F10500 X96.771 Y138.553
G1 F2100 X101.525 Y133.799 E741.96941
G0 F10500 X101.29 Y133.469
G1 F2100 X96.444 Y138.315 E745.38853
G0 F10500 X96.444 Y137.749
G1 F2100 X100.716 Y133.477 E748.40266
G0 F10500 X100.151 Y133.477
G1 F2100 X96.444 Y137.183 E751.01779
G0 F10500 X96.444 Y136.617
G1 F2100 X99.585 Y133.477 E753.23358
G0 F10500 X99.019 Y133.477
G1 F2100 X96.444 Y136.052 E755.05039
G0 F10500 X96.444 Y135.486
G1 F2100 X98.454 Y133.477 E756.4682
G0 F10500 X97.888 Y133.477
G1 F2100 X96.444 Y134.92 E757.48666
G0 F10500 X96.444 Y134.355
G1 F2100 X97.322 Y133.477 E758.10614
G0 F10500 X96.756 Y133.477
G1 F2100 X96.444 Y133.789 E758.32627
G0 F10500 X96.004 Y133.789
G0 X95.461 Y133.306
G0 X95.423 Y133.394
;TYPE:SKIN
G1 F2100 X95.216 Y133.319 E758.41689
G1 F2700 E753.41689
G0 F10500 X95.221 Y133.306
G0 X95.722 Y133.378
G0 X95.706 Y139.291
G0 X95.289 Y139.711
G1 F2700 E758.41689
G0 F10500 X95.327 Y139.715
G1 F2100 X95.168 Y139.873 E758.47281
G1 F2700 E753.47281
G0 F10500 X95.249 Y139.749
G0 X95.959 Y139.283
G0 X101.622 Y139.276
G0 X101.642 Y139.698
G1 F2700 E758.47281
G0 F10500 X101.648 Y139.615
G1 F2100 X101.72 Y139.826 E758.56299
G0 F10500 X101.993 Y139.45
G1 F2700 E753.56299
G0 F10500 X100.979 Y138.922
G0 X96.076 Y138.922
G0 X96.023 Y132.747
G0 X96.068 Y131.664
G0 X95.909 Y103.335
G0 X95.904 Y102.27
G0 X95.62 Y102.072
;TYPE:WALL-INNER
G1 F2700 E758.56299
G1 F2100 X95.62 Y101.793 E758.70219
G1 X95.894 Y101.794 E758.78902
G1 X95.893 Y95.894 E761.73254
G1 X101.793 Y95.894 E764.67606
G1 X101.792 Y95.621 E764.81226
G1 X102.102 Y95.621 E764.90082
G1 X102.07 Y96.019 E765.03446
G1 X102.07 Y100.781 E767.41023
G1 X102.072 Y101.057 E767.54793
G1 X102.099 Y102.102 E768.06946
G1 X101.16 Y102.082 E768.53803
G1 X100.792 Y102.069 E768.72174
G1 X96.042 Y102.07 E771.09153
G1 X95.62 Y102.072 E771.25725
G0 F10500 X95.22 Y101.94
;TYPE:WALL-OUTER
G1 F2100 X94.95 Y101.941 E771.39195
G1 X94.951 Y101.391 E771.66635
G1 X95.494 Y101.393 E771.93726
G1 X95.494 Y95.959 E774.64829
G1 X95.489 Y95.501 E774.8768
G1 X94.95 Y95.501 E775.14571
G1 X94.949 Y94.949 E775.4211
G1 X95.501 Y94.951 E775.6965
G1 X95.503 Y95.49 E775.96541
G1 X96.042 Y95.495 E776.23433
G1 X101.392 Y95.494 E778.90345
G1 X101.391 Y94.95 E779.17486
G1 X101.942 Y94.95 E779.44975
G1 X101.942 Y95.221 E779.58495
G1 X102.525 Y95.22 E779.87582
G1 X102.509 Y95.551 E780.04114
G1 X102.47 Y96.035 E780.2834
G1 X102.47 Y100.78 E782.65069
G1 X102.472 Y101.05 E782.78539
G1 X102.51 Y102.511 E783.51454
G1 X101.146 Y102.482 E784.19519
G1 X100.827 Y102.471 E784.35444
G1 X100.783 Y102.469 E784.37641
G1 X96.043 Y102.47 E786.74121
G1 X95.535 Y102.472 E786.99465
G1 X95.219 Y102.476 E787.15232
G1 X95.22 Y101.94 E787.41973
G0 F10500 X95.519 Y101.941
G0 X96.284 Y101.96
G0 X96.284 Y101.68
;TYPE:SKIN
G1 F2100 X96.283 Y96.284 E790.1118
G1 X101.68 Y96.284 E792.80438
G1 X101.68 Y100.783 E795.04894
G1 X101.682 Y101.063 E795.18863
G1 X101.699 Y101.704 E795.50854
G1 X101.174 Y101.692 E795.77053
G1 X100.799 Y101.679 E795.95774
G1 X96.284 Y101.68 E798.21028
G0 F10500 X96.284 Y101.96
G0 X96.003 Y97.02
G0 X96.443 Y97.02
G1 F2100 X97.021 Y96.443 E798.61774
G0 F10500 X97.587 Y96.443
G1 F2100 X96.443 Y97.586 E799.42454
G0 F10500 X96.443 Y98.152
G1 F2100 X98.152 Y96.443 E800.63033
G0 F10500 X98.718 Y96.443
G1 F2100 X96.443 Y98.717 E802.23511
G0 F10500 X96.443 Y99.283
G1 F2100 X99.284 Y96.443 E804.23924
G0 F10500 X99.849 Y96.443
G1 F2100 X96.443 Y99.849 E806.64235
G0 F10500 X96.443 Y100.414
G1 F2100 X100.415 Y96.443 E809.44446
G0 F10500 X100.981 Y96.443
G1 F2100 X96.443 Y100.98 E812.64591
G0 F10500 X96.471 Y101.517
G1 F2100 X101.519 Y96.47 E816.2072
G0 F10500 X101.519 Y97.036
G1 F2100 X97.037 Y101.517 E819.36914
G0 F10500 X97.603 Y101.517
G1 F2100 X101.519 Y97.601 E822.13209
G0 F10500 X101.519 Y98.167
G1 F2100 X98.169 Y101.517 E824.49569
G0 F10500 X98.734 Y101.517
G1 F2100 X101.519 Y98.733 E826.46031
G0 F10500 X101.519 Y99.299
G1 F2100 X99.3 Y101.517 E828.02558
G0 F10500 X99.866 Y101.517
G1 F2100 X101.519 Y99.864 E829.19186
G0 F10500 X101.519 Y100.43
G1 F2100 X100.431 Y101.517 E829.95915
G0 F10500 X100.99 Y101.524
G1 F2100 X101.52 Y100.994 E830.33309
G0 F10500 X101.962 Y100.992
G0 X101.888 Y96.076
G0 X101.672 Y95.491
G0 X101.722 Y95.418
;TYPE:SKIN
G1 F2100 X101.649 Y95.208 E830.42303
G1 F2700 E825.42303
G0 F10500 X101.642 Y95.25
G0 X101.62 Y95.722
G0 X95.705 Y95.706
G0 X95.288 Y95.287
G1 F2700 E830.42303
G0 F10500 X95.228 Y95.124
G1 F2100 X95.124 Y95.228 E830.45972
G1 F2700 E825.45972
G0 F10500 X95.202 Y95.228
G0 X95.714 Y95.957
G0 X95.722 Y101.622
G0 X95.292 Y101.639
G1 F2700 E830.45972
G0 F10500 X95.208 Y101.648
G1 F2100 X95.418 Y101.722 E830.54753
G0 F10500 X96.094 Y101.456
G1 F2700 E825.54753
G0 F10500 X96.003 Y101.455
G0 X96.076 Y101.888
G0 X102.291 Y102.293
G0 X103.368 Y102.265
G0 X131.629 Y102.266
G0 X132.708 Y102.291
G0 X139.375 Y102.071
;TYPE:WALL-INNER
G1 F2700 E830.54753
G1 F2100 X137.457 Y102.069 E831.50443
G1 X133.941 Y102.072 E833.25857
G1 X132.899 Y102.099 E833.7786
G1 X132.925 Y101.059 E834.29762
G1 X132.929 Y100.786 E834.43383
G1 X132.928 Y96.04 E836.80162
G1 X132.924 Y95.62 E837.01117
G1 X133.206 Y95.62 E837.15186
G1 X133.206 Y95.894 E837.24474
G1 X139.104 Y95.893 E840.18726
G1 X139.104 Y101.793 E843.13078
G1 X139.374 Y101.792 E843.26549
G1 X139.375 Y102.071 E843.34161
G0 F10500 X139.775 Y101.942
;TYPE:WALL-OUTER
G1 F2100 X139.777 Y102.475 E843.60753
G1 X139.466 Y102.471 E843.7627
G1 X137.457 Y102.469 E844.765
G1 X133.946 Y102.472 E846.51664
G1 X132.489 Y102.51 E847.24379
G1 X132.525 Y101.051 E847.97191
G1 X132.529 Y100.783 E848.10563
G1 X132.528 Y96.042 E850.47092
G1 X132.521 Y95.22 E850.88104
G1 X133.058 Y95.22 E851.14895
G1 X133.056 Y94.95 E851.28365
G1 X133.606 Y94.951 E851.55805
G1 X133.606 Y95.494 E851.82896
G1 X139.039 Y95.494 E854.53949
G1 X139.499 Y95.489 E854.769
G1 X139.497 Y94.95 E855.03791
G1 X140.051 Y94.949 E855.3143
G1 X140.049 Y95.501 E855.5897
G1 X139.504 Y95.502 E855.8616
G1 X139.504 Y101.392 E858.80013
G1 X140.049 Y101.391 E859.07203
G1 X140.05 Y101.942 E859.34693
G1 X139.775 Y101.942 E859.48413
G0 F10500 X139.775 Y101.642
G0 X138.713 Y101.959
G0 X138.714 Y101.681
;TYPE:SKIN
G1 F2100 X137.457 Y101.679 E860.11125
G1 X133.937 Y101.682 E861.86738
G1 X133.299 Y101.699 E862.1858
G1 X133.315 Y101.067 E862.5012
G1 X133.319 Y100.788 E862.64041
G1 X133.318 Y96.284 E864.88747
G1 X138.714 Y96.283 E867.57954
G1 X138.714 Y101.681 E870.27261
G0 F10500 X138.552 Y101.297
G1 F2100 X138.329 Y101.52 E870.42995
G0 F10500 X137.765 Y101.519
G1 F2100 X138.552 Y100.732 E870.98522
G0 F10500 X138.552 Y100.166
G1 F2100 X137.199 Y101.519 E871.93984
G0 F10500 X136.633 Y101.52
G1 F2100 X138.552 Y99.6 E873.29415
G0 F10500 X138.552 Y99.035
G1 F2100 X136.067 Y101.52 E875.04745
G0 F10500 X135.501 Y101.52
G1 F2100 X138.552 Y98.469 E877.2001
G0 F10500 X138.552 Y97.903
G1 F2100 X134.935 Y101.521 E879.75244
G0 F10500 X134.368 Y101.522
G1 F2100 X138.552 Y97.338 E882.70448
G0 F10500 X138.552 Y96.772
G1 F2100 X133.799 Y101.525 E886.05797
G0 F10500 X133.468 Y101.29
G1 F2100 X138.316 Y96.443 E889.47815
G0 F10500 X137.75 Y96.443
G1 F2100 X133.478 Y100.715 E892.49227
G0 F10500 X133.478 Y100.149
G1 F2100 X137.185 Y96.443 E895.10741
G0 F10500 X136.619 Y96.443
G1 F2100 X133.478 Y99.583 E897.3232
G0 F10500 X133.478 Y99.018
G1 F2100 X136.053 Y96.443 E899.14
G0 F10500 X135.487 Y96.443
G1 F2100 X133.477 Y98.453 E900.55817
G0 F10500 X133.477 Y97.887
G1 F2100 X134.921 Y96.443 E901.57699
G0 F10500 X134.355 Y96.443
G1 F2100 X133.477 Y97.321 E902.19646
G0 F10500 X133.477 Y96.756
G1 F2100 X133.79 Y96.443 E902.4173
G0 F10500 X133.79 Y96.003
G0 X133.306 Y95.46
G0 X133.394 Y95.424
;TYPE:SKIN
G1 F2100 X133.322 Y95.214 E902.50486
G1 F2700 E897.50486
G0 F10500 X133.306 Y95.221
G0 X133.378 Y95.722
G0 X139.29 Y95.705
G0 X139.712 Y95.287
G1 F2700 E902.50486
G0 F10500 X139.715 Y95.326
G1 F2100 X139.874 Y95.168 E902.56077
G1 F2700 E897.56077
G0 F10500 X139.749 Y95.25
G0 X139.29 Y95.705
G0 X139.276 Y101.62
G0 X139.698 Y101.642
G1 F2700 E902.56077
G0 F10500 X139.615 Y101.648
G1 F2100 X139.826 Y101.72 E902.65196
G0 F10500 X139.448 Y101.992
G1 F2700 E897.65196
;MESH:NONMESH
G0 F300 X139.448 Y101.992 Z12.28
G0 F10500 X137.457 Y102.249
G0 X137.456 Y103.334
G0 X137.462 Y131.664
G0 X137.463 Y132.729
G0 X133.087 Y133.082
G0 X132.828 Y138.109
G1 F2700 E902.65196
G0 F10500 X131.384 Y138.106
;TIME_ELAPSED:223.690423
;LAYER:4
;TYPE:WALL-OUTER
;MESH:eiffel_final.stl
G1 F2100 X130.443 Y138.108 E903.12143
G1 X130.467 Y137.829 E903.26114
G1 X131.938 Y137.828 E903.99502
G1 X131.939 Y138.252 E904.20656
G1 X131.937 Y138.38 E904.27042
G1 X131.386 Y138.381 E904.54532
G1 X131.384 Y138.106 E904.68252
G0 F10500 X131.557 Y138.063
;TYPE:SKIN
G1 F2100 X131.698 Y138.204 E904.73226
G1 F2700 E899.73226
G0 F10500 X131.699 Y138.18
G0 X131.824 Y137.942
G0 X134.012 Y137.937
G0 X134.211 Y137.827
;TYPE:WALL-OUTER
G1 F2700 E904.73226
G1 F2100 X134.758 Y137.827 E905.00516
G1 X134.758 Y137.835 E905.00915
G1 X134.212 Y137.837 E905.28156
G1 X134.211 Y137.827 E905.28657
G0 F10500 X134.412 Y138.027
G1 F2700 E900.28657
G0 F10500 X134.413 Y137.936
G0 X134.209 Y137.647
G0 X134.205 Y135.559
G0 X134.209 Y135.36
G1 F2700 E905.28657
G1 F2100 X134.21 Y135.2 E905.3664
G1 X134.758 Y135.2 E905.63979
G1 X134.757 Y135.358 E905.71862
G1 X134.209 Y135.36 E905.99202
G0 F10500 X134.21 Y135.4
G0 X134.21 Y134.758
G1 F2100 X134.212 Y134.212 E906.26443
G1 X134.758 Y134.21 E906.53683
G1 X134.758 Y134.758 E906.81023
G1 X134.21 Y134.758 E907.08362
G0 F10500 X134.582 Y134.582
;TYPE:SKIN
G1 F2100 X134.385 Y134.385 E907.15312
G0 F10500 X135.2 Y134.758
;TYPE:WALL-OUTER
G1 F2100 X135.201 Y134.21 E907.42652
G1 X135.359 Y134.21 E907.50535
G1 X135.358 Y134.758 E907.77875
G1 X135.2 Y134.758 E907.85757
G0 F10500 X135.4 Y134.558
G0 X135.359 Y135.359
G1 F2100 X135.2 Y135.358 E907.9369
G1 X135.2 Y135.2 E908.01573
G1 X135.358 Y135.2 E908.09455
G1 X135.359 Y135.359 E908.17388
G0 F10500 X135.4 Y135.358
G1 F2700 E903.17388
G0 F10500 X135.544 Y135.014
G0 X137.641 Y134.944
G0 X137.827 Y134.758
G1 F2700 E908.17388
G1 F2100 X137.828 Y134.212 E908.44628
G1 X137.838 Y134.211 E908.45129
G1 X137.835 Y134.757 E908.7237
G1 X137.827 Y134.758 E908.72772
G0 F10500 X138.027 Y134.557
G1 F2700 E903.72772
G0 F10500 X137.937 Y134.557
G0 X138.022 Y134.025
G0 X138.036 Y131.818
G0 X137.978 Y131.383
G1 F2700 E908.72772
G0 F10500 X138.105 Y131.384
G1 F2100 X138.381 Y131.386 E908.86542
G1 X138.379 Y131.937 E909.14032
G1 X138.286 Y131.939 E909.18673
G1 X137.828 Y131.937 E909.41523
G1 X137.828 Y130.485 E910.13963
G1 X138.107 Y130.471 E910.279
G1 X138.105 Y131.384 E910.7345
G0 F10500 X138.064 Y131.558
;TYPE:SKIN
G1 F2100 X138.204 Y131.699 E910.78406
G1 F2700 E905.78406
G0 F10500 X138.18 Y131.699
G0 X137.942 Y131.823
G0 X135.539 Y131.823
G0 X135.2 Y131.936
;TYPE:WALL-OUTER
G1 F2700 E910.78406
G1 F2100 X135.201 Y130.483 E911.50897
G1 X135.359 Y130.472 E911.58799
G1 X135.359 Y131.936 E912.31838
G1 X135.2 Y131.936 E912.3977
G0 F10500 X135.4 Y131.736
G0 X135.02 Y131.739
G0 X134.657 Y131.739
G0 X134.383 Y131.737
G0 X134.212 Y131.938
G1 F2100 X134.211 Y130.457 E913.13658
G1 X134.243 Y130.455 E913.15257
G1 X134.757 Y130.486 E913.40948
G1 X134.758 Y131.936 E914.13288
G1 X134.212 Y131.938 E914.40529
G0 F10500 X134.483 Y131.655
;TYPE:SKIN
G1 F2100 X134.483 Y131.372 E914.50312
G1 X134.483 Y130.806 E914.69878
G1 F2700 E909.69878
G0 F10500 X134.412 Y130.708
G0 X134.312 Y131.481
G0 X131.736 Y131.484
G0 X130.896 Y131.483
;TYPE:WALL-INNER
G1 F2700 E914.69878
G1 F2100 X131.408 Y131.412 E914.95666
G1 X131.49 Y130.83 E915.24989
G1 X131.54 Y130.831 E915.27484
G1 X131.536 Y131.049
G1 X131.537 Y131.537 E915.42683
G1 X130.897 Y131.537 E915.54231
G1 X130.896 Y131.483 E915.56926
G0 F10500 X131.054 Y131.057
;TYPE:WALL-OUTER
G1 F2100 X131.093 Y130.781 E915.70832
G1 X131.111 Y130.46 E915.86872
G1 X131.304 Y130.426 E915.96649
G1 X131.939 Y130.44 E916.28337
G1 X131.94 Y130.822 E916.47395
G1 X131.936 Y131.052 E916.58872
G1 X131.937 Y131.937 E917.03024
G1 X130.494 Y131.937 E917.75016
G1 X130.499 Y131.758 E917.8395
G1 X130.492 Y131.11 E918.16281
G1 X130.755 Y131.098 E918.29415
G1 X131.054 Y131.057 E918.44472
G0 F10500 X131.336 Y131.139
G1 F2700 E913.44472
G0 F10500 X131.345 Y131.14
G0 X130.713 Y131.723
G0 X130.703 Y134.328
G1 F2700 E918.44472
G0 F10500 X130.494 Y134.758
G1 F2100 X130.486 Y134.445 E918.60093
G1 X130.494 Y134.208 E918.71924
G1 X131.938 Y134.212 E919.43965
G1 X131.935 Y134.757 E919.71156
G1 X130.494 Y134.758 E920.43048
G0 F10500 X130.805 Y134.482
;TYPE:SKIN
G1 F2100 X131.088 Y134.482 E920.52794
G1 X131.654 Y134.482 E920.72287
G0 F10500 X131.737 Y134.557
G0 X130.605 Y134.644
G0 X130.605 Y135.001
G0 X130.48 Y135.36
;TYPE:WALL-OUTER
G1 F2100 X130.49 Y135.201 E920.80235
G1 X131.936 Y135.2 E921.52376
G1 X131.936 Y135.359 E921.60309
G1 X130.48 Y135.36 E922.32949
G0 F10500 X130.48 Y135.401
G1 F2700 E917.32949
G0 F10500 X132.123 Y135.545
G0 X132.802 Y135.543
G0 X133.355 Y136.214
G0 X135.613 Y136.974
G0 X136.965 Y137.802
G0 X137.943 Y137.942
G0 X138.028 Y138.209
G1 F2700 E922.32949
G0 F10500 X137.827 Y138.379
G1 F2100 X137.83 Y137.829 E922.60389
G1 X138.38 Y137.826 E922.87829
G1 X138.381 Y138.38 E923.15468
G1 X137.827 Y138.379 E923.43107
G0 F10500 X138.003 Y138.003
;TYPE:SKIN
G1 F2100 X138.205 Y138.205 E923.50233
G1 F2700 E918.50233
G0 F10500 X138.18 Y138.179
G0 X137.943 Y137.942
G0 X136.963 Y137.935
G0 X135.613 Y136.974
G0 X105.398 Y135.558
G0 X104.718 Y135.545
G0 X104.524 Y135.359
;TYPE:WALL-OUTER
G1 F2700 E923.50233
G1 F2100 X103.061 Y135.359 E924.23223
G1 X103.063 Y135.201 E924.31106
G1 X104.511 Y135.2 E925.03347
G1 X104.524 Y135.359 E925.11306
G0 F10500 X104.324 Y135.159
G0 X104.504 Y134.757
G1 F2100 X103.062 Y134.758 E925.83248
G1 X103.06 Y134.212 E926.10488
G1 X104.227 Y134.211 E926.6871
G1 X104.504 Y134.209 E926.8253
G1 X104.511 Y134.435 E926.9381
G1 X104.504 Y134.757 E927.09879
G0 F10500 X104.219 Y134.483
;TYPE:SKIN
G1 F2100 X103.936 Y134.483 E927.19588
G1 X103.37 Y134.483 E927.39007
G1 F2700 E922.39007
G0 F10500 X103.272 Y134.412
G0 X103.61 Y134.657
G0 X103.61 Y136.224
G0 X103.606 Y136.963
G0 X103.606 Y137.948
G1 F2700 E927.39007
G0 F10500 X103.613 Y138.105
;TYPE:WALL-OUTER
G1 F2100 X103.612 Y138.381 E927.52777
G1 X103.061 Y138.379 E927.80267
G1 X103.059 Y138.291 E927.84658
G1 X103.063 Y138.036 E927.97382
G1 X103.062 Y137.828 E928.07759
G1 X104.516 Y137.829 E928.803
G1 X104.519 Y138.107 E928.9417
G1 X103.613 Y138.105 E929.39371
G0 F10500 X103.414 Y138.204
;TYPE:SKIN
G1 F2100 X103.238 Y138.027 E929.45597
G1 F2700 E924.45597
G0 F10500 X103.263 Y138.028
G0 X100.985 Y137.947
G0 X100.785 Y137.827
;TYPE:WALL-OUTER
G1 F2700 E929.45597
G1 F2100 X100.753 Y137.836 E929.47255
G1 X100.239 Y137.835 E929.72899
G1 X100.238 Y137.827 E929.73301
G1 X100.785 Y137.827 E930.00591
G0 F10500 X100.795 Y137.638
G1 F2700 E925.00591
G0 F10500 X100.795 Y137.727
G0 X100.792 Y135.539
G0 X100.788 Y135.359
G1 F2700 E930.00591
G1 F2100 X100.238 Y135.358 E930.28031
G1 X100.238 Y135.2 E930.35914
G1 X100.788 Y135.201 E930.63353
G1 X100.788 Y135.359 E930.71236
G0 F10500 X100.588 Y135.159
G0 X100.787 Y134.758
G1 F2100 X100.238 Y134.758 E930.98626
G1 X100.238 Y134.21 E931.25965
G1 X100.786 Y134.212 E931.53305
G1 X100.787 Y134.758 E931.80546
G0 F10500 X100.611 Y134.552
;TYPE:SKIN
G1 F2100 X100.443 Y134.384 E931.86472
G0 F10500 X99.796 Y134.758
;TYPE:WALL-OUTER
G1 F2100 X99.639 Y134.757 E931.94305
G1 X99.637 Y134.209 E932.21645
G1 X99.796 Y134.21 E932.29578
G1 X99.796 Y134.758 E932.56918
G0 F10500 X99.84 Y134.758
G0 X99.638 Y135.359
G1 F2100 X99.639 Y135.2 E932.6485
G1 X99.796 Y135.2 E932.72683
G1 X99.796 Y135.358 E932.80566
G1 X99.638 Y135.359 E932.88449
G0 F10500 X99.639 Y135.4
G1 F2700 E927.88449
G0 F10500 X99.454 Y135.014
G0 X97.356 Y134.943
G0 X97.161 Y134.758
G1 F2700 E932.88449
G1 F2100 X97.162 Y134.212 E933.15689
G1 X97.168 Y134.211 E933.15992
G1 X97.169 Y134.757 E933.43232
G1 X97.161 Y134.758 E933.43634
G0 F10500 X97.361 Y134.557
G1 F2700 E928.43634
G0 F10500 X97.268 Y134.556
G0 X97.026 Y134.012
G0 X97.02 Y131.838
G0 X97.02 Y131.385
G1 F2700 E933.43634
G0 F10500 X96.891 Y131.384
G1 F2100 X96.89 Y130.463 E933.89583
G1 X97.17 Y130.482 E934.03585
G1 X97.171 Y131.938 E934.76225
G1 X96.746 Y131.939 E934.97428
G1 X96.619 Y131.937 E935.03765
G1 X96.619 Y131.386 E935.31255
G1 X96.891 Y131.384 E935.44825
G0 F10500 X96.793 Y131.583
;TYPE:SKIN
G1 F2100 X96.973 Y131.762 E935.51158
G1 F2700 E930.51158
G0 F10500 X96.97 Y131.737
G0 X99.457 Y131.824
G0 X99.796 Y131.936
;TYPE:WALL-OUTER
G1 F2700 E935.51158
G1 F2100 X99.637 Y131.936 E935.5909
G1 X99.637 Y130.473 E936.32079
G1 X99.795 Y130.483 E936.39978
G1 X99.796 Y131.936 E937.12468
G0 F10500 X99.837 Y131.935
G0 X100.785 Y131.938
G1 F2100 X100.238 Y131.936 E937.39758
G1 X100.239 Y130.491 E938.1185
G1 X100.786 Y130.471 E938.39158
G1 X100.785 Y131.938 E939.12347
G0 F10500 X100.511 Y131.624
;TYPE:SKIN
G1 F2100 X100.511 Y131.341 E939.22204
G1 X100.512 Y130.776 E939.41882
G1 F2700 E934.41882
G0 F10500 X100.437 Y130.684
G0 X100.666 Y131.478
G0 X103.263 Y131.471
G0 X104.102 Y131.482
;TYPE:WALL-INNER
G1 F2700 E939.41882
G1 F2100 X104.102 Y131.537 E939.44626
G1 X103.462 Y131.537 E939.76556
G1 X103.461 Y130.831 E940.11779
G1 X103.509 Y130.83 E940.14174
G1 X103.579 Y131.408 E940.18267
G1 X104.102 Y131.482 E940.2225
G0 F10500 X103.939 Y131.055
;TYPE:WALL-OUTER
G1 F2100 X104.214 Y131.094 E940.36107
G1 X104.505 Y131.11 E940.50647
G1 X104.5 Y131.757 E940.82927
G1 X104.505 Y131.937 E940.91911
G1 X103.063 Y131.937 E941.63853
G1 X103.06 Y130.44 E942.38538
G1 X103.693 Y130.425 E942.70128
G1 X103.888 Y130.46 E942.80012
G1 X103.902 Y130.747 E942.94347
G1 X103.939 Y131.055 E943.09824
G0 F10500 X103.854 Y131.337
G1 F2700 E938.09824
G0 F10500 X103.852 Y131.345
G0 X103.277 Y131.723
G0 X102.198 Y131.725
G0 X101.638 Y132.795
G0 X98.78 Y133.355
G0 X98.782 Y134.454
G0 X97.192 Y136.965
G0 X97.056 Y137.943
G0 X96.97 Y138.209
G1 F2700 E943.09824
G0 F10500 X97.17 Y138.379
G1 F2100 X96.619 Y138.38 E943.37314
G1 X96.619 Y137.827 E943.64903
G1 X97.17 Y137.83 E943.92393
G1 X97.17 Y138.379 E944.19783
G0 F10500 X96.908 Y138.203
;TYPE:SKIN
G1 F2100 X96.793 Y138.088 E944.23839
G1 F2700 E939.23839
G0 F10500 X96.819 Y138.088
G0 X97.056 Y137.943
G0 X97.063 Y136.963
G0 X98.025 Y135.608
G0 X99.438 Y105.397
G0 X99.451 Y104.719
G0 X99.637 Y104.526
;TYPE:WALL-OUTER
G1 F2700 E944.23839
G1 F2100 X99.637 Y103.061 E944.96929
G1 X99.796 Y103.062 E945.04861
G1 X99.795 Y104.515 E945.77352
G1 X99.637 Y104.526 E945.85254
G0 F10500 X99.837 Y104.326
G0 X100.239 Y104.512
G1 F2100 X100.238 Y103.062 E946.57594
G1 X100.785 Y103.06 E946.84884
G1 X100.785 Y104.54 E947.58722
G1 X100.753 Y104.542 E947.60322
G1 X100.239 Y104.512 E947.86009
G0 F10500 X100.51 Y104.187
;TYPE:SKIN
G1 F2100 X100.51 Y103.905 E947.95787
G1 X100.51 Y103.339 E948.15412
G1 F2700 E943.15412
G0 F10500 X100.438 Y103.262
G0 X100.339 Y103.61
G0 X98.772 Y103.61
G0 X98.036 Y103.606
G0 X97.051 Y103.606
G1 F2700 E948.15412
G0 F10500 X96.892 Y103.613
;TYPE:WALL-OUTER
G1 F2100 X96.619 Y103.612 E948.29032
G1 X96.62 Y103.061 E948.56522
G1 X96.711 Y103.059 E948.61063
G1 X96.961 Y103.063 E948.73537
G1 X97.171 Y103.062 E948.84014
G1 X97.17 Y104.517 E949.56604
G1 X96.888 Y104.549 E949.70763
G1 X96.892 Y103.613 E950.17461
G0 F10500 X96.932 Y103.437
;TYPE:SKIN
G1 F2100 X96.794 Y103.299 E950.22329
G1 F2700 E945.22329
G0 F10500 X96.819 Y103.299
G0 X97.057 Y103.176
G0 X97.052 Y100.985
G0 X97.161 Y100.786
;TYPE:WALL-OUTER
G1 F2700 E950.22329
G1 F2100 X97.162 Y100.239 E950.49619
G1 X97.169 Y100.238 E950.49972
G1 X97.169 Y100.785 E950.77262
G1 X97.161 Y100.786 E950.77664
G0 F10500 X97.361 Y100.585
G1 F2700 E945.77664
G0 F10500 X97.269 Y100.585
G0 X99.457 Y100.796
G0 X99.796 Y100.788
G1 F2700 E950.77664
G1 F2100 X99.638 Y100.788 E950.85547
G1 X99.639 Y100.238 E951.12987
G1 X99.796 Y100.239 E951.2082
G1 X99.796 Y100.788 E951.48209
G0 F10500 X99.837 Y100.789
G0 X100.786 Y100.786
G1 F2100 X100.238 Y100.787 E951.75549
G1 X100.238 Y100.238 E952.02939
G1 X100.787 Y100.238 E952.30329
G1 X100.786 Y100.786 E952.57668
G0 F10500 X100.61 Y100.61
;TYPE:SKIN
G1 F2100 X100.412 Y100.412 E952.64653
G0 F10500 X100.788 Y99.796
;TYPE:WALL-OUTER
G1 F2100 X100.238 Y99.795 E952.92093
G1 X100.238 Y99.639 E952.99876
G1 X100.789 Y99.637 E953.27366
G1 X100.788 Y99.796 E953.35298
G0 F10500 X100.788 Y99.837
G0 X99.796 Y99.796
G1 F2100 X99.641 Y99.795 E953.43031
G1 X99.638 Y99.638 E953.50866
G1 X99.796 Y99.639 E953.58748
G1 X99.796 Y99.796 E953.66581
G0 F10500 X99.841 Y99.793
G1 F2700 E948.66581
G0 F10500 X99.982 Y99.454
G0 X100.052 Y97.355
G0 X100.786 Y97.17
G1 F2700 E953.66581
G1 F2100 X100.238 Y97.169 E953.93921
G1 X100.238 Y97.161 E953.9432
G1 X100.785 Y97.162 E954.2161
G1 X100.786 Y97.17 E954.22012
G0 F10500 X100.585 Y96.97
G1 F2700 E949.22012
G0 F10500 X100.585 Y97.061
G0 X100.985 Y97.027
G0 X103.182 Y97.039
G0 X103.612 Y97.021
G1 F2700 E954.22012
G0 F10500 X103.613 Y96.891
G1 F2100 X104.526 Y96.89 E954.67562
G1 X104.525 Y97.171 E954.81581
G1 X103.061 Y97.171 E955.54621
G1 X103.063 Y96.863 E955.69987
G1 X103.062 Y96.619 E955.82161
G1 X103.612 Y96.619 E956.096
G1 X103.613 Y96.891 E956.2317
G0 F10500 X103.437 Y96.932
;TYPE:SKIN
G1 F2100 X103.299 Y96.793 E956.28056
G1 F2700 E951.28056
G0 F10500 X103.299 Y96.819
G0 X104.411 Y97.057
G0 X104.412 Y99.437
G0 X104.518 Y99.636
;TYPE:WALL-OUTER
G1 F2700 E956.28056
G1 F2100 X104.507 Y99.796 E956.36058
G1 X103.062 Y99.796 E957.08149
G1 X103.061 Y99.637 E957.16082
G1 X104.518 Y99.636 E957.88772
G0 F10500 X104.517 Y99.596
G0 X104.339 Y99.976
G0 X104.339 Y100.339
G0 X104.505 Y100.788
G1 F2100 X103.06 Y100.785 E958.60863
G1 X103.063 Y100.239 E958.88104
G1 X104.504 Y100.238 E959.59996
G1 X104.512 Y100.552 E959.75666
G1 X104.505 Y100.788 E959.87445
G0 F10500 X104.19 Y100.513
;TYPE:SKIN
G1 F2100 X103.907 Y100.513 E959.97238
G1 X103.34 Y100.511 E960.16857
G1 F2700 E955.16857
G0 F10500 X103.261 Y100.439
G0 X104.11 Y100.668
G0 X104.11 Y103.283
G0 X104.102 Y103.516
;TYPE:WALL-INNER
G1 F2700 E960.16857
G1 F2100 X103.584 Y103.579 E960.4289
G1 X103.508 Y104.169 E960.72569
G1 X103.459 Y104.168 E960.75014
G1 X103.462 Y103.947 E960.76828
G1 X103.463 Y103.463 E960.90299
G1 X104.101 Y103.463 E960.9938
G1 X104.102 Y103.516 E961.02024
G0 F10500 X103.941 Y103.939
;TYPE:WALL-OUTER
G1 F2100 X103.904 Y104.225 E961.16412
G1 X103.888 Y104.538 E961.32048
G1 X103.693 Y104.573 E961.41932
G1 X103.06 Y104.559 E961.7352
G1 X103.059 Y104.177 E961.92578
G1 X103.062 Y103.944 E962.04204
G1 X103.063 Y103.063 E962.48157
G1 X104.504 Y103.063 E963.20049
G1 X104.499 Y103.24 E963.28883
G1 X104.506 Y103.888 E963.61213
G1 X104.225 Y103.905 E963.75258
G1 X103.941 Y103.939 E963.89528
G0 F10500 X103.662 Y103.862
G1 F2700 E958.89528
G0 F10500 X103.65 Y103.861
G0 X103.277 Y103.277
G0 X103.275 Y102.198
G0 X102.203 Y101.637
G0 X101.643 Y98.78
G0 X100.149 Y98.782
G0 X98.034 Y97.054
G0 X97.056 Y97.056
G1 F2700 E963.89528
G0 F10500 X97.17 Y97.17
G1 F2100 X96.619 Y97.17 E964.17018
G1 X96.619 Y96.619 E964.44507
G1 X97.171 Y96.619 E964.72047
G1 X97.169 Y96.863 E964.8422
G1 X97.17 Y97.17 E964.99537
G0 F10500 X96.993 Y96.993
;TYPE:SKIN
G1 F2100 X96.793 Y96.793 E965.06592
G1 F2700 E960.06592
G0 F10500 X96.819 Y96.819
G0 X97.056 Y97.056
G0 X98.034 Y97.054
G0 X99.383 Y98.021
G0 X129.601 Y99.431
G0 X130.28 Y99.451
G0 X130.473 Y99.637
;TYPE:WALL-OUTER
G1 F2700 E965.06592
G1 F2100 X131.936 Y99.637 E965.79581
G1 X131.935 Y99.795 E965.87464
G1 X130.486 Y99.795 E966.59755
G1 X130.473 Y99.637 E966.67665
G0 F10500 X130.672 Y99.837
G0 X130.494 Y100.788
G1 F2100 X130.487 Y100.561 E966.78995
G1 X130.494 Y100.239 E966.95063
G1 X131.936 Y100.238 E967.67005
G1 X131.938 Y100.785 E967.94295
G1 X130.494 Y100.788 E968.66337
G0 F10500 X130.777 Y100.513
;TYPE:SKIN
G1 F2100 X131.059 Y100.512 E968.76118
G1 X131.624 Y100.511 E968.95714
G1 F2700 E963.95714
G0 F10500 X131.723 Y100.585
G0 X130.89 Y100.687
G0 X130.89 Y103.283
G0 X130.896 Y103.516
;TYPE:WALL-INNER
G1 F2700 E968.95714
G1 F2100 X130.896 Y103.463 E968.98358
G1 X131.537 Y103.463 E969.30338
G1 X131.536 Y103.946 E969.54435
G1 X131.539 Y104.168 E969.65511
G1 X131.492 Y104.169 E969.67857
G1 X131.412 Y103.587 E969.8344
G1 X130.896 Y103.516 E969.8689
G0 F10500 X131.057 Y103.942
;TYPE:WALL-OUTER
G1 F2100 X130.779 Y103.904 E970.00889
G1 X130.493 Y103.889 E970.15177
G1 X130.498 Y103.241 E970.47507
G1 X130.493 Y103.063 E970.56391
G1 X131.937 Y103.063 E971.28432
G1 X131.936 Y103.944 E971.72386
G1 X131.939 Y104.173 E971.83811
G1 X131.939 Y104.559 E972.03069
G1 X131.306 Y104.574 E972.34658
G1 X131.111 Y104.539 E972.44542
G1 X131.098 Y104.243 E972.59324
G1 X131.057 Y103.942 E972.7448
G0 F10500 X131.137 Y103.663
G1 F2700 E967.7448
G0 F10500 X131.139 Y103.651
G0 X131.719 Y104.173
G0 X134.33 Y104.179
G1 F2700 E972.7448
G0 F10500 X134.21 Y104.526
G1 F2100 X134.212 Y103.06 E973.47619
G1 X134.758 Y103.062 E973.74859
G1 X134.757 Y104.507 E974.46951
G1 X134.21 Y104.526 E974.74257
G0 F10500 X134.482 Y104.218
;TYPE:SKIN
G1 F2100 X134.482 Y103.935 E974.84047
G1 X134.483 Y103.37 E975.03594
G1 F2700 E970.03594
G0 F10500 X134.411 Y103.272
G0 X134.643 Y104.397
G0 X135.001 Y104.397
G0 X135.359 Y104.525
;TYPE:WALL-OUTER
G1 F2700 E975.03594
G1 F2100 X135.201 Y104.515 E975.11492
G1 X135.2 Y103.062 E975.83983
G1 X135.359 Y103.061 E975.91915
G1 X135.359 Y104.525 E976.64955
G0 F10500 X135.401 Y104.526
G1 F2700 E971.64955
G0 F10500 X135.539 Y103.612
G0 X137.948 Y103.612
G1 F2700 E976.64955
G0 F10500 X138.106 Y103.613
G1 F2100 X138.108 Y104.548 E977.11602
G1 X137.828 Y104.517 E977.25657
G1 X137.828 Y103.061 E977.98297
G1 X138.132 Y103.063 E978.13464
G1 X138.38 Y103.062 E978.25837
G1 X138.381 Y103.612 E978.53276
G1 X138.106 Y103.613 E978.66996
G0 F10500 X138.205 Y103.415
;TYPE:SKIN
G1 F2100 X138.027 Y103.237 E978.73276
G1 F2700 E973.73276
G0 F10500 X138.028 Y103.262
G0 X137.937 Y100.985
G0 X137.827 Y100.786
;TYPE:WALL-OUTER
G1 F2700 E978.73276
G1 F2100 X137.826 Y100.239 E979.00566
G1 X137.835 Y100.238 E979.01017
G1 X137.837 Y100.785 E979.28308
G1 X137.827 Y100.786 E979.28809
G0 F10500 X138.027 Y100.586
G1 F2700 E974.28809
G0 F10500 X137.936 Y100.585
G0 X137.627 Y100.787
G0 X135.559 Y100.791
G0 X135.36 Y100.789
G1 F2700 E979.28809
G1 F2100 X135.2 Y100.788 E979.36792
G1 X135.2 Y100.238 E979.64231
G1 X135.358 Y100.238 E979.72114
G1 X135.36 Y100.789 E979.99603
G0 F10500 X135.4 Y100.788
G0 X135.2 Y100.058
G0 X135.2 Y99.796
G1 F2100 X135.2 Y99.639 E980.07436
G1 X135.359 Y99.638 E980.15369
G1 X135.358 Y99.796 E980.23252
G1 X135.2 Y99.796 E980.31134
G0 F10500 X135.201 Y99.839
G0 X134.21 Y99.796
G1 F2100 X134.21 Y99.638 E980.39017
G1 X134.758 Y99.639 E980.66357
G1 X134.758 Y99.796 E980.7419
G1 X134.21 Y99.796 E981.0153
G0 F10500 X134.209 Y99.837
G0 X134.212 Y100.786
G1 F2100 X134.21 Y100.238 E981.2887
G1 X134.758 Y100.238 E981.56209
G1 X134.758 Y100.787 E981.83599
G1 X134.212 Y100.786 E982.10839
G0 F10500 X134.551 Y100.61
;TYPE:SKIN
G1 F2100 X134.384 Y100.443 E982.16731
G1 F2700 E977.16731
G0 F10500 X134.411 Y100.444
G0 X133.345 Y99.931
G0 X133.357 Y98.782
G0 X134.324 Y98.034
G0 X134.324 Y97.349
G0 X134.211 Y97.161
;TYPE:WALL-OUTER
G1 F2700 E982.16731
G1 F2100 X134.758 Y97.161 E982.44021
G1 X134.758 Y97.169 E982.4442
G1 X134.212 Y97.169 E982.7166
G1 X134.211 Y97.161 E982.72062
G0 F10500 X134.412 Y97.361
G1 F2700 E977.72062
G0 F10500 X134.412 Y97.269
G0 X134.025 Y96.975
G0 X131.818 Y96.961
G1 F2700 E982.72062
G0 F10500 X131.384 Y96.891
G1 F2100 X131.386 Y96.619 E982.85632
G1 X131.937 Y96.62 E983.13122
G1 X131.939 Y96.708 E983.17513
G1 X131.937 Y97.171 E983.40613
G1 X131.051 Y97.17 E983.84816
G1 X130.468 Y97.172 E984.13902
G1 X130.443 Y96.889 E984.28076
G1 X131.384 Y96.891 E984.75022
G0 F10500 X131.584 Y96.794
;TYPE:SKIN
G1 F2100 X131.762 Y96.972 E984.81302
G1 F2700 E979.81302
G0 F10500 X131.738 Y96.971
G0 X132.802 Y96.967
G0 X133.356 Y96.308
G0 X135.611 Y96.308
G0 X136.964 Y96.923
G0 X137.928 Y96.916
G1 F2700 E984.81302
G0 F10500 X137.829 Y97.17
;TYPE:WALL-OUTER
G1 F2100 X137.826 Y96.619 E985.08792
G1 X138.381 Y96.619 E985.36481
G1 X138.38 Y97.17 E985.6397
G1 X137.829 Y97.17 E985.9146
G0 F10500 X138.204 Y96.909
;TYPE:SKIN
G1 F2100 X138.089 Y96.794 E985.95517
G1 F2700 E980.95517
;MESH:NONMESH
G0 F300 X138.089 Y96.794 Z15.28
G0 F10500 X138.089 Y96.819
G0 X137.942 Y97.056
G0 X137.942 Y98.035
G0 X136.972 Y99.388
G0 X133.72 Y126.613
G0 X132.8 Y134.861
G0 X132.121 Y135.014
G0 X130.339 Y135.459
G1 F2700 E985.95517
G0 F10500 X128.828 Y136.166
;TIME_ELAPSED:262.783472
;LAYER:5
;TYPE:WALL-OUTER
;MESH:eiffel_final.stl
G1 F2100 X128.827 Y136.438 E986.09087
G1 X127.172 Y136.44 E986.91655
G1 X127.166 Y136.159 E987.05678
G1 X130.268 Y136.158 E988.60437
G1 X130.269 Y136.489 E988.76951
G1 X130.268 Y136.711 E988.88027
G1 X129.718 Y136.712 E989.15466
G1 X129.715 Y136.638 E989.19161
G1 X129.717 Y136.178 E989.42111
G1 X129.502 Y136.167 E989.52851
G1 X128.828 Y136.166 E989.86477
G0 F10500 X128.828 Y136.288
G0 X129.844 Y136.363
G0 X129.901 Y136.536
;TYPE:SKIN
G1 F2100 X130.093 Y136.344 E989.93251
G1 F2700 E984.93251
G0 F10500 X130.068 Y136.358
G0 X127.342 Y136.259
G0 X127.344 Y135.497
G1 F2700 E989.93251
G0 F10500 X127.144 Y135.616
;TYPE:WALL-OUTER
G1 F2100 X127.136 Y135.067 E990.20643
G1 X127.7 Y135.064 E990.48782
G1 X128.447 Y135.066 E990.8605
G1 X130.269 Y135.064 E991.7695
G1 X130.267 Y135.617 E992.04539
G1 X127.144 Y135.616 E993.60346
G0 F10500 X127.421 Y135.339
;TYPE:SKIN
G1 F2100 X127.704 Y135.338 E993.68542
G1 X129.966 Y135.339 E994.34051
G0 F10500 X130.067 Y135.265
G0 X130.153 Y135.503
G0 X130.827 Y135.505
G0 X131.007 Y135.617
;TYPE:WALL-OUTER
G1 F2100 X131.008 Y135.063 E994.6169
G1 X131.166 Y135.064 E994.69573
G1 X131.165 Y135.617 E994.97162
G1 X131.007 Y135.617 E995.05045
G0 F10500 X131.207 Y135.417
G1 F2700 E990.05045
G0 F10500 X132.031 Y135.441
G0 X134.201 Y135.435
G0 X135.165 Y135.431
G1 F2700 E995.05045
G0 F10500 X135.065 Y135.616
G1 F2100 X135.064 Y135.064 E995.32584
G1 X135.617 Y135.066 E995.60173
G1 X135.617 Y135.617 E995.87663
G1 X135.065 Y135.616 E996.15202
G0 F10500 X135.239 Y135.44
;TYPE:SKIN
G1 F2100 X135.44 Y135.239 E996.22293
G0 F10500 X135.417 Y135.265
G0 X135.179 Y135.502
G0 X135.179 Y135.959
G0 X135.065 Y136.168
;TYPE:WALL-OUTER
G1 F2100 X135.066 Y136.159 E996.22745
G1 X135.616 Y136.158 E996.50185
G1 X135.617 Y136.167 E996.50636
G1 X135.065 Y136.168 E996.78176
G0 F10500 X135.065 Y136.359
G0 X135.066 Y136.267
G0 X135.803 Y136.353
G0 X136.258 Y136.352
G0 X136.158 Y136.71
G1 F2100 X136.157 Y136.157 E997.05765
G1 X136.711 Y136.157 E997.33404
G1 X136.712 Y136.712 E997.61093
G1 X136.158 Y136.71 E997.88733
G0 F10500 X136.407 Y136.535
;TYPE:SKIN
G1 F2100 X136.535 Y136.407 E997.93248
G0 F10500 X136.165 Y135.617
;TYPE:WALL-OUTER
G1 F2100 X136.158 Y135.616 E997.93601
G1 X136.159 Y135.065 E998.21091
G1 X136.167 Y135.065 E998.2149
G1 X136.165 Y135.617 E998.49029
G0 F10500 X135.966 Y135.417
G1 F2700 E993.49029
G0 F10500 X136.058 Y135.417
G0 X135.973 Y134.881
G0 X135.966 Y134.203
G0 X135.805 Y132.03
G0 X135.803 Y131.352
G0 X135.063 Y131.167
G1 F2700 E998.49029
G1 F2100 X135.064 Y131.007 E998.57012
G1 X135.617 Y131.007 E998.84601
G1 X135.616 Y131.165 E998.92484
G1 X135.063 Y131.167 E999.20074
G0 F10500 X135.064 Y131.207
G0 X135.064 Y130.269
G1 F2100 X135.065 Y127.126 E1000.76878
G1 X135.617 Y127.145 E1001.04434
G1 X135.617 Y130.269 E1002.60291
G1 X135.064 Y130.269 E1002.8788
G0 F10500 X135.34 Y129.966
;TYPE:SKIN
G1 F2100 X135.34 Y129.683 E1002.96055
G1 X135.34 Y127.42 E1003.61419
G1 F2700 E998.61419
G0 F10500 X135.416 Y127.338
G0 X135.497 Y129.715
G0 X136.278 Y129.715
G1 F2700 E1003.61419
G0 F10500 X136.169 Y129.716
;TYPE:WALL-OUTER
G1 F2100 X136.515 Y129.714 E1003.78681
G1 X136.712 Y129.716 E1003.8851
G1 X136.71 Y130.267 E1004.15999
G1 X136.506 Y130.27 E1004.26178
G1 X136.158 Y130.268 E1004.4354
G1 X136.157 Y127.714 E1005.7096
G1 X136.158 Y127.121 E1006.00545
G1 X136.439 Y127.094 E1006.14628
G1 X136.438 Y128.826 E1007.01038
G1 X136.164 Y128.826 E1007.14708
G1 X136.169 Y129.716 E1007.59111
G0 F10500 X136.535 Y129.902
;TYPE:SKIN
G1 F2100 X136.342 Y130.094 E1007.65902
G1 F2700 E1002.65902
G0 F10500 X136.358 Y130.07
G0 X136.469 Y131.123
G0 X136.488 Y132.016
G0 X134.209 Y132.021
G0 X132.02 Y130.154
G0 X131.366 Y130.159
G0 X131.007 Y130.269
;TYPE:WALL-OUTER
G1 F2700 E1007.65902
G1 F2100 X131.008 Y127.101 E1009.23954
G1 X131.165 Y127.094 E1009.31795
G1 X131.167 Y127.699 E1009.61979
G1 X131.165 Y128.447 E1009.99297
G1 X131.167 Y130.269 E1010.90197
G1 X131.007 Y130.269 E1010.98179
G0 F10500 X131.207 Y130.069
G0 X131.007 Y130.449
G0 X131.007 Y130.827
G0 X131.007 Y131.167
G1 F2100 X131.008 Y131.007 E1011.06162
G1 X131.167 Y131.007 E1011.14094
G1 X131.166 Y131.166 E1011.22027
G1 X131.007 Y131.167 E1011.2996
G0 F10500 X131.008 Y131.207
G1 F2700 E1006.2996
G0 F10500 X130.821 Y130.821
G0 X130.155 Y130.155
G0 X129.885 Y129.715
G1 F2700 E1011.2996
G0 F10500 X129.687 Y129.687
G1 F2100 X129.736 Y129.315 E1011.48679
G1 X129.739 Y129.144 E1011.57212
G1 X129.736 Y127.16 E1012.56194
G1 X130.27 Y127.126 E1012.82889
G1 X130.267 Y129.586 E1014.05619
G1 X130.269 Y130.269 E1014.39694
G1 X128.161 Y130.267 E1015.44863
G1 X127.127 Y130.269 E1015.96449
G1 X127.161 Y129.735 E1016.23145
G1 X128.028 Y129.739 E1016.664
G1 X128.298 Y129.737 E1016.79871
G1 X128.833 Y129.74 E1017.06562
G1 X128.839 Y129.738 E1017.06878
G1 X129.147 Y129.74 E1017.22245
G1 X129.411 Y129.743 E1017.35416
G1 X129.687 Y129.687 E1017.49467
G0 F10500 X129.682 Y129.966
;TYPE:SKIN
G1 F2100 X129.363 Y130.001 E1017.58158
G1 X127.395 Y129.99 E1018.11455
G0 F10500 X127.34 Y130.072
G0 X129.839 Y130.069
G0 X129.965 Y129.966
G1 F2100 X129.969 Y129.679 E1018.19585
G1 X130.002 Y127.666 E1018.76608
G1 X129.991 Y127.394 E1018.84319
G1 F2700 E1013.84319
G0 F10500 X130.07 Y127.34
G0 X129.806 Y129.798
G0 X127.248 Y130.156
G0 X127.246 Y130.826
G0 X127.158 Y131.166
;TYPE:WALL-OUTER
G1 F2700 E1018.84319
G1 F2100 X127.154 Y131.006 E1018.92304
G1 X130.269 Y131.007 E1020.47712
G1 X130.268 Y131.167 E1020.55694
G1 X127.158 Y131.166 E1022.10853
G0 F10500 X127.359 Y130.966
G1 F2700 E1017.10853
G0 F10500 X126.963 Y130.819
G0 X126.228 Y130.773
G0 X108.771 Y130.809
G0 X108.035 Y130.855
G0 X107.845 Y131.166
G1 F2700 E1022.10853
G1 F2100 X107.297 Y131.167 E1022.38193
G1 X106.55 Y131.165 E1022.75461
G1 X104.729 Y131.167 E1023.66311
G1 X104.73 Y131.008 E1023.74244
G1 X105.411 Y131.006 E1024.08219
G1 X107.85 Y131.006 E1025.29901
G1 X107.845 Y131.166 E1025.37888
G0 F10500 X107.846 Y131.206
G1 F2700 E1020.37888
G0 F10500 X105.411 Y130.826
G0 X105.409 Y130.167
G0 X105.278 Y129.884
G1 F2700 E1025.37888
G0 F10500 X105.311 Y129.688
G1 F2100 X105.608 Y129.739 E1025.52922
G1 X107.838 Y129.736 E1026.64177
G1 X107.872 Y130.27 E1026.90872
G1 X105.412 Y130.267 E1028.13602
G1 X104.729 Y130.269 E1028.47678
G1 X104.729 Y127.127 E1030.04433
G1 X105.261 Y127.161 E1030.31028
G1 X105.259 Y128.029 E1030.74333
G1 X105.262 Y128.297 E1030.87705
G1 X105.258 Y129.119 E1031.28715
G1 X105.267 Y129.454 E1031.45434
G1 X105.311 Y129.688 E1031.57313
G0 F10500 X105.073 Y129.969
;TYPE:SKIN
G1 F2100 X105.013 Y129.745 E1031.63527
G1 X104.994 Y127.501 E1032.23659
G0 F10500 X105.061 Y127.411
G0 X105.128 Y129.469
G0 X105.191 Y129.769
G0 X105.434 Y129.911
G0 X105.335 Y129.989
G1 F2100 X105.605 Y130.002 E1032.30467
G1 X107.583 Y130.003 E1032.80284
G1 F2700 E1027.80284
G0 F10500 X107.647 Y129.937
G0 X104.843 Y130.155
G0 X104.172 Y130.153
G0 X103.991 Y130.269
;TYPE:WALL-OUTER
G1 F2700 E1032.80284
G1 F2100 X103.831 Y130.269 E1032.88266
G1 X103.832 Y127.096 E1034.46568
G1 X103.992 Y127.104 E1034.5456
G1 X103.991 Y130.269 E1036.12463
G0 F10500 X103.792 Y130.069
G0 X103.991 Y130.449
G0 X103.989 Y130.827
G0 X103.991 Y131.167
G1 F2100 X103.832 Y131.166 E1036.20395
G1 X103.831 Y131.007 E1036.28328
G1 X103.991 Y131.008 E1036.36311
G1 X103.991 Y131.167 E1036.44243
G0 F10500 X104.032 Y131.168
G1 F2700 E1031.44243
G0 F10500 X103.632 Y131.16
G0 X102.968 Y131.161
G0 X100.8 Y131.153
G0 X100.115 Y131.152
G0 X99.934 Y131.166
G1 F2700 E1036.44243
G1 F2100 X99.381 Y131.165 E1036.71832
G1 X99.381 Y131.007 E1036.79715
G1 X99.935 Y131.008 E1037.07354
G1 X99.934 Y131.166 E1037.15237
G0 F10500 X99.934 Y131.207
G0 X99.934 Y130.269
G1 F2100 X99.381 Y130.267 E1037.42827
G1 X99.383 Y127.714 E1038.70196
G1 X99.381 Y127.136 E1038.99033
G1 X99.933 Y127.12 E1039.26584
G1 X99.934 Y130.269 E1040.83688
G0 F10500 X99.666 Y130.001
;TYPE:SKIN
G1 F2100 X99.657 Y129.727 E1040.9145
G1 X99.657 Y127.464 E1041.55525
G1 F2700 E1036.55525
G0 F10500 X99.733 Y127.363
G0 X99.501 Y129.719
G0 X98.719 Y129.719
G1 F2700 E1041.55525
G0 F10500 X98.83 Y129.717
;TYPE:WALL-OUTER
G1 F2100 X98.831 Y128.828 E1041.99877
G1 X98.562 Y128.827 E1042.13298
G1 X98.559 Y127.092 E1042.99858
G1 X98.84 Y127.122 E1043.13956
G1 X98.839 Y130.268 E1044.70911
G1 X98.519 Y130.27 E1044.86876
G1 X98.288 Y130.268 E1044.98401
G1 X98.288 Y129.718 E1045.25841
G1 X98.367 Y129.715 E1045.29785
G1 X98.83 Y129.717 E1045.52884
G0 F10500 X98.647 Y129.889
;TYPE:SKIN
G1 F2100 X98.463 Y130.073 E1045.59376
G1 F2700 E1040.59376
G0 F10500 X98.488 Y130.07
G0 X98.725 Y130.155
G0 X98.528 Y131.122
G0 X98.528 Y131.628
G0 X98.694 Y134.199
G0 X98.689 Y134.884
G0 X98.83 Y135.617
;TYPE:WALL-OUTER
G1 F2700 E1045.59376
G1 F2100 X98.832 Y135.065 E1045.86915
G1 X98.84 Y135.066 E1045.87317
G1 X98.84 Y135.616 E1046.14757
G1 X98.83 Y135.617 E1046.15258
G0 F10500 X99.03 Y135.416
G0 X99.381 Y136.165
G1 F2100 X99.382 Y136.158 E1046.15611
G1 X99.932 Y136.159 E1046.43051
G1 X99.932 Y136.167 E1046.4345
G1 X99.381 Y136.165 E1046.7094
G0 F10500 X99.581 Y135.966
G0 X99.581 Y136.058
G0 X99.194 Y136.353
G0 X98.719 Y136.35
G0 X98.838 Y136.71
G1 F2100 X98.288 Y136.712 E1046.98379
G1 X98.288 Y136.158 E1047.26019
G1 X98.839 Y136.157 E1047.53508
G1 X98.838 Y136.71 E1047.81097
G0 F10500 X98.507 Y136.535
;TYPE:SKIN
G1 F2100 X98.663 Y136.378 E1047.86618
G0 F10500 X98.639 Y136.378
G0 X99.495 Y135.503
G0 X99.761 Y135.417
G0 X99.93 Y135.617
;TYPE:WALL-OUTER
G1 F2100 X99.381 Y135.617 E1048.14008
G1 X99.382 Y135.065 E1048.41548
G1 X99.934 Y135.064 E1048.69087
G1 X99.93 Y135.617 E1048.96677
G0 F10500 X99.6 Y135.441
;TYPE:SKIN
G1 F2100 X99.756 Y135.285 E1049.0218
G1 F2700 E1044.0218
G0 F10500 X99.733 Y135.285
G0 X100.796 Y135.509
G0 X102.968 Y135.498
G0 X103.633 Y135.496
G0 X103.993 Y135.617
;TYPE:WALL-OUTER
G1 F2700 E1049.0218
G1 F2100 X103.833 Y135.617 E1049.10163
G1 X103.831 Y135.063 E1049.37802
G1 X103.991 Y135.064 E1049.45785
G1 X103.993 Y135.617 E1049.73374
G0 F10500 X104.033 Y135.617
G1 F2700 E1044.73374
G0 F10500 X104.843 Y136.272
G0 X106.173 Y136.289
G1 F2700 E1049.73374
G0 F10500 X106.171 Y136.164
G1 F2100 X105.28 Y136.169 E1050.17827
G1 X105.28 Y136.712 E1050.44917
G1 X104.731 Y136.71 E1050.72307
G1 X104.728 Y136.508 E1050.82386
G1 X104.729 Y136.158 E1050.99848
G1 X107.883 Y136.158 E1052.57202
G1 X107.907 Y136.439 E1052.71272
G1 X106.171 Y136.438 E1053.57881
G1 X106.171 Y136.164 E1053.71551
G0 F10500 X106.172 Y136.289
G0 X105.152 Y136.342
G0 X105.058 Y136.489
;TYPE:SKIN
G1 F2100 X104.917 Y136.346 E1053.75834
G1 F2700 E1048.75834
G0 F10500 X104.932 Y136.358
G0 X107.676 Y136.278
G0 X107.678 Y135.498
G1 F2700 E1053.75834
G0 F10500 X107.844 Y135.618
;TYPE:WALL-OUTER
G1 F2100 X104.728 Y135.617 E1055.31292
G1 X104.729 Y135.064 E1055.58881
G1 X107.856 Y135.067 E1057.14888
G1 X107.852 Y135.174 E1057.2023
G1 X107.844 Y135.618 E1057.42385
G0 F10500 X107.596 Y135.364
;TYPE:SKIN
G1 F2100 X107.337 Y135.341 E1057.49462
G1 X105.075 Y135.34 E1058.11028
G1 F2700 E1053.11028
G0 F10500 X104.974 Y135.418
G0 X104.865 Y135.184
G0 X104.865 Y134.199
G0 X102.98 Y132.018
G0 X102.98 Y126.202
G0 X104.902 Y108.727
G0 X104.841 Y107.751
G1 F2700 E1058.11028
G0 F10500 X104.728 Y107.872
;TYPE:WALL-OUTER
G1 F2100 X104.729 Y104.729 E1059.67833
G1 X107.871 Y104.728 E1061.24588
G1 X107.837 Y105.261 E1061.51233
G1 X106.969 Y105.259 E1061.94538
G1 X106.698 Y105.262 E1062.08059
G1 X105.986 Y105.258 E1062.43582
G1 X105.627 Y105.265 E1062.61496
G1 X105.311 Y105.311 E1062.77427
G1 X105.262 Y105.745 E1062.99217
G1 X105.258 Y105.883 E1063.06105
G1 X105.261 Y106.698 E1063.46766
G1 X105.261 Y107.839 E1064.0369
G1 X104.728 Y107.872 E1064.30333
G0 F10500 X105.052 Y107.644
;TYPE:SKIN
G1 F2100 X104.994 Y107.419 E1064.35484
G1 X105.019 Y105.414 E1064.79936
G1 X105.414 Y105.019 E1064.9232
G1 X107.42 Y104.994 E1065.36795
G1 X107.643 Y105.053 E1065.41908
G0 F10500 X107.611 Y105.061
G0 X105.247 Y104.929
G0 X105.075 Y105.075
G1 F2100 X104.934 Y104.934 E1065.56256
G1 F2700 E1060.56256
G0 F10500 X104.964 Y104.929
G0 X104.841 Y107.751
G0 X104.191 Y107.751
G0 X103.832 Y107.903
;TYPE:WALL-OUTER
G1 F2700 E1065.56256
G1 F2100 X103.831 Y104.729 E1067.14608
G1 X103.991 Y104.729 E1067.2259
G1 X103.992 Y107.897 E1068.80642
G1 X103.832 Y107.903 E1068.8863
G0 F10500 X104.032 Y107.703
G1 F2700 E1063.8863
G0 F10500 X103.632 Y107.665
G0 X102.967 Y107.666
G0 X100.799 Y107.662
G0 X99.814 Y107.662
G1 F2700 E1068.8863
G0 F10500 X99.933 Y107.872
G1 F2100 X99.381 Y107.853 E1069.16186
G1 X99.382 Y104.728 E1070.72093
G1 X99.934 Y104.729 E1070.99632
G1 X99.933 Y107.872 E1072.56437
G0 F10500 X99.697 Y107.625
;TYPE:SKIN
G1 F2100 X99.656 Y107.383 E1072.62767
G1 X99.657 Y105.12 E1073.21126
G1 X99.574 Y104.92 E1073.2671
G0 F10500 X99.581 Y104.938
G0 X99.501 Y106.174
G0 X99.026 Y105.952
G0 X98.712 Y106.172
G0 X98.832 Y106.171
;TYPE:WALL-OUTER
G1 F2100 X98.831 Y105.281 E1073.71112
G1 X98.487 Y105.283 E1073.88275
G1 X98.288 Y105.28 E1073.98204
G1 X98.289 Y104.731 E1074.25594
G1 X98.493 Y104.728 E1074.35772
G1 X98.841 Y104.729 E1074.53134
G1 X98.839 Y107.839 E1076.08293
G1 X98.56 Y107.828 E1076.22223
G1 X98.558 Y107.094 E1076.58843
G1 X98.561 Y106.171 E1077.04891
G1 X98.832 Y106.171 E1077.18412
G0 F10500 X98.712 Y106.171
G0 X98.659 Y105.158
G0 X98.539 Y105.107
;TYPE:SKIN
G1 F2100 X98.666 Y104.98 E1077.22892
G1 F2700 E1072.22892
G0 F10500 X98.641 Y104.98
G0 X99.195 Y104.179
G0 X99.934 Y103.991
;TYPE:WALL-OUTER
G1 F2700 E1077.22892
G1 F2100 X99.381 Y103.993 E1077.50481
G1 X99.381 Y103.833 E1077.58464
G1 X99.935 Y103.831 E1077.86103
G1 X99.934 Y103.991 E1077.94086
G0 F10500 X99.934 Y104.032
G1 F2700 E1072.94086
G0 F10500 X100.799 Y103.983
G0 X102.966 Y103.991
G0 X103.651 Y103.991
G0 X103.991 Y103.991
G1 F2700 E1077.94086
G1 F2100 X103.831 Y103.99 E1078.02068
G1 X103.832 Y103.832 E1078.09951
G1 X103.991 Y103.831 E1078.17884
G1 X103.991 Y103.991 E1078.25866
G0 F10500 X104.031 Y103.991
G1 F2700 E1073.25866
G0 F10500 X104.549 Y103.992
G0 X107.844 Y103.992
G1 F2700 E1078.25866
G1 F2100 X104.729 Y103.991 E1079.81274
G1 X104.729 Y103.831 E1079.89257
G1 X107.84 Y103.832 E1081.44465
G1 X107.844 Y103.992 E1081.5245
G0 F10500 X107.643 Y103.792
G1 F2700 E1076.5245
G0 F10500 X104.897 Y103.651
G0 X104.897 Y102.966
G0 X104.841 Y100.786
G0 X104.843 Y99.819
G1 F2700 E1081.5245
G0 F10500 X104.729 Y99.933
G1 F2100 X104.728 Y99.381 E1081.7999
G1 X106.902 Y99.383 E1082.88451
G1 X107.852 Y99.381 E1083.35847
G1 X107.86 Y99.932 E1083.63339
G1 X104.729 Y99.933 E1085.19545
G0 F10500 X105.12 Y99.656
;TYPE:SKIN
G1 F2100 X105.403 Y99.656 E1085.27461
G1 X107.383 Y99.656 E1085.82839
G1 X107.622 Y99.7 E1085.89636
G0 F10500 X107.566 Y99.732
G0 X104.938 Y99.581
G0 X104.938 Y99.556
G1 F2100 X104.902 Y99.592 E1085.90906
G0 F10500 X103.991 Y99.935
;TYPE:WALL-OUTER
G1 F2100 X103.832 Y99.934 E1085.98839
G1 X103.833 Y99.381 E1086.26428
G1 X103.992 Y99.382 E1086.34361
G1 X103.991 Y99.935 E1086.6195
G0 F10500 X104.032 Y99.934
G1 F2700 E1081.6195
G0 F10500 X104.179 Y99.195
G0 X104.844 Y98.726
G0 X106.169 Y98.712
G1 F2700 E1086.6195
G0 F10500 X106.169 Y98.831
G1 F2100 X106.17 Y98.562 E1086.75371
G1 X107.908 Y98.559 E1087.6208
G1 X107.883 Y98.841 E1087.76204
G1 X106.903 Y98.839 E1088.25097
G1 X104.73 Y98.84 E1089.33508
G1 X104.731 Y98.288 E1089.61048
G1 X105.28 Y98.288 E1089.88437
G1 X105.28 Y98.83 E1090.15478
G1 X106.169 Y98.831 E1090.5983
G0 F10500 X106.169 Y98.712
G0 X105.152 Y98.658
G0 X105.104 Y98.542
;TYPE:SKIN
G1 F2100 X104.981 Y98.665 E1090.64169
G1 F2700 E1085.64169
G0 F10500 X104.981 Y98.64
G0 X103.877 Y98.527
G0 X103.37 Y98.527
G0 X100.799 Y98.675
G0 X100.114 Y98.667
G0 X99.932 Y98.832
;TYPE:WALL-OUTER
G1 F2700 E1090.64169
G1 F2100 X99.931 Y98.84 E1090.64572
G1 X99.382 Y98.84 E1090.91961
G1 X99.381 Y98.83 E1090.92463
G1 X99.932 Y98.832 E1091.19952
G0 F10500 X99.732 Y99.031
G0 X98.839 Y98.839
G1 F2100 X98.288 Y98.838 E1091.47442
G1 X98.288 Y98.288 E1091.74882
G1 X98.838 Y98.288 E1092.02321
G1 X98.839 Y98.839 E1092.29811
G0 F10500 X98.478 Y98.663
;TYPE:SKIN
G1 F2100 X98.662 Y98.478 E1092.3632
G0 F10500 X98.638 Y98.488
G0 X98.725 Y98.725
G0 X98.722 Y99.201
G0 X98.84 Y99.932
;TYPE:WALL-OUTER
G1 F2100 X98.832 Y99.932 E1092.36719
G1 X98.831 Y99.381 E1092.64208
G1 X98.84 Y99.382 E1092.6466
G1 X98.84 Y99.932 E1092.921
G0 F10500 X98.64 Y99.731
G0 X98.732 Y99.732
G0 X99.02 Y99.762
G0 X99.501 Y99.762
G0 X99.934 Y99.934
G1 F2100 X99.381 Y99.93 E1093.1969
G1 X99.381 Y99.381 E1093.47079
G1 X99.931 Y99.382 E1093.74519
G1 X99.934 Y99.934 E1094.02059
G0 F10500 X99.756 Y99.647
;TYPE:SKIN
G1 F2100 X99.646 Y99.757 E1094.05939
G1 F2700 E1089.05939
G0 F10500 X99.646 Y99.732
G0 X100.798 Y99.814
G0 X102.978 Y100.786
G0 X108.726 Y100.785
G0 X126.282 Y99.809
G0 X127.266 Y99.83
G1 F2700 E1094.05939
G0 F10500 X127.142 Y99.932
;TYPE:WALL-OUTER
G1 F2100 X127.146 Y99.827 E1094.11182
G1 X127.154 Y99.381 E1094.33436
G1 X130.269 Y99.382 E1095.88844
G1 X130.269 Y99.933 E1096.16334
G1 X127.142 Y99.932 E1097.7234
G0 F10500 X127.465 Y99.656
;TYPE:SKIN
G1 F2100 X127.748 Y99.656 E1097.80463
G1 X130.001 Y99.666 E1098.45127
G0 F10500 X130.069 Y99.581
G0 X128.823 Y99.501
G0 X129.045 Y99.026
G0 X128.825 Y98.711
G0 X128.826 Y98.832
;TYPE:WALL-OUTER
G1 F2100 X129.453 Y98.831 E1098.76408
G1 X129.463 Y98.829 E1098.76917
G1 X129.716 Y98.833 E1098.8954
G1 X129.717 Y98.288 E1099.16731
G1 X130.267 Y98.289 E1099.4417
G1 X130.27 Y98.489 E1099.5415
G1 X130.268 Y98.839 E1099.71611
G1 X127.166 Y98.84 E1101.26371
G1 X127.172 Y98.559 E1101.40393
G1 X127.903 Y98.558 E1101.76863
G1 X128.826 Y98.561 E1102.22912
G1 X128.826 Y98.832 E1102.36432
G0 F10500 X128.825 Y98.711
G0 X129.887 Y98.707
G0 X129.891 Y98.645
;TYPE:SKIN
G1 F2100 X130.073 Y98.463 E1102.42853
G1 F2700 E1097.42853
G0 F10500 X130.07 Y98.488
G0 X130.155 Y98.725
G0 X130.821 Y99.195
G0 X131.167 Y99.935
;TYPE:WALL-OUTER
G1 F2700 E1102.42853
G1 F2100 X131.007 Y99.934 E1102.50835
G1 X131.007 Y99.381 E1102.78424
G1 X131.165 Y99.381 E1102.86307
G1 X131.167 Y99.935 E1103.13946
G0 F10500 X131.207 Y99.934
G1 F2700 E1098.13946
G0 F10500 X131.366 Y99.74
G0 X132.031 Y99.738
G0 X134.199 Y99.759
G0 X135.184 Y99.763
G1 F2700 E1103.13946
G0 F10500 X135.064 Y99.934
G1 F2100 X135.066 Y99.381 E1103.41536
G1 X135.617 Y99.382 E1103.69025
G1 X135.616 Y99.931 E1103.96415
G1 X135.064 Y99.934 E1104.23955
G0 F10500 X135.284 Y99.757
;TYPE:SKIN
G1 F2100 X135.44 Y99.601 E1104.29458
G0 F10500 X136.168 Y99.932
;TYPE:WALL-OUTER
G1 F2100 X136.159 Y99.931 E1104.2991
G1 X136.158 Y99.382 E1104.573
G1 X136.167 Y99.381 E1104.57752
G1 X136.168 Y99.932 E1104.85241
G0 F10500 X136.359 Y99.932
G0 X136.267 Y99.931
G0 X136.329 Y99.182
G0 X136.327 Y98.739
G0 X136.157 Y98.84
G1 F2100 X136.158 Y98.289 E1105.12731
G1 X136.712 Y98.288 E1105.4037
G1 X136.711 Y98.838 E1105.6781
G1 X136.157 Y98.84 E1105.95449
G0 F10500 X136.378 Y98.664
;TYPE:SKIN
G1 F2100 X136.535 Y98.506 E1106.01005
G0 F10500 X135.617 Y98.831
;TYPE:WALL-OUTER
G1 F2100 X135.616 Y98.84 E1106.01457
G1 X135.065 Y98.84 E1106.28947
G1 X135.065 Y98.832 E1106.29346
G1 X135.617 Y98.831 E1106.56885
G0 F10500 X135.417 Y99.032
G1 F2700 E1101.56885
G0 F10500 X135.417 Y98.94
G0 X135.063 Y99.02
G0 X134.203 Y99.1
G0 X134.207 Y100.791
G0 X135.057 Y102.967
G0 X135.057 Y103.652
G0 X135.063 Y103.991
G1 F2700 E1106.56885
G1 F2100 X135.064 Y103.832 E1106.64818
G1 X135.617 Y103.833 E1106.92407
G1 X135.617 Y103.992 E1107.0034
G1 X135.063 Y103.991 E1107.27979
G0 F10500 X135.064 Y104.032
G1 F2700 E1102.27979
G0 F10500 X135.803 Y104.179
G0 X136.272 Y104.844
G0 X136.288 Y106.167
G1 F2700 E1107.27979
G0 F10500 X136.167 Y106.166
G1 F2100 X136.438 Y106.169 E1107.415
G1 X136.439 Y107.093 E1107.87599
G1 X136.437 Y107.828 E1108.24268
G1 X136.159 Y107.84 E1108.3815
G1 X136.158 Y104.73 E1109.93309
G1 X136.711 Y104.731 E1110.20898
G1 X136.712 Y105.281 E1110.48338
G1 X136.167 Y105.284 E1110.75528
G1 X136.167 Y106.166 E1111.19532
G0 F10500 X136.288 Y106.166
G0 X136.339 Y105.155
G0 X136.439 Y105.107
;TYPE:SKIN
G1 F2100 X136.535 Y105.011 E1111.22918
G1 F2700 E1106.22918
G0 F10500 X136.511 Y105.01
G0 X136.259 Y107.672
G0 X135.497 Y107.672
G0 X135.234 Y107.672
G1 F2700 E1111.22918
G0 F10500 X135.065 Y107.878
;TYPE:WALL-OUTER
G1 F2100 X135.064 Y107.297 E1111.51905
G1 X135.066 Y106.55 E1111.89173
G1 X135.064 Y104.729 E1112.80023
G1 X135.617 Y104.728 E1113.07612
G1 X135.617 Y107.862 E1114.63968
G1 X135.065 Y107.878 E1114.91519
G0 F10500 X135.352 Y107.608
;TYPE:SKIN
G1 F2100 X135.34 Y107.338 E1114.9922
G1 X135.34 Y105.075 E1115.63701
G1 F2700 E1110.63701
G0 F10500 X135.417 Y104.974
G0 X135.186 Y106.55
G0 X134.201 Y106.548
G0 X132.032 Y106.547
G0 X131.347 Y106.547
G0 X131.164 Y107.901
;TYPE:WALL-OUTER
G1 F2700 E1115.63701
G1 F2100 X131.008 Y107.894 E1115.71492
G1 X131.006 Y106.838 E1116.24176
G1 X131.007 Y104.729 E1117.29395
G1 X131.167 Y104.729 E1117.37377
G1 X131.164 Y107.901 E1118.95629
G0 F10500 X130.965 Y107.701
G0 X130.27 Y107.871
G1 F2100 X129.735 Y107.837 E1119.22374
G1 X129.739 Y106.97 E1119.65629
G1 X129.737 Y106.7 E1119.791
G1 X129.74 Y106.165 E1120.05792
G1 X129.738 Y105.782 E1120.249
G1 X129.688 Y105.311 E1120.4853
G1 X129.389 Y105.262 E1120.63646
G1 X129.116 Y105.258 E1120.77268
G1 X128.298 Y105.261 E1121.18078
G1 X127.159 Y105.261 E1121.74903
G1 X127.126 Y104.728 E1122.01546
G1 X130.268 Y104.729 E1123.58301
G1 X130.27 Y107.871 E1125.15056
G0 F10500 X130.003 Y107.583
;TYPE:SKIN
G1 F2100 X130.002 Y107.302 E1125.22276
G1 X129.971 Y105.07 E1125.79634
G1 X129.199 Y104.992 E1125.99572
G1 X127.501 Y104.993 E1126.43203
G1 F2700 E1121.43203
G0 F10500 X127.41 Y105.061
G0 X130.154 Y104.843
G0 X130.821 Y104.177
G0 X131.167 Y103.991
;TYPE:WALL-OUTER
G1 F2700 E1126.43203
G1 F2100 X131.007 Y103.99 E1126.51185
G1 X131.007 Y103.831 E1126.59118
G1 X131.166 Y103.832 E1126.67051
G1 X131.167 Y103.991 E1126.74983
G0 F10500 X131.207 Y103.99
G1 F2700 E1121.74983
G0 F10500 X130.827 Y103.992
G0 X130.449 Y103.99
G0 X127.148 Y103.992
G1 F2700 E1126.74983
G1 F2100 X127.153 Y103.832 E1126.8297
G1 X130.269 Y103.831 E1128.38428
G1 X130.268 Y103.99 E1128.4636
G1 X129.587 Y103.992 E1128.80336
G1 X127.148 Y103.992 E1130.02018
G0 F10500 X127.147 Y104.032
G1 F2700 E1125.02018
;MESH:NONMESH
G0 F300 X127.147 Y104.032 Z18.28
G0 F10500 X126.229 Y104.224
G0 X123.698 Y134.767
;TIME_ELAPSED:306.125902
;LAYER:6
;TYPE:WALL-OUTER
;MESH:eiffel_final.stl
G1 F2700 E1130.02018
G1 F2100 X120.968 Y134.767 E1131.38218
G1 X118.746 Y134.77 E1132.49074
G1 X113.149 Y134.769 E1135.2831
G1 X112.861 Y134.771 E1135.42679
G1 X111.301 Y134.768 E1136.20507
G1 X111.301 Y134.487 E1136.34527
G1 X122.042 Y134.49 E1141.70397
G1 X123.697 Y134.487 E1142.52966
G1 X123.698 Y134.767 E1142.66935
G1 F2700 E1137.66935
G0 F10500 X123.526 Y134.617
G0 X124.562 Y134.651
G0 X126.817 Y135.343
G0 X127.195 Y135.347
G0 X128.169 Y134.693
G1 F2700 E1142.66935
G0 F10500 X127.719 Y134.49
G1 F2100 X127.766 Y134.488 E1142.69282
G1 X128.6 Y134.488 E1143.1089
G1 X128.597 Y135.003 E1143.36584
G1 X128.599 Y135.042 E1143.38533
G1 X128.049 Y135.042 E1143.65972
G1 X128.047 Y134.955 E1143.70314
G1 X128.05 Y134.531 E1143.91468
G1 X127.795 Y134.496 E1144.04309
G1 X127.719 Y134.49 E1144.08112
G0 F10500 X128.223 Y134.728
;TYPE:SKIN
G1 F2100 X128.361 Y134.866 E1144.12981
G1 F2700 E1139.12981
G0 F10500 X128.361 Y134.842
G0 X128.164 Y134.602
G0 X128.145 Y133.202
G0 X127.668 Y133.022
;TYPE:WALL-OUTER
G1 F2700 E1144.12981
G1 F2100 X127.689 Y132.863 E1144.20982
G1 X127.698 Y132.861 E1144.21442
G1 X128.6 Y132.862 E1144.66443
G1 X128.601 Y133.021 E1144.74376
G1 X128.205 Y133.023 E1144.94133
G1 X128.151 Y133.021 E1144.96829
G1 X127.668 Y133.022 E1145.20926
G0 F10500 X127.868 Y132.822
G1 F2700 E1140.20926
G0 F10500 X128.8 Y133.023
G0 X129.693 Y133.026
G0 X129.873 Y133.022
G1 F2700 E1145.20926
G1 F2100 X129.874 Y132.861 E1145.28958
G1 X130.422 Y132.862 E1145.56298
G1 X130.422 Y133.021 E1145.6423
G1 X129.873 Y133.022 E1145.9162
G0 F10500 X129.874 Y133.061
G0 X129.872 Y134.309
G0 X129.873 Y134.497
G1 F2100 X129.874 Y134.489 E1145.92022
G1 X130.422 Y134.489 E1146.19362
G1 X130.422 Y134.499 E1146.19861
G1 X129.873 Y134.497 E1146.47251
G0 F10500 X130.073 Y134.298
G1 F2700 E1141.47251
G0 F10500 X130.073 Y134.389
G0 X130.608 Y134.303
G0 X132.675 Y133.207
G0 X132.861 Y133.021
G1 F2700 E1146.47251
G1 F2100 X132.862 Y132.863 E1146.55134
G1 X133.021 Y132.863 E1146.63066
G1 X133.021 Y133.021 E1146.70949
G1 X132.861 Y133.021 E1146.78932
G0 F10500 X132.86 Y133.062
G1 F2700 E1141.78932
G0 F10500 X133.207 Y133.207
G0 X134.602 Y134.602
G1 F2700 E1146.78932
G0 F10500 X134.489 Y135.043
G1 F2100 X134.488 Y134.488 E1147.06621
G1 X135.042 Y134.489 E1147.3426
G1 X135.043 Y135.043 E1147.61899
G1 X134.489 Y135.043 E1147.89538
G0 F10500 X134.867 Y134.867
;TYPE:SKIN
G1 F2100 X134.662 Y134.662 E1147.9677
G1 F2700 E1142.9677
G0 F10500 X134.689 Y134.688
G0 X134.602 Y133.623
G0 X134.612 Y131.288
G0 X134.613 Y130.602
G0 X134.499 Y130.422
;TYPE:WALL-OUTER
G1 F2700 E1147.9677
G1 F2100 X134.487 Y130.226 E1148.06567
G1 X134.488 Y129.874 E1148.24128
