;FLAVOR:Marlin
;TIME:1191
;Filament used: 10.4249m
;Layer height: 3
;MINX:102.275
;MINY:59.406
;MINZ:0.28
;MAXX:132.782
;MAXY:175.431
;MAXZ:132.28
;Generated with Cura_SteamEngine master
M140 S50
M105
M190 S50
M104 S200
M105
M109 S200
M82 ;absolute extrusion mode
; Ender 3 Custom Start G-code
G92 E0 ; Reset Extruder
G28 ; Home all axes
G1 Z2.0 F3000 ; Move Z Axis up little to prevent scratching of Heat Bed
G1 X0.1 Y20 Z0.3 F5000.0 ; Move to start position
G1 X0.1 Y200.0 Z0.3 F1500.0 E15 ; Draw the first line
G1 X0.4 Y200.0 Z0.3 F5000.0 ; Move to side a little
G1 X0.4 Y20 Z0.3 F1500.0 E30 ; Draw the second line
G92 E0 ; Reset Extruder
G1 Z2.0 F3000 ; Move Z Axis up little to prevent scratching of Heat Bed
G1 X5 Y20 Z0.3 F5000.0 ; Move over to prevent blob squish
G92 E0
G92 E0
G1 F2700 E-5
;LAYER_COUNT:45
;LAYER:0
M107
;MESH:Boat.stl
G0 F6000 X117.437 Y120.479 Z0.28
;TYPE:WALL-OUTER
G1 F2700 E0
G1 F600 X117.42 Y117.978 E0.11646
G1 X117.39 Y116.537 E0.18357
G1 X117.393 Y115.314 E0.24052
G1 X117.547 Y116.111 E0.27832
G1 X117.65 Y117.975 E0.36525
G1 X117.622 Y118.849 E0.40597
G1 X117.593 Y120.213 E0.46949
G1 X117.486 Y120.213 E0.47448
G1 X117.437 Y120.479 E0.48707
G1 F2700 E-4.51293
;MESH:NONMESH
G0 F300 X117.437 Y120.479 Z3.28
G0 F6000 X118.199 Y121.068
G0 X117.599 Y155.667
;TIME_ELAPSED:6.877745
;LAYER:1
M106 S85
;TYPE:WALL-OUTER
;MESH:Boat.stl
G1 F2700 E0.48707
G1 F917.1 X117.596 Y155.467 E0.58686
G1 X117.427 Y150.917 E2.85843
G1 X117.359 Y146.873 E4.87628
G1 X117.362 Y146.024 E5.29985
G1 X117.369 Y138.343 E9.13191
G1 X117.363 Y136.751 E9.92617
G1 X117.181 Y129.672 E13.45907
G1 X117.138 Y127.044 E14.77036
G1 X117.18 Y120.958 E17.80675
G1 X117.197 Y117.979 E19.293
G1 X117.072 Y113.842 E21.3579
G1 X117.021 Y112.004 E22.27523
G1 X117.306 Y105.365 E25.5905
G1 X117.33 Y105.205 E25.67121
G1 X117.461 Y104.72 E25.92185
G1 X117.661 Y104.719 E26.02163
G1 X117.79 Y105.2 E26.27009
G1 X117.805 Y105.373 E26.35672
G1 X117.75 Y110.546 E28.93769
G1 X117.732 Y111.963 E29.64469
G1 X117.827 Y115.924 E31.62141
G1 X117.89 Y118.014 E32.66459
G1 X117.851 Y124.219 E35.76033
G1 X117.825 Y127.046 E37.17079
G1 X118.129 Y135.607 E41.44458
G1 X118.145 Y136.779 E42.02935
G1 X117.93 Y144.987 E46.12574
G1 X117.926 Y146.024 E46.64311
G1 X117.976 Y149.444 E48.34953
G1 X117.911 Y150.8 E49.02682
G1 X117.734 Y155.463 E51.35488
G1 X117.72 Y155.659 E51.45291
G1 X117.599 Y155.667 E51.51341
G0 F8250 X117.665 Y154.535
G0 X117.562 Y151.61
G0 X117.681 Y151.584
;TYPE:SKIN
G1 F917.1 X117.667 Y151.315 E51.62095
G1 X117.673 Y148.481 E52.75241
G1 X117.646 Y145.114 E54.0967
G1 X117.736 Y138.518 E56.73034
G1 X117.732 Y135.693 E57.8582
G1 X117.547 Y129.656 E60.26956
G1 X117.484 Y126.607 E61.48711
G1 X117.528 Y120.34 E63.98922
G1 X117.528 Y117.512 E65.11827
G1 X117.382 Y112.284 E67.20633
G1 X117.475 Y108.232 E68.82448
G1 X117.546 Y105.615 E69.86968
G0 F8250 X117.478 Y105.401
G1 F917.1 X117.619 Y105.26 E69.91942
G1 F2700 E64.91942
;MESH:NONMESH
G0 F300 X117.619 Y105.26 Z6.28
G0 F8250 X117.645 Y105.224
G0 X117.603 Y110.683
G0 X117.665 Y154.615
G0 X116.701 Y154.651
G0 X116.748 Y156.208
G0 X117.466 Y165.646
;TIME_ELAPSED:18.820022
;LAYER:2
M106 S170
;TYPE:WALL-OUTER
;MESH:Boat.stl
G1 F2700 E69.91942
G1 F2100 X117.246 Y165.333 E70.11029
G1 X117.287 Y164.578 E70.48752
G1 X117.288 Y164.311 E70.62073
G1 X117.276 Y162.727 E71.41101
G1 X117.27 Y162.665 E71.44209
G1 X117.864 Y162.665 E71.73843
G1 X117.833 Y164.092 E72.45054
G1 X117.813 Y164.352 E72.58063
G1 X117.841 Y165.458 E73.1326
G1 X117.675 Y165.646 E73.25772
G1 X117.466 Y165.646 E73.36199
G0 F10500 X117.528 Y165.329
;TYPE:SKIN
G1 F2100 X117.55 Y165.067 E73.4381
G1 X117.564 Y163.102 E74.00695
G1 X117.633 Y162.888 E74.07204
G1 F2700 E69.07204
G0 F10500 X117.659 Y162.937
G0 X117.39 Y162.779
G0 X117.389 Y161.6
G0 X117.316 Y161.401
;TYPE:WALL-INNER
G1 F2700 E74.07204
G1 F2100 X117.329 Y160.13 E74.70618
G1 X117.355 Y159.4 E75.07061
G1 X117.456 Y156.456 E76.54024
G1 X117.504 Y155.095 E77.21967
G1 X117.5 Y154.803 E77.36536
G1 X115.873 Y152.655 E78.70972
G1 X114.983 Y150.955 E79.66705
G1 X113.674 Y146.522 E81.97309
G1 X112.961 Y142.818 E83.85495
G1 X112.626 Y140.844 E84.85386
G1 X112.008 Y135.231 E87.67112
G1 X111.933 Y134.441 E88.06703
G1 X111.733 Y130.873 E89.8499
G1 X110.918 Y126.886 E91.88016
G1 X110.969 Y120.139 E95.24635
G1 X110.94 Y119.347 E95.64174
G1 X111.027 Y118.003 E96.31367
G1 X111.666 Y111.865 E99.39248
G1 X111.803 Y111.376 E99.64584
G1 X112.569 Y108.821 E100.97658
G1 X113.24 Y107.221 E101.84218
G1 X113.824 Y105.256 E102.8649
G1 X114.182 Y104.77 E103.16605
G1 X114.567 Y104.343 E103.45289
G1 X115.059 Y103.515 E103.93341
G1 X115.076 Y103.482 E103.95193
G1 X115.953 Y102.624 E104.56403
G1 X117.566 Y101.876 E105.45108
G1 X119.175 Y102.546 E106.32062
G1 X120.148 Y103.448 E106.98256
G1 X120.191 Y103.531 E107.02919
G1 X120.861 Y104.424 E107.58617
G1 X121.457 Y105.185 E108.06841
G1 X121.676 Y105.807 E108.3974
G1 X121.957 Y106.539 E108.78858
G1 X123.394 Y111.396 E111.31558
G1 X123.609 Y112.062 E111.66473
G1 X124.117 Y118.344 E114.80906
G1 X124.192 Y119.053 E115.16476
G1 X124.642 Y127.466 E119.36802
G1 X124.644 Y127.576 E119.42291
G1 X124.619 Y127.903 E119.58653
G1 X124.524 Y128.302 E119.79115
G1 X123.552 Y131.633 E121.5223
G1 X123.279 Y135.137 E123.27575
G1 X123.211 Y135.823 E123.61968
G1 X122.5 Y140.816 E126.13583
G1 X122.16 Y142.825 E127.15237
G1 X121.486 Y146.591 E129.06109
G1 X120.142 Y150.952 E131.33778
G1 X119.25 Y152.658 E132.29823
G1 X118.014 Y154.347 E133.3424
G1 X117.716 Y154.691 E133.56947
G1 X117.714 Y155.062 E133.6987
G1 X117.625 Y156.461 E134.042
G1 X117.753 Y159.404 E135.08829
G1 X117.784 Y160.117 E135.44434
G1 X117.805 Y161.4 E136.08452
G1 X117.316 Y161.401 E136.32848
G0 F10500 X116.91 Y161.801
;TYPE:WALL-OUTER
G1 F2100 X116.914 Y161.586 E136.43576
G1 X116.929 Y160.116 E137.16919
G1 X117.104 Y155.091 E139.67769
G1 X117.102 Y154.94 E139.75303
G1 X115.534 Y152.869 E141.04899
G1 X114.61 Y151.104 E142.04292
G1 X113.285 Y146.617 E144.37706
G1 X112.569 Y142.894 E146.26851
G1 X112.228 Y140.888 E147.28366
G1 X111.611 Y135.275 E150.10087
G1 X111.535 Y134.479 E150.4998
G1 X111.335 Y130.925 E152.2757
G1 X110.518 Y126.925 E154.31251
G1 X110.569 Y120.145 E157.69516
G1 X110.539 Y119.347 E158.09357
G1 X110.629 Y117.962 E158.786
G1 X111.271 Y111.791 E161.88134
G1 X111.42 Y111.261 E162.15601
G1 X112.193 Y108.683 E163.49876
G1 X112.863 Y107.086 E164.36278
G1 X113.461 Y105.074 E165.40997
G1 X113.869 Y104.521 E165.75282
G1 X114.243 Y104.105 E166.03191
G1 X114.711 Y103.317 E166.48915
G1 X114.754 Y103.238 E166.53403
G1 X115.722 Y102.29 E167.20999
G1 X117.223 Y101.594 E168.03543
G1 X117.33 Y98.966 E169.34763
G1 X117.347 Y98.752 E169.45473
G1 X117.486 Y98.473 E169.61024
G1 X117.691 Y98.566 E169.72255
G1 X117.83 Y98.834 E169.87317
G1 X117.835 Y98.91 E169.91117
G1 X117.916 Y101.588 E171.24784
G1 X119.394 Y102.204 E172.04669
G1 X120.471 Y103.202 E172.77924
G1 X120.531 Y103.318 E172.84439
G1 X121.179 Y104.181 E173.38281
G1 X121.812 Y104.991 E173.89568
G1 X122.051 Y105.669 E174.25434
G1 X122.339 Y106.42 E174.65562
G1 X123.776 Y111.278 E177.18309
G1 X124.004 Y111.983 E177.55276
G1 X124.515 Y118.307 E180.7181
G1 X124.59 Y119.011 E181.07131
G1 X125.042 Y127.46 E185.29256
G1 X125.044 Y127.589 E185.35693
G1 X125.016 Y127.964 E185.54454
G1 X124.908 Y128.414 E185.77542
G1 X123.948 Y131.705 E187.48573
G1 X123.677 Y135.177 E189.22319
G1 X123.607 Y135.879 E189.57516
G1 X122.894 Y140.883 E192.09688
G1 X122.554 Y142.895 E193.1149
G1 X121.876 Y146.683 E195.03477
G1 X120.514 Y151.103 E197.34224
G1 X119.588 Y152.873 E198.33884
G1 X118.329 Y154.594 E199.40268
G1 X118.115 Y154.841 E199.56572
G1 X118.114 Y155.072 E199.68097
G1 X118.026 Y156.465 E200.37733
G1 X118.184 Y160.111 E202.19803
G1 X118.211 Y161.8 E203.04078
G1 X116.91 Y161.801 E203.68985
G0 F10500 X117.184 Y161.531
G0 X117.786 Y154.44
G0 X117.576 Y154.257
;TYPE:SKIN
G1 F2100 X116.203 Y152.445 E204.82407
G1 X115.347 Y150.81 E205.74481
G1 X114.052 Y146.426 E208.02542
G1 X113.343 Y142.744 E209.89613
G1 X113.013 Y140.795 E210.88232
G1 X112.396 Y135.188 E213.69655
G1 X112.323 Y134.419 E214.08193
G1 X112.121 Y130.823 E215.87881
G1 X111.308 Y126.848 E217.903
G1 X111.359 Y120.133 E221.25323
G1 X111.33 Y119.358 E221.64015
G1 X111.415 Y118.044 E222.29708
G1 X112.05 Y111.939 E225.3593
G1 X112.177 Y111.488 E225.59306
G1 X112.941 Y108.941 E226.9197
G1 X113.608 Y107.352 E227.77946
G1 X114.178 Y105.433 E228.7782
G1 X114.486 Y105.015 E229.03724
G1 X114.883 Y104.575 E229.3329
G1 X115.392 Y103.719 E229.82976
G1 X116.181 Y102.948 E230.38013
G1 X117.573 Y102.301 E231.14595
G1 X118.961 Y102.879 E231.89607
G1 X119.833 Y103.688 E232.4895
G1 X119.86 Y103.74 E232.51873
G1 X120.551 Y104.662 E233.09357
G1 X121.109 Y105.372 E233.54409
G1 X121.31 Y105.942 E233.84563
G1 X121.586 Y106.659 E234.22893
G1 X123.021 Y111.511 E236.75325
G1 X123.225 Y112.14 E237.08315
G1 X123.729 Y118.381 E240.20694
G1 X123.802 Y119.074 E240.55459
G1 X124.252 Y127.473 E244.75088
G1 X124.254 Y127.583 E244.80576
G1 X124.234 Y127.834 E244.93139
G1 X124.144 Y128.212 E245.12524
G1 X123.166 Y131.563 E246.86681
G1 X122.891 Y135.098 E248.63576
G1 X122.825 Y135.768 E248.97164
G1 X122.116 Y140.751 E251.48271
G1 X121.776 Y142.757 E252.49778
G1 X121.107 Y146.496 E254.3928
G1 X119.778 Y150.806 E256.64297
G1 X118.917 Y152.454 E257.57061
G1 X117.719 Y154.092 E258.58305
G1 X117.576 Y154.257 E258.69198
G0 F10500 X117.676 Y153.88
G1 F2100 X116.913 Y153.116 E259.23067
G0 F10500 X116.562 Y153.381
G0 X117.565 Y154.581
G0 X118.268 Y153.813
G0 X117.915 Y153.553
G1 F2100 X115.918 Y151.557 E260.63931
G0 F10500 X115.529 Y151.76
G0 X114.998 Y150.616
G0 X115.42 Y150.492
G1 F2100 X118.154 Y153.226 E262.5683
G0 F10500 X118.393 Y152.899
G1 F2100 X115.183 Y149.69 E264.83277
G0 F10500 X114.946 Y148.887
G1 F2100 X118.632 Y152.573 E267.43345
G0 F10500 X118.854 Y152.229
G1 F2100 X114.709 Y148.085 E270.35761
G0 F10500 X114.472 Y147.281
G1 F2100 X119.047 Y151.857 E273.58588
G0 F10500 X119.241 Y151.485
G1 F2100 X114.235 Y146.479 E277.11788
G0 F10500 X114.087 Y145.765
G1 F2100 X119.435 Y151.114 E280.89154
G0 F10500 X119.629 Y150.742
G1 F2100 X113.952 Y145.065 E284.89697
G0 F10500 X113.817 Y144.364
G1 F2100 X119.763 Y150.31 E289.09219
G0 F10500 X119.896 Y149.877
G1 F2100 X113.682 Y143.664 E293.47615
G0 F10500 X113.547 Y142.963
G1 F2100 X120.029 Y149.445 E298.04955
G0 F10500 X120.163 Y149.013
G1 F2100 X113.425 Y142.275 E302.80357
G0 F10500 X113.309 Y141.593
G1 F2100 X120.296 Y148.58 E307.73328
G0 F10500 X120.43 Y148.148
G1 F2100 X113.194 Y140.912 E312.83867
G0 F10500 X113.115 Y140.268
G1 F2100 X120.563 Y147.716 E318.09363
G0 F10500 X120.696 Y147.283
G1 F2100 X113.045 Y139.632 E323.49183
G0 F10500 X112.975 Y138.997
G1 F2100 X120.83 Y146.851 E329.0336
G0 F10500 X120.959 Y146.414
G1 F2100 X112.905 Y138.361 E334.71578
G0 F10500 X112.835 Y137.726
G1 F2100 X121.045 Y145.935 E340.50803
G0 F10500 X121.13 Y145.455
G1 F2100 X112.765 Y137.09 E346.40999
G0 F10500 X112.695 Y136.454
G1 F2100 X121.216 Y144.975 E352.42201
G0 F10500 X121.302 Y144.495
G1 F2100 X112.626 Y135.819 E358.5434
G0 F10500 X112.556 Y135.183
G1 F2100 X121.388 Y144.015 E364.77485
G0 F10500 X121.473 Y143.535
G1 F2100 X112.496 Y134.558 E371.10861
G0 F10500 X112.456 Y133.952
G1 F2100 X121.56 Y143.056 E377.53197
G0 F10500 X121.644 Y142.574
G1 F2100 X112.423 Y133.353 E384.03789
G0 F10500 X112.389 Y132.754
G1 F2100 X121.727 Y142.091 E390.626
G0 F10500 X121.809 Y141.608
G1 F2100 X112.355 Y132.154 E397.29631
G0 F10500 X112.322 Y131.555
G1 F2100 X121.891 Y141.124 E404.04775
G0 F10500 X121.97 Y140.638
G1 F2100 X112.288 Y130.956 E410.87893
G0 F10500 X112.172 Y130.274
G1 F2100 X122.041 Y140.143 E417.84204
G0 F10500 X122.112 Y139.648
G1 F2100 X112.026 Y129.563 E424.9579
G0 F10500 X111.881 Y128.852
G1 F2100 X122.182 Y139.152 E432.22546
G0 F10500 X122.253 Y138.657
G1 F2100 X111.736 Y128.141 E439.64542
G0 F10500 X111.59 Y127.429
G1 F2100 X122.323 Y138.163 E447.21849
G0 F10500 X122.393 Y137.667
G1 F2100 X111.468 Y126.741 E454.92702
G0 F10500 X111.472 Y126.18
G1 F2100 X122.464 Y137.172 E462.68247
G0 F10500 X122.535 Y136.677
G1 F2100 X111.477 Y125.619 E470.48448
G0 F10500 X111.481 Y125.058
G1 F2100 X122.605 Y136.181 E478.33271
G0 F10500 X122.673 Y135.684
G1 F2100 X111.485 Y124.496 E486.22645
G0 F10500 X111.49 Y123.935
G1 F2100 X122.723 Y135.168 E494.15194
G0 F10500 X122.765 Y134.645
G1 F2100 X111.494 Y123.373 E502.10459
G0 F10500 X111.498 Y122.812
G1 F2100 X122.806 Y134.12 E510.083
G0 F10500 X122.847 Y133.595
G1 F2100 X111.502 Y122.25 E518.08751
G0 F10500 X111.507 Y121.689
G1 F2100 X122.888 Y133.071 E526.11777
G0 F10500 X122.929 Y132.546
G1 F2100 X111.511 Y121.128 E534.17378
G0 F10500 X111.515 Y120.566
G1 F2100 X122.97 Y132.021 E542.25591
G0 F10500 X123.016 Y131.502
G1 F2100 X111.513 Y119.998 E550.37225
G0 F10500 X111.49 Y119.41
G1 F2100 X123.144 Y131.064 E558.59477
G0 F10500 X123.272 Y130.625
G1 F2100 X111.52 Y118.874 E566.88609
G0 F10500 X111.555 Y118.343
G1 F2100 X123.4 Y130.188 E575.24338
G0 F10500 X123.528 Y129.75
G1 F2100 X111.599 Y117.821 E583.65993
G0 F10500 X111.652 Y117.309
G1 F2100 X123.656 Y129.312 E592.12905
G0 F10500 X123.783 Y128.875
G1 F2100 X111.705 Y116.796 E600.65108
G0 F10500 X111.758 Y116.284
G1 F2100 X123.911 Y128.436 E609.22533
G0 F10500 X124.032 Y127.991
G1 F2100 X111.811 Y115.771 E617.84755
G0 F10500 X111.864 Y115.259
G1 F2100 X124.092 Y127.487 E626.47507
G0 F10500 X124.061 Y126.889
G1 F2100 X111.918 Y114.747 E635.04225
G0 F10500 X111.971 Y114.234
G1 F2100 X124.029 Y126.292 E643.54983
G0 F10500 X123.996 Y125.693
G1 F2100 X112.024 Y113.721 E651.99672
G0 F10500 X112.077 Y113.209
G1 F2100 X123.965 Y125.096 E660.38399
G0 F10500 X123.932 Y124.498
G1 F2100 X112.131 Y112.697 E668.71023
G0 F10500 X112.184 Y112.184
G1 F2100 X123.9 Y123.9 E676.9765
G0 F10500 X123.868 Y123.302
G1 F2100 X112.278 Y111.712 E685.15388
G0 F10500 X112.405 Y111.274
G1 F2100 X123.836 Y122.704 E693.21871
G0 F10500 X123.803 Y122.106
G1 F2100 X112.536 Y110.839 E701.16819
G0 F10500 X112.667 Y110.404
G1 F2100 X123.771 Y121.509 E709.00301
G0 F10500 X123.74 Y120.911
G1 F2100 X112.798 Y109.969 E716.72318
G0 F10500 X112.929 Y109.535
G1 F2100 X123.707 Y120.313 E724.32765
G0 F10500 X123.675 Y119.716
G1 F2100 X113.06 Y109.1 E731.81745
G0 F10500 X113.216 Y108.691
G1 F2100 X123.643 Y119.117 E739.17391
G0 F10500 X123.578 Y118.487
G1 F2100 X113.384 Y108.293 E746.36633
G0 F10500 X113.552 Y107.895
G1 F2100 X123.526 Y117.869 E753.40353
G0 F10500 X123.477 Y117.254
G1 F2100 X113.719 Y107.496 E760.28832
G0 F10500 X113.857 Y107.069
G1 F2100 X123.427 Y116.639 E767.04047
G0 F10500 X123.377 Y116.023
G1 F2100 X113.987 Y106.633 E773.66563
G0 F10500 X114.117 Y106.197
G1 F2100 X123.327 Y115.408 E780.16413
G0 F10500 X123.278 Y114.793
G1 F2100 X114.246 Y105.761 E786.5367
G0 F10500 X114.421 Y105.37
G1 F2100 X123.228 Y114.177 E792.75051
G0 F10500 X123.178 Y113.562
G1 F2100 X114.667 Y105.05 E798.75583
G0 F10500 X114.935 Y104.753
G1 F2100 X123.129 Y112.946 E804.53679
G0 F10500 X123.079 Y112.331
G1 F2100 X115.162 Y104.414 E810.12266
G0 F10500 X115.373 Y104.059
G1 F2100 X122.866 Y111.552 E815.40938
G0 F10500 X122.628 Y110.749
G1 F2100 X115.609 Y103.729 E820.36201
G0 F10500 X115.895 Y103.45
G1 F2100 X122.39 Y109.945 E824.94459
G0 F10500 X122.153 Y109.142
G1 F2100 X116.182 Y103.171 E829.15745
G0 F10500 X116.536 Y102.959
G1 F2100 X121.915 Y108.339 E832.95298
G0 F10500 X121.678 Y107.536
G1 F2100 X116.921 Y102.779 E836.3093
G0 F10500 X117.307 Y102.599
G1 F2100 X121.44 Y106.732 E839.22535
G0 F10500 X121.098 Y105.824
G1 F2100 X117.873 Y102.599 E841.50076
G0 F10500 X118.042 Y102.195
G0 X119.012 Y102.599
G0 X118.843 Y103.004
G1 F2100 X119.898 Y104.059 E842.24512
G0 F10500 X120.252 Y103.795
G0 X119.081 Y102.693
G0 X117.828 Y101.84
G0 X117.617 Y101.622
G0 X117.575 Y101.453
;TYPE:SKIN
G1 F2100 X117.472 Y101.633 E842.3112
G1 X117.578 Y100.89 E842.55035
G1 X117.587 Y98.92 E843.17807
G1 F2700 E838.17807
G0 F10500 X117.576 Y98.888
G0 X117.571 Y102.067
G0 X116.051 Y102.768
G0 X115.209 Y103.598
G0 X113.979 Y105.335
G0 X112.728 Y108.883
G0 X111.834 Y111.896
G0 X111.197 Y118.022
G0 X111.112 Y119.353
G0 X111.089 Y126.867
G0 X112.795 Y140.821
G0 X113.841 Y146.485
G0 X115.141 Y150.89
G0 X116.018 Y152.563
G0 X117.364 Y154.318
G0 X117.509 Y159.935
G0 X117.557 Y159.983
G1 F2700 E843.17807
G1 F2100 X117.557 Y160.266 E843.23009
G1 X117.56 Y161.118 E843.38671
G0 F10500 X117.601 Y161.183
G1 F2700 E838.38671
;MESH:NONMESH
G0 F300 X117.601 Y161.183 Z9.28
G0 F10500 X117.56 Y161.6
G0 X117.56 Y162.785
G0 X117.564 Y165.446
G1 F2700 E843.38671
G0 F10500 X117.466 Y166.203
;TIME_ELAPSED:77.401501
;LAYER:3
M106 S255
;TYPE:WALL-OUTER
;MESH:Boat.stl
G1 F2100 X117.296 Y165.973 E843.5294
G1 X117.32 Y165.54 E843.74576
G1 X117.325 Y164.85 E844.09001
G1 X117.317 Y163.762 E844.63283
G1 X117.27 Y163.222 E844.90326
G1 X117.865 Y163.222 E845.2001
G1 X117.844 Y164.157 E845.66669
G1 X117.79 Y164.87 E846.02343
G1 X117.807 Y165.602 E846.38873
G1 X117.826 Y166.041 E846.60795
G1 X117.678 Y166.203 E846.71742
G1 X117.466 Y166.203 E846.82319
G0 F10500 X117.48 Y165.927
;TYPE:SKIN
G1 F2100 X117.637 Y165.77 E846.87857
G0 F10500 X117.49 Y165.635
G1 F2100 X117.628 Y165.496 E846.92743
G0 F10500 X117.559 Y165.283
G1 F2100 X117.556 Y165.002 E846.99095
G1 X117.583 Y163.561 E847.31673
G1 F2700 E842.31673
G0 F10500 X117.66 Y163.46
G0 X117.393 Y163.335
G0 X117.393 Y162.097
G0 X117.282 Y161.917
;TYPE:WALL-INNER
G1 F2700 E847.31673
G1 F2100 X117.323 Y159.443 E848.55119
G1 X114.852 Y159.526 E849.78467
G1 X114.547 Y159.464 E849.93995
G1 X112.63 Y159.195 E850.90571
G1 X111.836 Y156.573 E852.2725
G1 X110.94 Y153.762 E853.74443
G1 X110.526 Y152.127 E854.58588
G1 X109.441 Y149.654 E855.93319
G1 X108.947 Y147.231 E857.16689
G1 X108.685 Y145.743 E857.92068
G1 X107.925 Y141.181 E860.22804
G1 X107.538 Y137.9 E861.87628
G1 X107.177 Y134.576 E863.54438
G1 X107.044 Y130.076 E865.79042
G1 X106.94 Y127.038 E867.30698
G1 X107.227 Y120.559 E870.54253
G1 X107.292 Y119.011 E871.31551
G1 X108.491 Y111.196 E875.26005
G1 X110.147 Y106.025 E877.96894
G1 X110.717 Y104.15 E878.94665
G1 X112.145 Y101.804 E880.31685
G1 X112.597 Y101.093 E880.73718
G1 X114.19 Y99.794 E881.76267
G1 X115.035 Y98.984 E882.34665
G1 X116.714 Y98.592 E883.20683
G1 X117.562 Y98.367 E883.64454
G1 X117.576 Y98.198 E883.72914
G1 X117.591 Y98.409 E883.74572
G1 X118.275 Y98.593 E884.0991
G1 X120.016 Y98.996 E884.99065
G1 X120.741 Y99.635 E885.4728
G1 X122.494 Y101.087 E886.60842
G1 X122.924 Y101.845 E887.0432
G1 X124.404 Y104.195 E888.42876
G1 X124.971 Y105.889 E889.31998
G1 X126.708 Y111.288 E892.14953
G1 X126.847 Y112.489 E892.75271
G1 X127.712 Y118.961 E896.01031
G1 X127.826 Y121.433 E897.24491
G1 X128.248 Y127.226 E900.14271
G1 X128.163 Y129.571 E901.3134
G1 X127.944 Y134.562 E903.80582
G1 X127.594 Y137.935 E905.49765
G1 X127.197 Y141.254 E907.16531
G1 X126.659 Y146.142 E909.61867
G1 X126.435 Y147.679 E910.39358
G1 X125.776 Y150.339 E911.76078
G1 X125.111 Y151.525 E912.43914
G1 X124.625 Y152.029 E912.78845
G1 X124.183 Y153.775 E913.68701
G1 X123.302 Y156.642 E915.18337
G1 X122.522 Y159.191 E916.51328
G1 X120.628 Y159.457 E917.46747
G1 X120.279 Y159.525 E917.64487
G1 X117.802 Y159.445 E918.88129
G1 X117.84 Y161.917 E920.11472
G1 X117.282 Y161.917 E920.39311
G0 F10500 X116.875 Y162.317
;TYPE:WALL-OUTER
G1 F2100 X116.916 Y159.857 E921.62058
G1 X114.821 Y159.927 E922.66636
G1 X114.48 Y159.859 E922.83984
G1 X112.321 Y159.556 E923.92752
G1 X111.454 Y156.692 E925.42041
G1 X110.555 Y153.873 E926.8966
G1 X110.146 Y152.257 E927.72825
G1 X109.057 Y149.775 E929.08047
G1 X108.555 Y147.311 E930.33502
G1 X108.29 Y145.809 E931.09594
G1 X107.53 Y141.247 E933.4033
G1 X107.14 Y137.943 E935.06312
G1 X106.778 Y134.605 E936.73822
G1 X106.644 Y130.089 E938.99225
G1 X106.539 Y127.034 E940.5173
G1 X106.827 Y120.541 E943.75985
G1 X106.893 Y118.979 E944.53983
G1 X108.101 Y111.102 E948.51563
G1 X109.765 Y105.906 E951.23761
G1 X110.348 Y103.987 E952.23821
G1 X111.803 Y101.596 E953.63459
G1 X112.295 Y100.823 E954.09173
G1 X113.925 Y99.494 E955.14099
G1 X114.837 Y98.619 E955.77153
G1 X116.617 Y98.204 E956.6834
G1 X117.187 Y98.053 E956.97758
G1 X117.336 Y96.256 E957.87718
G1 X117.502 Y95.957 E958.0478
G1 X117.707 Y96.013 E958.15382
G1 X117.841 Y96.284 E958.30465
G1 X117.97 Y98.097 E959.21145
G1 X118.372 Y98.205 E959.41912
G1 X120.204 Y98.629 E960.35727
G1 X121.001 Y99.331 E960.88714
G1 X122.806 Y100.826 E962.05643
G1 X123.267 Y101.64 E962.52314
G1 X124.768 Y104.023 E963.92821
G1 X125.352 Y105.767 E964.84578
G1 X127.1 Y111.201 E967.69363
G1 X127.244 Y112.439 E968.31544
G1 X128.112 Y118.935 E971.58511
G1 X128.225 Y121.409 E972.82068
G1 X128.649 Y127.226 E975.73049
G1 X128.563 Y129.589 E976.91018
G1 X128.343 Y134.598 E979.41158
G1 X127.991 Y137.983 E981.10947
G1 X127.594 Y141.3 E982.77614
G1 X127.055 Y146.2 E985.23551
G1 X126.829 Y147.751 E986.01748
G1 X126.15 Y150.49 E987.42533
G1 X125.436 Y151.763 E988.15351
G1 X124.987 Y152.23 E988.47672
G1 X124.569 Y153.879 E989.32543
G1 X123.684 Y156.759 E990.82857
G1 X122.829 Y159.552 E992.28584
G1 X120.694 Y159.852 E993.36146
G1 X120.311 Y159.926 E993.55607
G1 X118.208 Y159.858 E994.60581
G1 X118.246 Y162.317 E995.83275
G1 X116.875 Y162.317 E996.51675
G0 F10500 X117.149 Y162.047
G0 X117.415 Y159.33
G0 X117.406 Y159.05
;TYPE:SKIN
G1 F2100 X114.883 Y159.134 E997.77618
G1 X114.613 Y159.08 E997.91355
G1 X112.931 Y158.844 E998.76092
G1 X112.208 Y156.458 E1000.00475
G1 X111.312 Y153.643 E1001.47859
G1 X110.896 Y152 E1002.32415
G1 X109.815 Y149.537 E1003.66609
G1 X109.329 Y147.153 E1004.87993
G1 X109.069 Y145.675 E1005.62863
G1 X108.313 Y141.136 E1007.92434
G1 X107.926 Y137.855 E1009.57259
G1 X107.567 Y134.547 E1011.23265
G1 X107.434 Y130.064 E1013.47021
G1 X107.33 Y127.046 E1014.97679
G1 X107.617 Y120.576 E1018.20786
G1 X107.682 Y119.05 E1018.96987
G1 X108.873 Y111.281 E1022.89112
G1 X110.519 Y106.142 E1025.58328
G1 X111.075 Y104.311 E1026.53796
G1 X112.474 Y102.013 E1027.88018
G1 X112.893 Y101.355 E1028.26937
G1 X114.449 Y100.086 E1029.27109
G1 X115.227 Y99.34 E1029.80884
G1 X116.808 Y98.97 E1030.61892
G1 X117.499 Y98.788 E1030.97542
G1 X118.18 Y98.971 E1031.32722
G1 X119.831 Y99.354 E1032.17278
G1 X120.488 Y99.931 E1032.60902
G1 X122.19 Y101.341 E1033.71169
G1 X122.589 Y102.046 E1034.11584
G1 X124.05 Y104.364 E1035.48283
G1 X124.63 Y106.099 E1036.39551
G1 X126.324 Y111.366 E1039.1558
G1 X126.46 Y112.538 E1039.74443
G1 X127.322 Y118.979 E1042.98651
G1 X127.436 Y121.456 E1044.2236
G1 X127.858 Y127.223 E1047.10846
G1 X127.773 Y129.554 E1048.27217
G1 X127.556 Y134.521 E1050.75258
G1 X127.206 Y137.888 E1052.44144
G1 X126.809 Y141.209 E1054.11009
G1 X126.273 Y146.086 E1056.55788
G1 X126.051 Y147.609 E1057.32574
G1 X125.411 Y150.192 E1058.65337
G1 X124.796 Y151.289 E1059.28081
G1 X124.272 Y151.832 E1059.65728
G1 X123.81 Y153.66 E1060.59795
G1 X122.929 Y156.527 E1062.09431
G1 X122.221 Y158.84 E1063.30112
G1 X120.564 Y159.073 E1064.13593
G1 X120.248 Y159.133 E1064.2964
G1 X117.719 Y159.052 E1065.55877
G1 X117.406 Y159.042 E1065.71501
G1 X117.406 Y159.05 E1065.719
G0 F10500 X117.415 Y159.33
G0 X117.468 Y161.735
G0 X117.629 Y159.322
G0 X120.002 Y159.349
G0 X121.909 Y159.167
G0 X121.849 Y158.73
G1 F2100 X122.191 Y158.388 E1065.9603
G0 F10500 X122.441 Y157.573
G1 F2100 X121.19 Y158.823 E1066.84259
G0 F10500 X120.533 Y158.915
G1 F2100 X122.69 Y156.758 E1068.36447
G0 F10500 X122.94 Y155.942
G1 F2100 X119.921 Y158.961 E1070.49454
G0 F10500 X119.372 Y158.944
G1 F2100 X123.192 Y155.125 E1073.18941
G0 F10500 X123.443 Y154.308
G1 F2100 X118.824 Y158.927 E1076.44836
G0 F10500 X118.276 Y158.909
G1 F2100 X123.685 Y153.5 E1080.2647
G0 F10500 X123.876 Y152.743
G1 F2100 X117.727 Y158.892 E1084.60315
G0 F10500 X117.156 Y158.898
G1 F2100 X124.066 Y151.987 E1089.47888
G0 F10500 X124.493 Y152.095
G0 X125.521 Y150.567
G0 X125.137 Y150.351
G1 F2100 X116.571 Y158.917 E1095.52266
G0 F10500 X115.986 Y158.936
G1 F2100 X125.414 Y149.508 E1102.17462
G0 F10500 X125.601 Y148.756
G1 F2100 X115.401 Y158.955 E1109.37092
G0 F10500 X114.832 Y158.959
G1 F2100 X125.787 Y148.003 E1117.10062
G0 F10500 X125.935 Y147.291
G1 F2100 X114.344 Y158.881 E1125.27834
G0 F10500 X113.849 Y158.811
G1 F2100 X126.031 Y146.628 E1133.87375
G0 F10500 X126.125 Y145.969
G1 F2100 X113.352 Y158.741 E1142.88544
G0 F10500 X113.002 Y158.526
G1 F2100 X126.194 Y145.334 E1152.19311
G0 F10500 X126.264 Y144.698
G1 F2100 X112.87 Y158.092 E1161.6433
G0 F10500 X112.738 Y157.658
G1 F2100 X126.334 Y144.063 E1171.23566
G0 F10500 X126.403 Y143.428
G1 F2100 X112.607 Y157.224 E1180.96948
G0 F10500 X112.475 Y156.79
G1 F2100 X126.473 Y142.792 E1190.84583
G0 F10500 X126.543 Y142.157
G1 F2100 X112.343 Y156.356 E1200.86434
G0 F10500 X112.207 Y155.927
G1 F2100 X126.613 Y141.521 E1211.02855
G0 F10500 X126.685 Y140.883
G1 F2100 X112.07 Y155.498 E1221.34023
G0 F10500 X111.934 Y155.069
G1 F2100 X126.763 Y140.24 E1231.80289
G0 F10500 X126.84 Y139.597
G1 F2100 X111.797 Y154.64 E1242.41653
G0 F10500 X111.661 Y154.21
G1 F2100 X126.917 Y138.954 E1253.18047
G0 F10500 X126.993 Y138.312
G1 F2100 X111.524 Y153.781 E1264.09468
G0 F10500 X111.4 Y153.34
G1 F2100 X127.067 Y137.673 E1275.1486
G0 F10500 X127.132 Y137.042
G1 F2100 X111.286 Y152.888 E1286.32881
G0 F10500 X111.172 Y152.436
G1 F2100 X127.198 Y136.41 E1297.63601
G0 F10500 X127.264 Y135.779
G1 F2100 X111.058 Y151.985 E1309.07022
G0 F10500 X110.889 Y151.588
G1 F2100 X127.33 Y135.147 E1320.67024
G0 F10500 X127.395 Y134.517
G1 F2100 X110.718 Y151.194 E1332.43676
G0 F10500 X110.545 Y150.801
G1 F2100 X127.422 Y133.924 E1344.34439
G0 F10500 X127.447 Y133.333
G1 F2100 X110.373 Y150.407 E1356.39102
G0 F10500 X110.2 Y150.014
G1 F2100 X127.473 Y132.741 E1368.57806
G0 F10500 X127.499 Y132.15
G1 F2100 X110.027 Y149.621 E1380.90515
G0 F10500 X109.906 Y149.177
G1 F2100 X127.525 Y131.558 E1393.3363
G0 F10500 X127.55 Y130.967
G1 F2100 X109.81 Y148.708 E1405.85318
G0 F10500 X109.714 Y148.237
G1 F2100 X127.576 Y130.376 E1418.45544
G0 F10500 X127.602 Y129.784
G1 F2100 X109.618 Y147.768 E1431.14412
G0 F10500 X109.522 Y147.298
G1 F2100 X127.624 Y129.196 E1443.91606
G0 F10500 X127.646 Y128.609
G1 F2100 X109.433 Y146.821 E1456.76596
G0 F10500 X109.349 Y146.339
G1 F2100 X127.667 Y128.022 E1469.68995
G0 F10500 X127.689 Y127.434
G1 F2100 X109.264 Y145.859 E1482.68978
G0 F10500 X109.182 Y145.375
G1 F2100 X127.672 Y126.886 E1495.73512
G0 F10500 X127.633 Y126.359
G1 F2100 X109.101 Y144.891 E1508.81045
G0 F10500 X109.021 Y144.406
G1 F2100 X127.594 Y125.832 E1521.91505
G0 F10500 X127.556 Y125.304
G1 F2100 X108.94 Y143.92 E1535.04965
G0 F10500 X108.859 Y143.436
G1 F2100 X127.517 Y124.778 E1548.21387
G0 F10500 X127.478 Y124.251
G1 F2100 X108.778 Y142.951 E1561.40773
G0 F10500 X108.697 Y142.466
G1 F2100 X127.44 Y123.723 E1574.63193
G0 F10500 X127.401 Y123.197
G1 F2100 X108.616 Y141.982 E1587.88576
G0 F10500 X108.535 Y141.497
G1 F2100 X127.362 Y122.67 E1601.16923
G0 F10500 X127.324 Y122.142
G1 F2100 X108.459 Y141.007 E1614.47951
G0 F10500 X108.4 Y140.501
G1 F2100 X127.285 Y121.616 E1627.80389
G0 F10500 X127.257 Y121.078
G1 F2100 X108.34 Y139.995 E1641.15086
G0 F10500 X108.28 Y139.489
G1 F2100 X127.232 Y120.537 E1654.52252
G0 F10500 X127.207 Y119.996
G1 F2100 X108.221 Y138.983 E1667.91852
G0 F10500 X108.161 Y138.477
G1 F2100 X127.183 Y119.455 E1681.33957
G0 F10500 X127.152 Y118.92
G1 F2100 X108.101 Y137.971 E1694.78108
G0 F10500 X108.045 Y137.462
G1 F2100 X127.086 Y118.421 E1708.21553
G0 F10500 X127.019 Y117.922
G1 F2100 X107.99 Y136.951 E1721.64152
G0 F10500 X107.934 Y136.441
G1 F2100 X126.952 Y117.423 E1735.05975
G0 F10500 X126.885 Y116.925
G1 F2100 X107.879 Y135.931 E1748.4695
G0 F10500 X107.823 Y135.42
G1 F2100 X126.818 Y116.425 E1761.8715
G0 F10500 X126.751 Y115.927
G1 F2100 X107.768 Y134.911 E1775.26539
G0 F10500 X107.722 Y134.39
G1 F2100 X126.685 Y115.428 E1788.64446
G0 F10500 X126.618 Y114.929
G1 F2100 X107.706 Y133.841 E1801.98789
G0 F10500 X107.69 Y133.291
G1 F2100 X126.551 Y114.43 E1815.29535
G0 F10500 X126.485 Y113.931
G1 F2100 X107.673 Y132.742 E1828.56788
G0 F10500 X107.657 Y132.192
G1 F2100 X126.417 Y113.432 E1841.80407
G0 F10500 X126.351 Y112.933
G1 F2100 X107.641 Y131.643 E1855.00499
G0 F10500 X107.625 Y131.094
G1 F2100 X126.286 Y112.432 E1868.17168
G0 F10500 X126.227 Y111.926
G1 F2100 X107.608 Y130.544 E1881.30804
G0 F10500 X107.591 Y129.995
G1 F2100 X126.166 Y111.42 E1894.4137
G0 F10500 X126.033 Y110.988
G1 F2100 X107.573 Y129.448 E1907.43823
G0 F10500 X107.554 Y128.902
G1 F2100 X125.895 Y110.561 E1920.3788
G0 F10500 X125.758 Y110.132
G1 F2100 X107.535 Y128.355 E1933.23611
G0 F10500 X107.516 Y127.808
G1 F2100 X125.62 Y109.704 E1946.00946
G0 F10500 X125.483 Y109.276
G1 F2100 X107.497 Y127.262 E1958.69955
G0 F10500 X107.505 Y126.688
G1 F2100 X125.345 Y108.848 E1971.28664
G0 F10500 X125.207 Y108.42
G1 F2100 X107.531 Y126.096 E1983.75801
G0 F10500 X107.558 Y125.504
G1 F2100 X125.07 Y107.992 E1996.11367
G0 F10500 X124.932 Y107.564
G1 F2100 X107.584 Y124.912 E2008.35362
G0 F10500 X107.611 Y124.319
G1 F2100 X124.794 Y107.136 E2020.47716
G0 F10500 X124.657 Y106.708
G1 F2100 X107.637 Y123.728 E2032.48569
G0 F10500 X107.663 Y123.136
G1 F2100 X124.519 Y106.28 E2044.3785
G0 F10500 X124.378 Y105.855
G1 F2100 X107.689 Y122.544 E2056.1535
G0 F10500 X107.715 Y121.952
G1 F2100 X124.237 Y105.431 E2067.81031
G0 F10500 X124.095 Y105.007
G1 F2100 X107.742 Y121.36 E2079.34823
G0 F10500 X107.768 Y120.768
G1 F2100 X123.953 Y104.583 E2090.76762
G0 F10500 X123.762 Y104.209
G1 F2100 X107.794 Y120.177 E2102.03391
G0 F10500 X107.82 Y119.585
G1 F2100 X123.543 Y103.861 E2113.12769
G0 F10500 X123.324 Y103.515
G1 F2100 X107.854 Y118.984 E2124.04225
G0 F10500 X107.957 Y118.316
G1 F2100 X123.105 Y103.168 E2134.72999
G0 F10500 X122.886 Y102.821
G1 F2100 X108.059 Y117.649 E2145.19159
G0 F10500 X108.161 Y116.98
G1 F2100 X122.668 Y102.474 E2155.42671
G0 F10500 X122.449 Y102.127
G1 F2100 X108.264 Y116.312 E2165.43499
G0 F10500 X108.366 Y115.645
G1 F2100 X122.245 Y101.766 E2175.22738
G0 F10500 X122.028 Y101.416
G1 F2100 X108.468 Y114.976 E2184.79469
G0 F10500 X108.571 Y114.308
G1 F2100 X121.719 Y101.16 E2194.07131
G0 F10500 X121.41 Y100.903
G1 F2100 X108.673 Y113.641 E2203.05831
G0 F10500 X108.775 Y112.973
G1 F2100 X121.101 Y100.647 E2211.75497
G0 F10500 X120.792 Y100.39
G1 F2100 X108.878 Y112.304 E2220.16094
G0 F10500 X108.98 Y111.637
G1 F2100 X120.483 Y100.134 E2228.27692
G0 F10500 X120.179 Y99.872
G1 F2100 X109.167 Y110.884 E2236.04648
G0 F10500 X109.433 Y110.051
G1 F2100 X119.877 Y99.608 E2243.41494
G0 F10500 X119.482 Y99.437
G1 F2100 X109.7 Y109.219 E2250.31667
G0 F10500 X109.967 Y108.386
G1 F2100 X119.023 Y99.33 E2256.70616
G0 F10500 X118.564 Y99.224
G1 F2100 X110.234 Y107.554 E2262.58343
G0 F10500 X110.5 Y106.722
G1 F2100 X118.106 Y99.116 E2267.94987
G0 F10500 X117.66 Y98.997
G1 F2100 X110.76 Y105.897 E2272.8182
G0 F10500 X111.005 Y105.085
G1 F2100 X117.01 Y99.081 E2277.05469
G0 F10500 X116.265 Y99.26
G1 F2100 X111.332 Y104.193 E2280.53519
G0 F10500 X110.959 Y103.965
G0 X111.84 Y102.517
G0 X112.214 Y102.746
G1 F2100 X115.525 Y99.434 E2282.87163
G1 F2700 E2277.87163
G0 F10500 X115.426 Y99.006
G0 X117.498 Y98.561
G0 X119.935 Y99.154
G0 X122.36 Y101.199
G0 X124.249 Y104.27
G0 X126.54 Y111.323
G0 X127.541 Y118.968
G0 X128.077 Y127.224
G0 X127.774 Y134.542
G0 X126.49 Y146.117
G0 X126.267 Y147.647
G0 X125.616 Y150.275
G0 X124.02 Y153.723
G0 X122.385 Y159.032
G0 X120.478 Y159.32
G0 X117.635 Y159.328
G1 F2700 E2282.87163
G0 F10500 X117.637 Y159.265
;TYPE:SKIN
G1 F2100 X117.484 Y159.418 E2282.92561
G0 F10500 X117.642 Y159.543
G1 F2100 X117.479 Y159.706 E2282.98311
G0 F10500 X117.647 Y159.821
G1 F2100 X117.474 Y159.994 E2283.04414
G0 F10500 X117.651 Y160.1
G1 F2100 X117.469 Y160.282 E2283.10835
G0 F10500 X117.655 Y160.378
G1 F2100 X117.463 Y160.57 E2283.17608
G0 F10500 X117.66 Y160.656
G1 F2100 X117.458 Y160.858 E2283.24734
G0 F10500 X117.664 Y160.935
G1 F2100 X117.453 Y161.146 E2283.32178
G0 F10500 X117.668 Y161.213
G1 F2100 X117.449 Y161.433 E2283.39921
G0 F10500 X117.673 Y161.491
G1 F2100 X117.444 Y161.721 E2283.48018
G1 F2700 E2278.48018
G0 F10500 X117.425 Y161.777
G0 X117.17 Y159.278
G0 X114.867 Y159.354
G0 X112.766 Y159.036
G0 X109.605 Y149.605
G0 X108.853 Y145.713
G0 X108.095 Y141.161
G0 X107.347 Y134.555
G0 X107.11 Y127.038
G0 X107.462 Y119.031
G0 X108.659 Y111.232
G0 X110.875 Y104.219
G0 X112.726 Y101.209
G0 X115.119 Y99.141
G0 X117.249 Y98.62
G0 X117.488 Y98.038
G1 F2700 E2283.48018
G0 F10500 X117.628 Y97.897
G1 F2100 X117.564 Y97.678 E2283.59171
G1 X117.577 Y96.533 E2284.15147
G0 F10500 X117.505 Y96.323
G1 F2100 X117.61 Y96.218 E2284.18852
G1 F2700 E2279.18852
;MESH:NONMESH
G0 F300 X117.61 Y96.218 Z12.28
G0 F10500 X117.535 Y96.343
G0 X117.498 Y98.561
G0 X115.119 Y99.141
G0 X112.726 Y101.209
G0 X110.875 Y104.219
G0 X108.659 Y111.232
G0 X107.462 Y119.031
G0 X107.11 Y127.038
G0 X107.347 Y134.555
G0 X108.095 Y141.161
G0 X109.114 Y147.196
G0 X109.605 Y149.605
G0 X112.766 Y159.036
G0 X117.119 Y159.629
G0 X116.049 Y160.739
G0 X116.008 Y163.17
G0 X116.408 Y163.171
G0 X117.393 Y163.335
G0 X117.57 Y166.008
G1 F2700 E2284.18852
G0 F10500 X117.467 Y166.76
;TIME_ELAPSED:180.374414
;LAYER:4
;TYPE:WALL-OUTER
;MESH:Boat.stl
G1 F2100 X117.345 Y166.627 E2284.27856
G1 X117.352 Y166.503 E2284.34052
G1 X117.361 Y165.389 E2284.89631
G1 X117.358 Y164.797 E2285.19167
G1 X117.27 Y163.779 E2285.70144
G1 X117.865 Y163.779 E2285.99829
G1 X117.855 Y164.223 E2286.21986
G1 X117.767 Y165.388 E2286.80274
G1 X117.776 Y165.789 E2287.00285
G1 X117.81 Y166.625 E2287.42027
G1 X117.677 Y166.76 E2287.51482
G1 X117.467 Y166.76 E2287.61959
G0 F10500 X117.577 Y166.509
;TYPE:SKIN
G1 F2100 X117.574 Y166.223 E2287.6867
G0 F10500 X117.554 Y166.178
G0 X117.676 Y165.129
G0 X117.57 Y165.087
G1 F2100 X117.581 Y164.815 E2287.74301
G1 X117.625 Y164.011 E2287.90959
G1 F2700 E2282.90959
G0 F10500 X117.659 Y164.068
G0 X117.749 Y162.612
G0 X117.852 Y161.02
;TYPE:WALL-INNER
G1 F2700 E2287.90959
G1 F2100 X117.874 Y162.432 E2288.61412
G1 X117.248 Y162.432 E2288.92643
G1 X117.271 Y161.012 E2289.63497
G1 X113.574 Y160.822 E2291.48184
G1 X109.739 Y160.196 E2293.42045
G1 X109.64 Y159.79 E2293.62894
G1 X108.94 Y158.631 E2294.30445
G1 X108.599 Y158.056 E2294.63797
G1 X108.104 Y156.048 E2295.66976
G1 X107.829 Y154.922 E2296.24803
G1 X107.214 Y151.998 E2297.73874
G1 X106.331 Y147.76 E2299.89849
G1 X105.124 Y141.434 E2303.11148
G1 X104.991 Y140.395 E2303.63407
G1 X103.855 Y134.711 E2306.52591
G1 X103.711 Y131.669 E2308.04527
G1 X103.613 Y127.001 E2310.37466
G1 X104.435 Y118.774 E2314.49956
G1 X104.756 Y116.818 E2315.48846
G1 X105.86 Y110.168 E2318.85157
G1 X106.225 Y108.99 E2319.46684
G1 X108.3 Y102.794 E2322.72678
G1 X108.637 Y102.263 E2323.04055
G1 X110.988 Y98.617 E2325.20491
G1 X114.285 Y96.475 E2327.16645
G1 X114.569 Y96.408 E2327.31203
G1 X116.02 Y96.079 E2328.05431
G1 X116.737 Y96.062 E2328.41213
G1 X117.515 Y95.994 E2328.80175
G1 X117.566 Y95.546 E2329.0267
G1 X117.609 Y96.009 E2329.05806
G1 X118.506 Y96.123 E2329.50918
G1 X119.289 Y96.119 E2329.89982
G1 X120.559 Y96.4 E2330.54875
G1 X120.824 Y96.472 E2330.68576
G1 X124.074 Y98.629 E2332.6318
G1 X126.155 Y101.907 E2334.56892
G1 X126.781 Y102.954 E2335.17752
G1 X126.859 Y103.17 E2335.29209
G1 X126.966 Y103.422 E2335.42868
G1 X128.696 Y108.758 E2338.22724
G1 X129.112 Y110.076 E2338.91677
G1 X130.64 Y118.172 E2343.02719
G1 X130.754 Y118.838 E2343.36429
G1 X131.31 Y126.13 E2347.01284
G1 X131.39 Y127.093 E2347.49494
G1 X131.327 Y134.762 E2351.32115
G1 X131.314 Y134.955 E2351.41765
G1 X131.152 Y135.676 E2351.78633
G1 X130.241 Y139.304 E2353.65254
G1 X129.949 Y141.464 E2354.73997
G1 X129.831 Y142.194 E2355.10889
G1 X128.823 Y147.844 E2357.9722
G1 X127.914 Y151.989 E2360.08929
G1 X127.282 Y154.92 E2361.58518
G1 X126.532 Y158.055 E2363.19337
G1 X126.187 Y158.654 E2363.53824
G1 X125.48 Y159.87 E2364.23999
G1 X125.403 Y160.195 E2364.40662
G1 X121.665 Y160.819 E2366.29733
G1 X121.366 Y160.837 E2366.44677
G1 X117.852 Y161.02 E2368.20228
G0 F10500 X118.258 Y161.399
;TYPE:WALL-OUTER
G1 F2100 X118.28 Y162.832 E2368.9173
G1 X116.841 Y162.832 E2369.63522
G1 X116.865 Y161.392 E2370.35373
G1 X113.526 Y161.22 E2372.02178
G1 X109.413 Y160.548 E2374.10097
G1 X109.266 Y159.944 E2374.4111
G1 X108.598 Y158.838 E2375.05572
G1 X108.225 Y158.21 E2375.42013
G1 X107.715 Y156.143 E2376.48229
G1 X107.441 Y155.017 E2377.06044
G1 X106.823 Y152.08 E2378.5578
G1 X105.938 Y147.835 E2380.72118
G1 X104.728 Y141.494 E2383.9418
G1 X104.596 Y140.46 E2384.46185
G1 X103.456 Y134.755 E2387.36435
G1 X103.311 Y131.688 E2388.8962
G1 X103.213 Y126.99 E2391.24055
G1 X103.245 Y126.65 E2391.41092
G1 X104.04 Y118.709 E2395.39251
G1 X104.361 Y116.753 E2396.38142
G1 X105.469 Y110.079 E2399.75666
G1 X105.846 Y108.863 E2400.39181
G1 X107.937 Y102.62 E2403.67652
G1 X108.301 Y102.046 E2404.01562
G1 X110.698 Y98.329 E2406.22219
G1 X114.126 Y96.102 E2408.26164
G1 X114.481 Y96.018 E2408.44364
G1 X115.972 Y95.68 E2409.20638
G1 X116.715 Y95.662 E2409.57717
G1 X117.155 Y95.624 E2409.7975
G1 X117.303 Y94.331 E2410.4468
G1 X117.475 Y94.15 E2410.57137
G1 X117.704 Y94.161 E2410.68575
G1 X117.815 Y94.316 E2410.78086
G1 X117.886 Y94.66 E2410.9561
G1 X117.978 Y95.653 E2411.45363
G1 X118.53 Y95.723 E2411.73123
G1 X119.333 Y95.719 E2412.13185
G1 X120.648 Y96.01 E2412.80378
G1 X120.99 Y96.103 E2412.9806
G1 X124.367 Y98.344 E2415.00262
G1 X126.493 Y101.693 E2416.98167
G1 X127.144 Y102.782 E2417.61465
G1 X127.231 Y103.024 E2417.74295
G1 X127.338 Y103.275 E2417.87908
G1 X129.077 Y108.638 E2420.69184
G1 X129.501 Y109.982 E2421.39494
G1 X131.034 Y118.104 E2425.51857
G1 X131.152 Y118.792 E2425.86682
G1 X131.709 Y126.098 E2429.52238
G1 X131.79 Y127.074 E2430.01098
G1 X131.727 Y134.775 E2433.85315
G1 X131.711 Y135.012 E2433.97166
G1 X131.54 Y135.773 E2434.3608
G1 X130.634 Y139.38 E2436.21623
G1 X130.344 Y141.528 E2437.2976
G1 X130.225 Y142.264 E2437.66956
G1 X129.214 Y147.93 E2440.54098
G1 X128.305 Y152.074 E2442.65759
G1 X127.671 Y155.013 E2444.15759
G1 X126.907 Y158.206 E2445.79555
G1 X126.533 Y158.855 E2446.16925
G1 X125.855 Y160.02 E2446.84174
G1 X125.73 Y160.546 E2447.11147
G1 X121.717 Y161.216 E2449.14127
G1 X121.39 Y161.236 E2449.30472
G1 X118.258 Y161.399 E2450.8694
G0 F10500 X117.638 Y160.641
;TYPE:SKIN
G1 F2100 X113.612 Y160.433 E2452.88065
G1 X110.057 Y159.852 E2454.67778
G1 X110.005 Y159.64 E2454.78668
G1 X109.274 Y158.43 E2455.49197
G1 X108.963 Y157.906 E2455.79597
G1 X108.482 Y155.955 E2456.79847
G1 X108.21 Y154.838 E2457.37203
G1 X107.596 Y151.918 E2458.86068
G1 X106.712 Y147.677 E2461.022
G1 X105.506 Y141.361 E2464.22999
G1 X105.376 Y140.332 E2464.74744
G1 X104.244 Y134.67 E2467.62813
G1 X104.101 Y131.651 E2469.136
G1 X104.003 Y127.016 E2471.44893
G1 X104.823 Y118.813 E2475.56182
G1 X105.14 Y116.881 E2476.53859
G1 X106.239 Y110.259 E2479.88751
G1 X106.595 Y109.114 E2480.48572
G1 X108.656 Y102.961 E2483.7231
G1 X108.965 Y102.474 E2484.01085
G1 X111.271 Y98.898 E2486.1337
G1 X114.439 Y96.84 E2488.01844
G1 X114.659 Y96.788 E2488.13122
G1 X116.066 Y96.469 E2488.85099
G1 X116.759 Y96.452 E2489.19683
G1 X117.495 Y96.387 E2489.56545
G1 X118.482 Y96.513 E2490.06187
G1 X119.247 Y96.509 E2490.44353
G1 X120.466 Y96.778 E2491.06632
G1 X120.659 Y96.831 E2491.16618
G1 X123.79 Y98.909 E2493.04096
G1 X125.82 Y102.108 E2494.93117
G1 X126.429 Y103.125 E2495.52257
G1 X126.496 Y103.312 E2495.62167
G1 X126.598 Y103.551 E2495.75131
G1 X128.325 Y108.877 E2498.54467
G1 X128.731 Y110.165 E2499.21842
G1 X130.256 Y118.244 E2503.32023
G1 X130.368 Y118.891 E2503.64782
G1 X130.922 Y126.161 E2507.28535
G1 X131 Y127.093 E2507.75195
G1 X130.937 Y134.736 E2511.56519
G1 X130.926 Y134.907 E2511.65068
G1 X130.774 Y135.581 E2511.99538
G1 X129.857 Y139.23 E2513.87248
G1 X129.563 Y141.407 E2514.96845
G1 X129.446 Y142.129 E2515.33336
G1 X128.44 Y147.768 E2518.19109
G1 X127.533 Y151.905 E2520.30406
G1 X126.908 Y154.805 E2521.7841
G1 X126.165 Y157.911 E2523.37741
G1 X125.849 Y158.459 E2523.69301
G1 X125.113 Y159.724 E2524.42316
G1 X125.083 Y159.854 E2524.48973
G1 X121.634 Y160.429 E2526.23419
G1 X121.342 Y160.447 E2526.38014
G1 X117.638 Y160.641 E2528.23061
G0 F10500 X117.712 Y160.889
G0 X117.689 Y162.25
G0 X117.433 Y162.25
G0 X117.442 Y160.862
G0 X113.974 Y160.673
G0 X110.484 Y160.205
G0 X110.556 Y159.77
G1 F2100 X109.834 Y159.049 E2528.73967
G0 F10500 X109.458 Y159.275
G0 X108.658 Y157.838
G0 X109.085 Y157.734
G1 F2100 X111.232 Y159.881 E2530.25449
G0 F10500 X111.908 Y159.991
G1 F2100 X108.9 Y156.983 E2532.3768
G0 F10500 X108.714 Y156.231
G1 F2100 X112.584 Y160.102 E2535.10764
G0 F10500 X113.26 Y160.212
G1 F2100 X108.53 Y155.482 E2538.44491
G0 F10500 X108.352 Y154.739
G1 F2100 X113.9 Y160.286 E2542.35898
G0 F10500 X114.496 Y160.316
G1 F2100 X108.202 Y154.022 E2546.79973
G0 F10500 X108.051 Y153.306
G1 F2100 X115.092 Y160.347 E2551.76754
G0 F10500 X115.689 Y160.378
G1 F2100 X107.9 Y152.589 E2557.2631
G0 F10500 X107.749 Y151.873
G1 F2100 X116.285 Y160.409 E2563.28571
G0 F10500 X116.881 Y160.439
G1 F2100 X107.601 Y151.158 E2569.8336
G0 F10500 X107.452 Y150.444
G1 F2100 X117.478 Y160.47 E2576.90749
G0 F10500 X118.031 Y160.458
G1 F2100 X107.304 Y149.73 E2584.47632
G0 F10500 X107.154 Y149.015
G1 F2100 X118.569 Y160.43 E2592.53022
G0 F10500 X119.107 Y160.402
G1 F2100 X107.006 Y148.301 E2601.06813
G0 F10500 X106.856 Y147.585
G1 F2100 X119.644 Y160.373 E2610.09075
G0 F10500 X120.182 Y160.346
G1 F2100 X106.723 Y146.887 E2619.5868
G0 F10500 X106.589 Y146.187
G1 F2100 X120.72 Y160.318 E2629.55698
G0 F10500 X121.257 Y160.289
G1 F2100 X106.456 Y145.488 E2639.99989
G0 F10500 X106.322 Y144.789
G1 F2100 X121.775 Y160.242 E2650.90282
G0 F10500 X122.26 Y160.161
G1 F2100 X106.189 Y144.089 E2662.24213
G0 F10500 X106.056 Y143.391
G1 F2100 X122.745 Y160.08 E2674.01712
G0 F10500 X123.23 Y159.999
G1 F2100 X105.922 Y142.692 E2686.22849
G0 F10500 X105.788 Y141.992
G1 F2100 X123.715 Y159.919 E2698.87696
G0 F10500 X124.199 Y159.837
G1 F2100 X105.658 Y141.296 E2711.95864
G0 F10500 X105.577 Y140.649
G1 F2100 X124.684 Y159.757 E2725.44001
G0 F10500 X125.034 Y159.541
G1 F2100 X105.467 Y139.974 E2739.24559
G0 F10500 X105.326 Y139.267
G1 F2100 X125.242 Y159.183 E2753.2974
G0 F10500 X125.45 Y158.826
G1 F2100 X105.184 Y138.56 E2767.59616
G0 F10500 X105.043 Y137.853
G1 F2100 X125.658 Y158.468 E2782.14115
G0 F10500 X125.865 Y158.109
G1 F2100 X104.902 Y137.146 E2796.93168
G0 F10500 X104.76 Y136.439
G1 F2100 X126.045 Y157.723 E2811.94905
G0 F10500 X126.154 Y157.266
G1 F2100 X104.619 Y135.731 E2827.14315
G0 F10500 X104.477 Y135.024
G1 F2100 X126.263 Y156.81 E2842.51435
G0 F10500 X126.372 Y156.354
G1 F2100 X104.39 Y134.371 E2858.02419
G0 F10500 X104.361 Y133.777
G1 F2100 X126.481 Y155.897 E2873.63105
G0 F10500 X126.591 Y155.441
G1 F2100 X104.333 Y133.183 E2889.33527
G0 F10500 X104.306 Y132.59
G1 F2100 X126.7 Y154.984 E2905.13545
G0 F10500 X126.805 Y154.524
G1 F2100 X104.277 Y131.996 E2921.03017
G0 F10500 X104.256 Y131.409
G1 F2100 X126.905 Y154.058 E2937.01026
G0 F10500 X127.006 Y153.593
G1 F2100 X104.243 Y130.831 E2953.07043
G0 F10500 X104.231 Y130.253
G1 F2100 X127.106 Y153.128 E2969.20998
G0 F10500 X127.207 Y152.662
G1 F2100 X104.219 Y129.674 E2985.42926
G0 F10500 X104.207 Y129.097
G1 F2100 X127.307 Y152.197 E3001.72755
G0 F10500 X127.407 Y151.732
G1 F2100 X104.195 Y128.519 E3018.10523
G0 F10500 X104.182 Y127.941
G1 F2100 X127.509 Y151.268 E3034.56368
G0 F10500 X127.611 Y150.804
G1 F2100 X104.17 Y127.363 E3051.10258
G0 F10500 X104.183 Y126.811
G1 F2100 X127.713 Y150.34 E3067.70391
G0 F10500 X127.814 Y149.876
G1 F2100 X104.235 Y126.297 E3084.34017
G0 F10500 X104.286 Y125.782
G1 F2100 X127.916 Y149.412 E3101.01241
G0 F10500 X128.018 Y148.948
G1 F2100 X104.337 Y125.268 E3117.72028
G0 F10500 X104.389 Y124.754
G1 F2100 X128.119 Y148.484 E3134.46308
G0 F10500 X128.221 Y148.02
G1 F2100 X104.441 Y124.24 E3151.24115
G0 F10500 X104.491 Y123.725
G1 F2100 X128.316 Y147.549 E3168.05062
G0 F10500 X128.402 Y147.069
G1 F2100 X104.543 Y123.211 E3184.88408
G0 F10500 X104.595 Y122.697
G1 F2100 X128.487 Y146.589 E3201.74118
G0 F10500 X128.573 Y146.109
G1 F2100 X104.646 Y122.182 E3218.62297
G0 F10500 X104.697 Y121.668
G1 F2100 X128.659 Y145.63 E3235.52946
G0 F10500 X128.745 Y145.149
G1 F2100 X104.749 Y121.154 E3252.45958
G0 F10500 X104.8 Y120.639
G1 F2100 X128.83 Y144.669 E3269.41404
G0 F10500 X128.916 Y144.189
G1 F2100 X104.851 Y120.125 E3286.39284
G0 F10500 X104.903 Y119.611
G1 F2100 X129.001 Y143.709 E3303.39528
G0 F10500 X129.087 Y143.229
G1 F2100 X104.954 Y119.096 E3320.42242
G0 F10500 X105.019 Y118.595
G1 F2100 X129.172 Y142.749 E3337.46402
G0 F10500 X129.258 Y142.269
G1 F2100 X105.099 Y118.11 E3354.5095
G0 F10500 X105.179 Y117.624
G1 F2100 X129.34 Y141.785 E3371.55639
G0 F10500 X129.417 Y141.296
G1 F2100 X105.259 Y117.138 E3388.60116
G0 F10500 X105.339 Y116.653
G1 F2100 X129.484 Y140.798 E3405.63676
G0 F10500 X129.551 Y140.299
G1 F2100 X105.42 Y116.168 E3422.66249
G0 F10500 X105.5 Y115.682
G1 F2100 X129.619 Y139.801 E3439.67974
G0 F10500 X129.686 Y139.302
G1 F2100 X105.58 Y115.197 E3456.68748
G0 F10500 X105.661 Y114.712
G1 F2100 X129.79 Y138.841 E3473.71179
G0 F10500 X129.904 Y138.389
G1 F2100 X105.742 Y114.227 E3490.75939
G0 F10500 X105.822 Y113.742
G1 F2100 X130.017 Y137.936 E3507.82991
G0 F10500 X130.13 Y137.484
G1 F2100 X105.902 Y113.256 E3524.92407
G0 F10500 X105.983 Y112.771
G1 F2100 X130.244 Y137.033 E3542.04187
G0 F10500 X130.357 Y136.58
G1 F2100 X106.063 Y112.286 E3559.1826
G0 F10500 X106.144 Y111.801
G1 F2100 X130.471 Y136.128 E3576.34662
G0 F10500 X130.584 Y135.676
G1 F2100 X106.225 Y111.316 E3593.53356
G0 F10500 X106.305 Y110.831
G1 F2100 X130.692 Y135.217 E3610.73955
G0 F10500 X130.776 Y134.736
G1 F2100 X106.385 Y110.345 E3627.94872
G0 F10500 X106.515 Y109.909
G1 F2100 X130.782 Y134.176 E3645.0704
G0 F10500 X130.786 Y133.614
G1 F2100 X106.648 Y109.477 E3662.10071
G0 F10500 X106.785 Y109.048
G1 F2100 X130.791 Y133.054 E3679.03824
G0 F10500 X130.795 Y132.492
G1 F2100 X106.927 Y108.624 E3695.8784
G0 F10500 X107.069 Y108.2
G1 F2100 X130.8 Y131.931 E3712.6219
G0 F10500 X130.804 Y131.37
G1 F2100 X107.211 Y107.777 E3729.26804
G0 F10500 X107.352 Y107.352
G1 F2100 X130.809 Y130.809 E3745.81822
G0 F10500 X130.814 Y130.248
G1 F2100 X107.495 Y106.929 E3762.27103
G0 F10500 X107.637 Y106.505
G1 F2100 X130.818 Y129.687 E3778.62683
G0 F10500 X130.823 Y129.126
G1 F2100 X107.779 Y106.082 E3794.88562
G0 F10500 X107.92 Y105.658
G1 F2100 X130.828 Y128.565 E3811.0481
G0 F10500 X130.832 Y128.004
G1 F2100 X108.062 Y105.234 E3827.11356
G0 F10500 X108.205 Y104.81
G1 F2100 X130.836 Y127.442 E3843.08131
G0 F10500 X130.82 Y126.86
G1 F2100 X108.346 Y104.386 E3858.93793
G0 F10500 X108.488 Y103.963
G1 F2100 X130.768 Y126.242 E3874.65732
G0 F10500 X130.72 Y125.629
G1 F2100 X108.63 Y103.539 E3890.24301
G0 F10500 X108.772 Y103.115
G1 F2100 X130.674 Y125.017 E3905.69605
G0 F10500 X130.627 Y124.404
G1 F2100 X108.975 Y102.753 E3920.97236
G0 F10500 X109.196 Y102.408
G1 F2100 X130.58 Y123.792 E3936.05992
G0 F10500 X130.534 Y123.18
G1 F2100 X109.418 Y102.064 E3950.9584
G0 F10500 X109.639 Y101.72
G1 F2100 X130.488 Y122.568 E3965.66814
G0 F10500 X130.441 Y121.956
G1 F2100 X109.861 Y101.376 E3980.18844
G0 F10500 X110.083 Y101.032
G1 F2100 X130.394 Y121.343 E3994.51895
G0 F10500 X130.348 Y120.731
G1 F2100 X110.305 Y100.688 E4008.66037
G0 F10500 X110.527 Y100.344
G1 F2100 X130.301 Y120.119 E4022.61235
G0 F10500 X130.254 Y119.506
G1 F2100 X110.748 Y100 E4036.37489
G0 F10500 X110.97 Y99.656
G1 F2100 X130.205 Y118.892 E4049.94657
G0 F10500 X130.084 Y118.204
G1 F2100 X111.192 Y99.313 E4063.27554
G0 F10500 X111.43 Y98.985
G1 F2100 X129.952 Y117.507 E4076.34382
G0 F10500 X129.821 Y116.81
G1 F2100 X111.773 Y98.763 E4089.0773
G0 F10500 X112.116 Y98.54
G1 F2100 X129.689 Y116.113 E4101.476
G0 F10500 X129.558 Y115.416
G1 F2100 X112.459 Y98.317 E4113.54027
G0 F10500 X112.802 Y98.094
G1 F2100 X129.426 Y114.718 E4125.2694
G0 F10500 X129.295 Y114.021
G1 F2100 X113.145 Y97.872 E4136.66374
G0 F10500 X113.488 Y97.649
G1 F2100 X129.162 Y113.323 E4147.7226
G0 F10500 X129.031 Y112.626
G1 F2100 X113.831 Y97.426 E4158.44702
G0 F10500 X114.174 Y97.203
G92 E0
G1 F2100 X128.899 Y111.929 E10.38964
G0 F10500 X128.768 Y111.232
G1 F2100 X114.522 Y96.986 E20.44096
G0 F10500 X114.981 Y96.879
G1 F2100 X128.636 Y110.534 E30.0753
G0 F10500 X128.438 Y109.77
G1 F2100 X115.442 Y96.775 E39.24433
G0 F10500 X115.903 Y96.67
G1 F2100 X128.177 Y108.943 E47.90394
G0 F10500 X127.906 Y108.107
G1 F2100 X116.42 Y96.621 E56.00794
G0 F10500 X116.959 Y96.595
G1 F2100 X127.635 Y107.27 E63.54008
G0 F10500 X127.364 Y106.433
G1 F2100 X117.479 Y96.549 E70.51413
G0 F10500 X118.124 Y96.628
G1 F2100 X127.093 Y105.597 E76.84224
G0 F10500 X126.822 Y104.76
G1 F2100 X118.733 Y96.672 E82.54911
G0 F10500 X119.315 Y96.688
G1 F2100 X126.55 Y103.923 E87.6538
G0 F10500 X126.969 Y103.789
G0 X126.503 Y102.705
G0 X126.124 Y102.931
G1 F2100 X120.041 Y96.848 E91.94568
G0 F10500 X120.136 Y96.42
G0 X120.485 Y96.539
G0 X121.27 Y96.901
G0 X121.026 Y97.268
G1 F2100 X125.218 Y101.459 E94.90301
G0 F10500 X125.591 Y101.224
G0 X124.609 Y99.678
G0 X124.237 Y99.913
G1 F2100 X122.707 Y98.383 E95.98251
G1 F2700 E90.98251
G0 F10500 X122.951 Y98.016
G0 X123.949 Y98.752
G0 X126.625 Y103.025
G0 X128.946 Y110.118
G0 X130.585 Y118.863
G0 X131.219 Y127.092
G0 X131.144 Y134.932
G0 X128.655 Y147.814
G0 X127.117 Y154.879
G0 X126.372 Y157.99
G0 X125.258 Y160.04
G0 X121.355 Y160.666
G0 X117.668 Y160.848
G0 X117.689 Y162.25
G0 X117.411 Y160.881
G1 F2700 E95.98251
G0 F10500 X117.535 Y160.81
;TYPE:SKIN
G1 F2100 X117.69 Y160.965 E96.03719
G0 F10500 X117.432 Y160.989
G1 F2100 X117.695 Y161.253 E96.13015
G0 F10500 X117.427 Y161.267
G1 F2100 X117.7 Y161.54 E96.22645
G0 F10500 X117.422 Y161.545
G1 F2100 X117.704 Y161.828 E96.32611
G0 F10500 X117.417 Y161.823
G1 F2100 X117.709 Y162.116 E96.4293
G0 F10500 X117.581 Y162.271
G1 F2100 X117.412 Y162.102 E96.48892
G1 F2700 E91.48892
G0 F10500 X117.363 Y162.101
G0 X116.989 Y160.825
G0 X113.588 Y160.651
G0 X109.883 Y160.04
G0 X108.758 Y157.99
G0 X107.995 Y154.883
G0 X106.511 Y147.747
G0 X104.025 Y134.691
G0 X103.882 Y131.66
G0 X103.784 Y127.008
G0 X104.605 Y118.79
G0 X106.026 Y110.212
G0 X108.455 Y102.868
G0 X111.112 Y98.74
G0 X114.354 Y96.635
G0 X116.042 Y96.25
G0 X117.342 Y96.198
G0 X117.653 Y95.394
G1 F2700 E96.48892
G0 F10500 X117.563 Y95.219
G1 F2100 X117.588 Y94.961 E96.63068
G1 X117.6 Y94.407 E96.93374
G0 F10500 X117.366 Y95.305
G1 F2100 X117.445 Y95.383 E96.96143
G1 F2700 E91.96143
;MESH:NONMESH
G0 F300 X117.445 Y95.383 Z15.28
G0 F10500 X117.483 Y95.388
G0 X117.341 Y96.179
G0 X116.042 Y96.25
G0 X114.354 Y96.635
G0 X111.112 Y98.74
G0 X108.455 Y102.868
G0 X106.026 Y110.212
G0 X104.605 Y118.79
G0 X103.784 Y127.008
G0 X103.882 Y131.66
G0 X104.025 Y134.691
G0 X106.512 Y147.748
G0 X108.27 Y156.007
G0 X108.758 Y157.99
G0 X109.883 Y160.04
G0 X113.588 Y160.651
G0 X117.048 Y160.829
G0 X117.433 Y162.25
G0 X117.484 Y163.899
G0 X117.602 Y166.446
G1 F2700 E96.96143
G0 F10500 X117.663 Y166.444
;TIME_ELAPSED:397.516183
;LAYER:5
;TYPE:WALL-OUTER
;MESH:Boat.stl
G1 F2100 X117.458 Y166.443 E97.06371
G1 X117.395 Y166.364 E97.11412
G1 X117.399 Y165.93 E97.33065
G1 X117.398 Y165.83 E97.38054
G1 X117.27 Y164.336 E98.12863
G1 X117.863 Y164.336 E98.42448
G1 X117.743 Y165.908 E99.21104
G1 X117.758 Y166.324 E99.41872
G1 X117.663 Y166.444 E99.49508
G0 F10500 X117.572 Y166.254
G0 X117.495 Y165.279
G0 X117.573 Y165.268
;TYPE:SKIN
G1 F2100 X117.574 Y164.985 E99.56739
G1 X117.575 Y164.701 E99.63996
G1 F2700 E94.63996
G0 F10500 X117.643 Y164.608
G0 X117.395 Y164.456
G0 X116.401 Y164.201
G0 X115.941 Y164.2
G0 X112.294 Y163.698
G0 X106.751 Y162.835
G0 X103.391 Y145.88
G0 X102.793 Y140.038
G0 X102.327 Y134.912
G0 X102.275 Y127.045
G0 X102.98 Y118.436
G0 X104.362 Y109.207
G0 X106.88 Y101.383
G0 X109.981 Y96.558
G0 X113.253 Y94.415
G0 X116.376 Y92.611
G0 X117.346 Y92.719
G1 F2700 E99.63996
G0 F10500 X117.219 Y92.855
;TYPE:WALL-OUTER
G1 F2100 X117.26 Y92.494 E99.82123
G1 X117.716 Y92.494 E100.04873
G1 X117.751 Y92.802 E100.20338
G1 X117.562 Y92.793 E100.29778
G1 X117.219 Y92.855 E100.47167
G1 F2700 E95.47167
G0 F10500 X117.395 Y92.62
G0 X116.376 Y92.611
G0 X115.597 Y93.793
G0 X115.966 Y95.195
G0 X114.162 Y95.536
G0 X111.014 Y97.6
G0 X108.192 Y101.994
G0 X105.762 Y109.542
G0 X104.406 Y118.598
G0 X103.71 Y127.085
G0 X103.762 Y134.848
G0 X104.421 Y142.044
G0 X104.807 Y145.62
G0 X107.981 Y161.561
G0 X117.214 Y162.947
;TYPE:WALL-INNER
G1 F2700 E100.47167
G1 F2100 X117.219 Y162.671 E100.60939
G1 X113.546 Y162.503 E102.44377
G1 X112.434 Y162.44 E102.99944
G1 X109.734 Y161.993 E104.36481
G1 X107.828 Y161.72 E105.32543
G1 X107.478 Y159.764 E106.31678
G1 X106.775 Y155.774 E108.33806
G1 X106.14 Y151.538 E110.47502
G1 X105.346 Y148.304 E112.13639
G1 X104.639 Y145.65 E113.50665
G1 X104.251 Y142.063 E115.30665
G1 X104.051 Y139.922 E116.37945
G1 X103.591 Y134.857 E118.91679
G1 X103.539 Y127.087 E122.79334
G1 X104.237 Y118.572 E127.05574
G1 X105.037 Y113.033 E129.84783
G1 X105.596 Y109.498 E131.63337
G1 X106.999 Y105.187 E133.89517
G1 X108.036 Y101.92 E135.60522
G1 X109.436 Y99.695 E136.91674
G1 X110.891 Y97.475 E138.24098
G1 X112.229 Y96.614 E139.03478
G1 X114.097 Y95.374 E140.15337
G1 X115.432 Y95.134 E140.83008
G1 X116.178 Y94.954 E141.21294
G1 X116.152 Y95.184 E141.32842
G1 X116.208 Y96.384 E141.92776
G1 X117.321 Y96.414 E142.48324
G1 X117.45 Y95.163 E143.11067
G1 X117.5 Y94.69 E143.34797
G1 X117.573 Y94.709 E143.3856
G1 X117.672 Y95.185 E143.47962
G1 X118.742 Y95.017 E144.01998
G1 X119.754 Y95.283 E144.54202
G1 X121.152 Y95.549 E145.252
G1 X122.641 Y96.532 E146.14215
G1 X124.178 Y97.52 E147.05372
G1 X125.535 Y99.639 E148.30909
G1 X126.984 Y101.99 E149.68689
G1 X128.06 Y105.422 E151.48131
G1 X129.388 Y109.672 E153.70274
G1 X130.04 Y113.368 E155.57515
G1 X130.932 Y118.592 E158.21914
G1 X131.587 Y127.085 E162.4689
G1 X131.547 Y130.214 E164.03009
G1 X131.496 Y134.842 E166.33915
G1 X130.928 Y142.15 E169.99612
G1 X130.404 Y145.794 E171.83282
G1 X129.827 Y148.481 E173.20393
G1 X129.185 Y150.275 E174.15454
G1 X128.437 Y155.746 E176.90943
G1 X127.78 Y159.304 E178.71453
G1 X127.329 Y161.722 E179.94168
G1 X125.371 Y162.011 E180.92911
G1 X122.569 Y162.421 E182.34192
G1 X120.945 Y162.489 E183.15285
G1 X117.903 Y162.648 E184.67258
G1 X117.908 Y162.947 E184.82177
G1 X117.214 Y162.947 E185.16801
G0 F10500 X116.812 Y163.053
;TYPE:WALL-OUTER
G1 F2100 X113.528 Y162.902 E186.80814
G1 X112.384 Y162.837 E187.3798
G1 X109.673 Y162.388 E188.75075
G1 X107.485 Y162.075 E189.85346
G1 X107.084 Y159.834 E190.98926
G1 X106.379 Y155.833 E193.01612
G1 X105.747 Y151.616 E195.14348
G1 X104.958 Y148.403 E196.79408
G1 X104.244 Y145.724 E198.17729
G1 X103.854 Y142.106 E199.99278
G1 X103.653 Y139.959 E201.0686
G1 X103.191 Y134.872 E203.61696
G1 X103.139 Y127.068 E207.51048
G1 X103.838 Y118.539 E211.77988
G1 X104.642 Y112.971 E214.58658
G1 X105.206 Y109.405 E216.38778
G1 X106.618 Y105.065 E218.66472
G1 X107.671 Y101.748 E220.40097
G1 X109.101 Y99.476 E221.7403
G1 X110.603 Y97.185 E223.10703
G1 X112.01 Y96.279 E223.94192
G1 X113.946 Y94.994 E225.10119
G1 X115.35 Y94.742 E225.81285
G1 X116.639 Y94.431 E226.47438
G1 X116.553 Y95.197 E226.85894
G1 X116.59 Y95.994 E227.257
G1 X116.961 Y96.004 E227.44216
G1 X117.137 Y94.31 E228.29185
G1 X117.393 Y94.248 E228.42326
G1 X117.914 Y94.385 E228.69202
G1 X117.986 Y94.731 E228.86834
G1 X118.363 Y94.672 E229.05871
G1 X118.344 Y94.499 E229.14554
G1 X119.842 Y94.893 E229.91832
G1 X121.305 Y95.171 E230.66127
G1 X122.859 Y96.197 E231.5903
G1 X124.469 Y97.232 E232.54519
G1 X125.871 Y99.423 E233.84292
G1 X127.352 Y101.825 E235.25076
G1 X128.442 Y105.302 E237.06868
G1 X129.777 Y109.575 E239.30211
G1 X130.434 Y113.298 E241.18822
G1 X131.33 Y118.549 E243.84582
G1 X131.987 Y127.07 E248.10958
G1 X131.947 Y130.219 E249.68075
G1 X131.896 Y134.862 E251.99729
G1 X131.326 Y142.192 E255.66529
G1 X130.798 Y145.862 E257.51511
G1 X130.212 Y148.595 E258.9096
G1 X129.576 Y150.371 E259.85075
G1 X128.83 Y155.819 E262.59413
G1 X128.173 Y159.377 E264.39923
G1 X127.67 Y162.076 E265.76895
G1 X125.429 Y162.407 E266.89912
G1 X122.605 Y162.82 E268.32301
G1 X120.964 Y162.889 E269.14243
G1 X118.309 Y163.027 E270.4688
G1 X118.314 Y163.347 E270.62847
G1 X116.807 Y163.347 E271.38032
G1 X116.812 Y163.053 E271.52702
G0 F10500 X116.821 Y162.855
G0 X117.361 Y162.539
G0 X117.507 Y162.294
;TYPE:SKIN
G1 F2100 X113.568 Y162.113 E273.49426
G1 X112.465 Y162.05 E274.04545
G1 X109.794 Y161.607 E275.39622
G1 X108.163 Y161.374 E276.21819
G1 X107.862 Y159.695 E277.0692
G1 X107.159 Y155.705 E279.09048
G1 X106.523 Y151.462 E281.23097
G1 X105.724 Y148.207 E282.90311
G1 X105.024 Y145.58 E284.25945
G1 X104.639 Y142.021 E286.04541
G1 X104.439 Y139.885 E287.11572
G1 X103.981 Y134.836 E289.64502
G1 X103.929 Y127.085 E293.5121
G1 X104.623 Y118.628 E297.74549
G1 X105.423 Y113.094 E300.53512
G1 X105.978 Y109.586 E302.30703
G1 X107.37 Y105.306 E304.55243
G1 X108.394 Y102.084 E306.23912
G1 X109.762 Y99.909 E307.52102
G1 X111.171 Y97.758 E308.8039
G1 X112.442 Y96.94 E309.55798
G1 X114.245 Y95.743 E310.63768
G1 X115.512 Y95.516 E311.27986
G1 X115.774 Y95.453 E311.4143
G1 X115.835 Y96.764 E312.06906
G1 X117.672 Y96.814 E312.98589
G1 X117.802 Y95.559 E313.61536
G1 X118.724 Y95.415 E314.08092
G1 X119.668 Y95.663 E314.56787
G1 X121 Y95.917 E315.24438
G1 X122.428 Y96.859 E316.09786
G1 X123.896 Y97.802 E316.96834
G1 X125.203 Y99.844 E318.1779
G1 X126.627 Y102.154 E319.53175
G1 X127.688 Y105.539 E321.30155
G1 X129.008 Y109.764 E323.50989
G1 X129.656 Y113.434 E325.36918
G1 X130.546 Y118.645 E328.0066
G1 X131.197 Y127.08 E332.22736
G1 X131.157 Y130.209 E333.78855
G1 X131.106 Y134.83 E336.09411
G1 X130.542 Y142.095 E339.72954
G1 X130.022 Y145.712 E341.55263
G1 X129.448 Y148.381 E342.91464
G1 X128.804 Y150.182 E343.86888
G1 X128.053 Y155.675 E346.63484
G1 X127.396 Y159.233 E348.43994
G1 X126.996 Y161.377 E349.52805
G1 X125.314 Y161.625 E350.37627
G1 X122.534 Y162.031 E351.77793
G1 X120.927 Y162.099 E352.58039
G1 X117.507 Y162.278 E354.28897
G1 X117.507 Y162.294 E354.29695
G0 F10500 X117.361 Y162.539
G0 X117.723 Y162.765
G0 X120.46 Y162.474
G0 X126.734 Y161.698
G0 X126.671 Y161.262
G1 F2100 X126.895 Y161.038 E354.45499
G0 F10500 X127.025 Y160.342
G1 F2100 X126.007 Y161.361 E355.1736
G0 F10500 X125.343 Y161.458
G1 F2100 X127.154 Y159.647 E356.45136
G0 F10500 X127.284 Y158.952
G1 F2100 X124.681 Y161.555 E358.28792
G0 F10500 X124.019 Y161.651
G1 F2100 X127.412 Y158.258 E360.68186
G0 F10500 X127.54 Y157.564
G1 F2100 X123.356 Y161.748 E363.6339
G0 F10500 X122.695 Y161.844
G1 F2100 X127.668 Y156.87 E367.14297
G0 F10500 X127.796 Y156.177
G1 F2100 X122.084 Y161.889 E371.1731
G0 F10500 X121.494 Y161.914
G1 F2100 X127.916 Y155.492 E375.70416
G0 F10500 X128.006 Y154.836
G1 F2100 X120.903 Y161.939 E380.71571
G0 F10500 X120.306 Y161.97
G1 F2100 X128.095 Y154.181 E386.21127
G0 F10500 X128.185 Y153.526
G1 F2100 X119.709 Y162.001 E392.1912
G0 F10500 X119.112 Y162.032
G1 F2100 X128.274 Y152.87 E398.65548
G0 F10500 X128.364 Y152.215
G1 F2100 X118.515 Y162.064 E405.60448
G0 F10500 X117.918 Y162.095
G1 F2100 X128.453 Y151.56 E413.0375
G0 F10500 X128.543 Y150.905
G1 F2100 X117.323 Y162.124 E420.95346
G0 F10500 X116.782 Y162.099
G1 F2100 X128.633 Y150.249 E429.31463
G0 F10500 X128.911 Y149.406
G1 F2100 X116.241 Y162.075 E438.25364
G0 F10500 X115.701 Y162.05
G1 F2100 X129.225 Y148.525 E447.79591
G0 F10500 X129.413 Y147.771
G1 F2100 X115.16 Y162.025 E457.85252
G0 F10500 X114.619 Y162
G1 F2100 X129.568 Y147.051 E468.39985
G0 F10500 X129.724 Y146.33
G1 F2100 X114.078 Y161.975 E479.43859
G0 F10500 X113.538 Y161.95
G1 F2100 X129.873 Y145.615 E490.96382
G0 F10500 X129.968 Y144.954
G1 F2100 X113.003 Y161.919 E502.93354
G0 F10500 X112.468 Y161.888
G1 F2100 X130.063 Y144.293 E515.34777
G0 F10500 X130.158 Y143.633
G1 F2100 X111.983 Y161.807 E528.17086
G0 F10500 X111.498 Y161.727
G1 F2100 X130.254 Y142.972 E541.40388
G0 F10500 X130.348 Y142.311
G1 F2100 X111.013 Y161.646 E555.04576
G0 F10500 X110.528 Y161.566
G1 F2100 X130.413 Y141.68 E569.07606
G0 F10500 X130.461 Y141.067
G1 F2100 X110.043 Y161.485 E583.48206
G0 F10500 X109.553 Y161.409
G1 F2100 X130.509 Y140.454 E598.2673
G0 F10500 X130.556 Y139.84
G1 F2100 X109.058 Y161.339 E613.43565
G0 F10500 X108.563 Y161.268
G1 F2100 X130.604 Y139.227 E628.98676
G0 F10500 X130.652 Y138.614
G1 F2100 X108.26 Y161.005 E644.78518
G0 F10500 X108.174 Y160.525
G1 F2100 X130.699 Y138.001 E660.67743
G0 F10500 X130.747 Y137.387
G1 F2100 X108.089 Y160.045 E676.66387
G0 F10500 X108.003 Y159.565
G1 F2100 X130.794 Y136.774 E692.74415
G0 F10500 X130.842 Y136.161
G1 F2100 X107.918 Y159.084 E708.91792
G0 F10500 X107.833 Y158.604
G1 F2100 X130.89 Y135.547 E725.18588
G0 F10500 X130.937 Y134.934
G1 F2100 X107.748 Y158.123 E741.54697
G0 F10500 X107.664 Y157.642
G1 F2100 X130.951 Y134.355 E757.97721
G0 F10500 X130.957 Y133.783
G1 F2100 X107.579 Y157.16 E774.4713
G0 F10500 X107.495 Y156.68
G1 F2100 X130.963 Y133.211 E791.02959
G0 F10500 X130.969 Y132.639
G1 F2100 X107.41 Y156.199 E807.65209
G0 F10500 X107.325 Y155.718
G1 F2100 X130.975 Y132.067 E824.3388
G0 F10500 X130.982 Y131.495
G1 F2100 X107.25 Y155.227 E841.083
G0 F10500 X107.176 Y154.735
G1 F2100 X130.987 Y130.924 E857.88295
G0 F10500 X130.994 Y130.352
G1 F2100 X107.102 Y154.244 E874.74005
G0 F10500 X107.028 Y153.752
G1 F2100 X131.001 Y129.779 E891.65429
G0 F10500 X131.008 Y129.206
G1 F2100 X106.954 Y153.26 E908.62569
G0 F10500 X106.88 Y152.769
G1 F2100 X131.016 Y128.633 E925.65494
G0 F10500 X131.023 Y128.06
G1 F2100 X106.806 Y152.277 E942.74134
G0 F10500 X106.732 Y151.785
G1 F2100 X131.03 Y127.487 E959.88489
G0 F10500 X131.024 Y126.928
G1 F2100 X106.648 Y151.303 E977.08312
G0 F10500 X106.536 Y150.849
G1 F2100 X130.983 Y126.403 E994.33145
G0 F10500 X130.943 Y125.877
G1 F2100 X106.425 Y150.395 E1011.63022
G0 F10500 X106.314 Y149.941
G1 F2100 X130.902 Y125.353 E1028.97839
G0 F10500 X130.862 Y124.827
G1 F2100 X106.202 Y149.487 E1046.37735
G0 F10500 X106.091 Y149.032
G1 F2100 X130.821 Y124.302 E1063.8257
G0 F10500 X130.781 Y123.776
G1 F2100 X105.979 Y148.578 E1081.32485
G0 F10500 X105.868 Y148.124
G1 F2100 X130.74 Y123.252 E1098.87339
G0 F10500 X130.7 Y122.726
G1 F2100 X105.749 Y147.677 E1116.47767
G0 F10500 X105.63 Y147.23
G1 F2100 X130.659 Y122.201 E1134.13698
G0 F10500 X130.619 Y121.676
G1 F2100 X105.51 Y146.784 E1151.85238
G0 F10500 X105.392 Y146.337
G1 F2100 X130.578 Y121.151 E1169.62246
G0 F10500 X130.538 Y120.626
G1 F2100 X105.273 Y145.89 E1187.44793
G0 F10500 X105.17 Y145.428
G1 F2100 X130.497 Y120.1 E1205.31785
G0 F10500 X130.456 Y119.575
G1 F2100 X105.114 Y144.918 E1223.19836
G0 F10500 X105.059 Y144.408
G1 F2100 X130.416 Y119.05 E1241.08944
G0 F10500 X130.365 Y118.536
G1 F2100 X105.003 Y143.897 E1258.98335
G0 F10500 X104.948 Y143.387
G1 F2100 X130.282 Y118.053 E1276.85785
G0 F10500 X130.199 Y117.57
G1 F2100 X104.893 Y142.876 E1294.7126
G0 F10500 X104.837 Y142.366
G1 F2100 X130.116 Y117.087 E1312.5483
G0 F10500 X130.034 Y116.604
G1 F2100 X104.784 Y141.854 E1330.36354
G0 F10500 X104.735 Y141.337
G1 F2100 X129.951 Y116.121 E1348.15479
G0 F10500 X129.868 Y115.638
G1 F2100 X104.687 Y140.82 E1365.9217
G0 F10500 X104.638 Y140.303
G1 F2100 X129.785 Y115.155 E1383.66462
G0 F10500 X129.703 Y114.672
G1 F2100 X104.59 Y139.785 E1401.3832
G0 F10500 X104.543 Y139.266
G1 F2100 X129.621 Y114.189 E1419.07673
G0 F10500 X129.538 Y113.706
G1 F2100 X104.496 Y138.748 E1436.74521
G0 F10500 X104.449 Y138.229
G1 F2100 X129.454 Y113.224 E1454.38759
G0 F10500 X129.369 Y112.743
G1 F2100 X104.402 Y137.711 E1472.00351
G0 F10500 X104.355 Y137.192
G1 F2100 X129.284 Y112.263 E1489.59227
G0 F10500 X129.199 Y111.782
G1 F2100 X104.308 Y136.673 E1507.15421
G0 F10500 X104.261 Y136.154
G1 F2100 X129.115 Y111.3 E1524.69005
G0 F10500 X129.03 Y110.819
G1 F2100 X104.214 Y135.635 E1542.19908
G0 F10500 X104.168 Y135.116
G1 F2100 X128.945 Y110.339 E1559.68059
G0 F10500 X128.861 Y109.858
G1 F2100 X104.139 Y134.579 E1577.12294
G0 F10500 X104.136 Y134.017
G1 F2100 X128.731 Y109.421 E1594.4764
G0 F10500 X128.597 Y108.99
G1 F2100 X104.132 Y133.455 E1611.73778
G0 F10500 X104.128 Y132.893
G1 F2100 X128.462 Y108.559 E1628.90673
G0 F10500 X128.327 Y108.128
G1 F2100 X104.125 Y132.331 E1645.9829
G0 F10500 X104.12 Y131.77
G1 F2100 X128.193 Y107.697 E1662.9677
G0 F10500 X128.058 Y107.266
G1 F2100 X104.117 Y131.207 E1679.85937
G0 F10500 X104.113 Y130.645
G1 F2100 X127.924 Y106.835 E1696.65896
G0 F10500 X127.789 Y106.404
G1 F2100 X104.109 Y130.084 E1713.36648
G0 F10500 X104.105 Y129.522
G1 F2100 X127.654 Y105.973 E1729.98157
G0 F10500 X127.519 Y105.542
G1 F2100 X104.101 Y128.96 E1746.50424
G0 F10500 X104.098 Y128.398
G1 F2100 X127.385 Y105.111 E1762.93447
G0 F10500 X127.25 Y104.68
G1 F2100 X104.094 Y127.836 E1779.27228
G0 F10500 X104.09 Y127.274
G1 F2100 X127.115 Y104.25 E1795.51731
G0 F10500 X126.98 Y103.819
G1 F2100 X104.122 Y126.677 E1811.64486
G0 F10500 X104.173 Y126.06
G1 F2100 X126.845 Y103.388 E1827.64119
G0 F10500 X126.71 Y102.957
G1 F2100 X104.223 Y125.444 E1843.50698
G0 F10500 X104.274 Y124.828
G1 F2100 X126.575 Y102.526 E1859.24189
G0 F10500 X126.417 Y102.118
G1 F2100 X104.324 Y124.212 E1874.83005
G0 F10500 X104.375 Y123.595
G1 F2100 X126.201 Y101.769 E1890.22947
G0 F10500 X125.985 Y101.419
G1 F2100 X104.425 Y122.98 E1905.44157
G0 F10500 X104.476 Y122.363
G1 F2100 X125.77 Y101.069 E1920.46563
G0 F10500 X125.554 Y100.719
G1 F2100 X104.526 Y121.747 E1935.30202
G0 F10500 X104.577 Y121.13
G1 F2100 X125.338 Y100.369 E1949.95003
G0 F10500 X125.122 Y100.02
G1 F2100 X104.627 Y120.515 E1964.41036
G0 F10500 X104.678 Y119.898
G1 F2100 X124.903 Y99.673 E1978.68019
G0 F10500 X124.682 Y99.328
G1 F2100 X104.728 Y119.282 E1992.75882
G0 F10500 X104.779 Y118.665
G1 F2100 X124.461 Y98.984 E2006.64518
G0 F10500 X124.24 Y98.639
G1 F2100 X104.873 Y118.006 E2020.30964
G0 F10500 X104.97 Y117.344
G1 F2100 X124.02 Y98.294 E2033.75045
G0 F10500 X123.798 Y97.949
G1 F2100 X105.065 Y116.683 E2046.96794
G0 F10500 X105.16 Y116.022
G1 F2100 X123.466 Y97.716 E2059.88381
G0 F10500 X123.122 Y97.495
G1 F2100 X105.257 Y115.36 E2072.48854
G0 F10500 X105.352 Y114.699
G1 F2100 X122.777 Y97.273 E2084.78317
G0 F10500 X122.433 Y97.052
G1 F2100 X105.448 Y114.037 E2096.767
G0 F10500 X105.544 Y113.376
G1 F2100 X122.091 Y96.829 E2108.4418
G0 F10500 X121.75 Y96.604
G1 F2100 X105.645 Y112.708 E2119.8044
G0 F10500 X105.752 Y112.036
G1 F2100 X121.409 Y96.379 E2130.85126
G0 F10500 X121.068 Y96.154
G1 F2100 X105.858 Y111.364 E2141.58273
G0 F10500 X105.964 Y110.692
G1 F2100 X120.645 Y96.011 E2151.94097
G0 F10500 X120.17 Y95.921
G1 F2100 X106.071 Y110.02 E2161.88858
G0 F10500 X106.244 Y109.281
G1 F2100 X119.695 Y95.83 E2171.37899
G0 F10500 X119.243 Y95.716
G1 F2100 X106.517 Y108.443 E2180.35822
G0 F10500 X106.79 Y107.604
G1 F2100 X117.427 Y96.967 E2187.8632
G0 F10500 X116.876 Y96.952
G1 F2100 X107.062 Y106.766 E2194.7875
G0 F10500 X107.334 Y105.928
G1 F2100 X116.326 Y96.937 E2201.13149
G0 F10500 X115.775 Y96.922
G1 F2100 X107.604 Y105.093 E2206.89657
G0 F10500 X107.868 Y104.263
G1 F2100 X115.66 Y96.471 E2212.39425
G0 F10500 X115.634 Y95.931
G1 F2100 X108.132 Y103.433 E2217.68732
G0 F10500 X108.396 Y102.604
G1 F2100 X115.28 Y95.72 E2222.54435
G0 F10500 X114.592 Y95.842
G1 F2100 X108.973 Y101.461 E2226.50886
G0 F10500 X108.603 Y101.227
G0 X109.572 Y99.691
G0 X109.937 Y99.931
G1 F2100 X113.325 Y96.544 E2228.89892
G0 F10500 X113.084 Y96.179
G0 X111.455 Y97.243
G0 X111.691 Y97.611
G1 F2100 X111.011 Y98.292 E2229.37905
G0 F10500 X110.646 Y98.052
G0 X111.014 Y97.6
G0 X114.162 Y95.536
G0 X115.966 Y95.195
G0 X116.003 Y95.969
G0 X117.425 Y96.488
G0 X117.861 Y96.533
G1 F2100 X118.796 Y95.598 E2230.03875
G0 F10500 X118.165 Y95.663
G1 F2100 X117.927 Y95.902 E2230.20702
G1 F2700 E2225.20702
G0 F10500 X117.49 Y95.856
G0 X116.445 Y96.568
G0 X115.966 Y95.195
G0 X114.162 Y95.536
G0 X111.014 Y97.6
G0 X108.192 Y101.994
G0 X105.762 Y109.542
G0 X104.406 Y118.598
G0 X103.71 Y127.085
G0 X103.762 Y134.848
G0 X104.421 Y142.044
G0 X104.807 Y145.62
G0 X107.981 Y161.561
G0 X112.448 Y162.269
G0 X117.361 Y162.539
G1 F2700 E2230.20702
G0 F10500 X117.544 Y162.469
;TYPE:SKIN
G1 F2100 X117.379 Y162.634 E2230.26523
G0 F10500 X117.51 Y162.786
G1 F2100 X117.741 Y162.556 E2230.34654
G1 F2700 E2225.34654
G0 F10500 X117.792 Y162.556
G0 X122.551 Y162.25
G0 X127.177 Y161.564
G0 X130.235 Y145.771
G0 X130.759 Y142.124
G0 X131.325 Y134.838
G0 X131.416 Y127.081
G0 X130.763 Y118.617
G0 X129.221 Y109.71
G0 X126.828 Y102.063
G0 X124.055 Y97.645
G0 X121.086 Y95.71
G0 X118.681 Y94.864
G1 F2700 E2230.34654
G1 F2100 X118.755 Y94.791 E2230.37247
G0 F10500 X118.633 Y94.841
G1 F2700 E2225.37247
;MESH:NONMESH
G0 F300 X118.633 Y94.841 Z18.28
G0 F10500 X121.086 Y95.71
G0 X124.055 Y97.645
G0 X126.828 Y102.063
G0 X129.221 Y109.71
G0 X130.763 Y118.617
G0 X131.416 Y127.081
G0 X131.325 Y134.838
G0 X130.759 Y142.124
G0 X130.235 Y145.771
G0 X127.177 Y161.564
G0 X122.551 Y162.25
G0 X117.719 Y162.476
G0 X117.69 Y164.456
G0 X117.548 Y166.064
G1 F2700 E2230.37247
G0 F10500 X117.445 Y166.061
;TIME_ELAPSED:545.486880
;LAYER:6
;TYPE:WALL-OUTER
;MESH:Boat.stl
G1 F2100 X117.285 Y165.899 E2230.48607
G1 X117.305 Y165.308 E2230.78109
G1 X117.27 Y164.895 E2230.98788
G1 X117.879 Y164.895 E2231.29171
G1 X117.92 Y165.661 E2231.67441
G1 X117.911 Y165.819 E2231.75337
G1 X117.675 Y166.06 E2231.92165
G1 X117.445 Y166.061 E2232.0364
G0 F10500 X117.49 Y165.856
;TYPE:SKIN
G1 F2100 X117.585 Y165.669 E2232.11002
G1 X117.636 Y165.154 E2232.29166
G1 F2700 E2227.29166
G0 F10500 X117.696 Y165.239
G0 X117.581 Y165.015
G0 X118.733 Y164.885
G0 X122.91 Y164.697
G0 X128.546 Y163.948
G0 X129.214 Y161.909
G0 X129.704 Y160.009
G0 X130.21 Y157.061
G0 X131.977 Y142.616
G0 X132.782 Y135.022
G0 X132.672 Y128.719
G0 X132.296 Y123.464
G0 X131.788 Y118.248
G0 X130.333 Y108.794
G0 X128.501 Y102.879
G0 X127.629 Y100.73
G0 X124.724 Y95.902
G0 X118.492 Y90.498
G0 X116.49 Y90.501
G0 X116.326 Y91.994
G0 X117.296 Y92.099
G0 X117.581 Y92.01
G1 F2700 E2232.29166
G0 F10500 X117.802 Y92.196
;TYPE:WALL-OUTER
G1 F2100 X117.769 Y92.158 E2232.31676
G1 X117.404 Y92.211 E2232.50077
G1 X117.171 Y92.213 E2232.61702
G1 X117.221 Y91.759 E2232.84489
G1 X117.262 Y91.354 E2233.04798
G1 X117.712 Y91.353 E2233.27249
G1 X117.802 Y92.196 E2233.69545
G1 F2700 E2228.69545
G0 F10500 X117.581 Y92.01
G0 X117.296 Y92.099
G0 X116.326 Y91.994
G0 X115.73 Y93.401
G0 X115.999 Y94.823
G0 X114.385 Y95.083
G0 X111.417 Y97.023
G0 X108.505 Y101.334
G0 X106.158 Y108.918
G0 X104.786 Y118.363
G0 X103.894 Y128.609
G0 X103.945 Y134.868
G0 X105.307 Y149.042
G0 X106.391 Y157.127
G0 X106.871 Y159.83
G0 X107.588 Y162.753
G0 X111.793 Y163.394
G0 X115.216 Y163.726
;TYPE:WALL-INNER
G1 F2700 E2233.69545
G1 F2100 X112.244 Y163.637 E2235.17885
G1 X109.829 Y163.231 E2236.40061
G1 X107.447 Y162.914 E2237.59947
G1 X107.194 Y161.951 E2238.09622
G1 X106.703 Y159.859 E2239.16828
G1 X106.209 Y157.134 E2240.54995
G1 X106.158 Y156.816 E2240.71063
G1 X106.068 Y156.096 E2241.07263
G1 X105.138 Y149.066 E2244.61047
G1 X104.721 Y143.5 E2247.39514
G1 X104.653 Y142.663 E2247.8141
G1 X104.117 Y137.051 E2250.62668
G1 X103.774 Y134.88 E2251.72323
G1 X103.723 Y128.603 E2254.85494
G1 X103.859 Y127.101 E2255.60736
G1 X103.879 Y126.85 E2255.73298
G1 X104.617 Y118.339 E2259.99507
G1 X104.718 Y117.591 E2260.37163
G1 X105.982 Y108.921 E2264.74284
G1 X105.994 Y108.871 E2264.76849
G1 X106.401 Y107.428 E2265.5165
G1 X107.525 Y104.109 E2267.26473
G1 X108.351 Y101.247 E2268.75086
G1 X109.211 Y100.306 E2269.38686
G1 X110.425 Y98.421 E2270.50545
G1 X111.173 Y97.083 E2271.27021
G1 X111.293 Y96.899 E2271.3798
G1 X114.32 Y94.92 E2273.18409
G1 X116.173 Y94.608 E2274.12157
G1 X116.206 Y95.341 E2274.48763
G1 X117.288 Y95.404 E2275.02836
G1 X117.449 Y94.393 E2275.5391
G1 X117.595 Y94.369 E2275.61292
G1 X117.735 Y95.038 E2275.82148
G1 X117.818 Y95.435 E2276.02383
G1 X118.948 Y95.252 E2276.59493
G1 X118.863 Y94.497 E2276.97398
G1 X120.563 Y94.895 E2277.84505
G1 X122.923 Y96.413 E2279.24499
G1 X123.572 Y96.783 E2279.6177
G1 X123.845 Y96.9 E2279.76589
G1 X125.95 Y100.496 E2281.84471
G1 X126.505 Y101.323 E2282.3416
G1 X127.31 Y103.304 E2283.40841
G1 X129.094 Y109.069 E2286.41915
G1 X129.199 Y109.799 E2286.78709
G1 X130.533 Y118.408 E2291.1334
G1 X130.68 Y120.051 E2291.95637
G1 X131.035 Y123.558 E2293.71496
G1 X131.263 Y127.095 E2295.48324
G1 X131.408 Y128.783 E2296.32849
G1 X131.516 Y134.898 E2299.37975
G1 X131.015 Y137.175 E2300.54292
G1 X130.718 Y142.498 E2303.20271
G1 X130.435 Y144.883 E2304.40094
G1 X129.937 Y149.153 E2306.54569
G1 X128.957 Y156.888 E2310.43554
G1 X128.883 Y157.363 E2310.67538
G1 X128.468 Y159.738 E2311.87823
G1 X128.001 Y161.55 E2312.81178
G1 X127.607 Y162.768 E2313.45044
G1 X127.371 Y162.788 E2313.56861
G1 X123.267 Y163.362 E2315.63603
G1 X122.796 Y163.435 E2315.87382
G1 X122.33 Y163.449 E2316.10641
G1 X117.543 Y163.691 E2318.4977
G1 X115.216 Y163.726 E2319.65878
G0 F10500 X115.21 Y164.126
;TYPE:WALL-OUTER
G1 F2100 X112.21 Y164.036 E2321.15616
G1 X109.77 Y163.627 E2322.39046
G1 X107.128 Y163.276 E2323.72015
G1 X106.807 Y162.052 E2324.35145
G1 X106.309 Y159.93 E2325.43889
G1 X105.815 Y157.205 E2326.82055
G1 X105.763 Y156.879 E2326.98525
G1 X105.671 Y156.147 E2327.35332
G1 X104.741 Y149.118 E2330.89066
G1 X104.322 Y143.531 E2333.68586
G1 X104.255 Y142.698 E2334.10278
G1 X103.72 Y137.101 E2336.90787
G1 X103.374 Y134.912 E2338.01352
G1 X103.323 Y128.59 E2341.16768
G1 X103.46 Y127.067 E2341.93058
G1 X103.48 Y126.815 E2342.0567
G1 X104.219 Y118.304 E2346.31883
G1 X104.322 Y117.533 E2346.7069
G1 X105.589 Y108.845 E2351.08721
G1 X105.609 Y108.762 E2351.1298
G1 X106.016 Y107.319 E2351.87781
G1 X107.143 Y103.989 E2353.63172
G1 X107.993 Y101.046 E2355.16
G1 X108.893 Y100.061 E2355.82566
G1 X110.082 Y98.215 E2356.92114
G1 X110.834 Y96.87 E2357.68992
G1 X111.004 Y96.61 E2357.8449
G1 X114.169 Y94.54 E2359.73166
G1 X116.556 Y94.138 E2360.93931
G1 X116.553 Y94.168 E2360.95435
G1 X116.589 Y94.963 E2361.35138
G1 X116.95 Y94.984 E2361.53179
G1 X117.061 Y94.286 E2361.8844
G1 X117.088 Y94.048 E2362.0039
G1 X117.62 Y93.959 E2362.273
G1 X117.907 Y93.906 E2362.41861
G1 X118.131 Y94.979 E2362.96547
G1 X118.508 Y94.918 E2363.156
G1 X118.402 Y93.979 E2363.62745
G1 X120.721 Y94.522 E2364.81569
G1 X123.13 Y96.071 E2366.24457
G1 X123.75 Y96.424 E2366.60051
G1 X124.123 Y96.584 E2366.803
G1 X126.289 Y100.283 E2368.94154
G1 X126.862 Y101.137 E2369.45462
G1 X127.684 Y103.161 E2370.5445
G1 X129.486 Y108.983 E2373.58506
G1 X129.595 Y109.74 E2373.96662
G1 X130.93 Y118.359 E2378.31793
G1 X131.078 Y120.013 E2379.14641
G1 X131.434 Y123.532 E2380.91101
G1 X131.662 Y127.065 E2382.6773
G1 X131.808 Y128.757 E2383.52458
G1 X131.917 Y134.939 E2386.60927
G1 X131.413 Y137.23 E2387.77958
G1 X131.116 Y142.535 E2390.4304
G1 X130.832 Y144.93 E2391.63365
G1 X130.334 Y149.203 E2393.77988
G1 X129.354 Y156.938 E2397.66974
G1 X129.277 Y157.432 E2397.91917
G1 X128.86 Y159.819 E2399.12809
G1 X128.382 Y161.673 E2400.0833
G1 X127.906 Y163.143 E2400.85418
G1 X127.416 Y163.186 E2401.09958
G1 X123.325 Y163.758 E2403.16044
G1 X122.829 Y163.834 E2403.41078
G1 X122.346 Y163.849 E2403.65187
G1 X117.549 Y164.091 E2406.04815
G1 X115.21 Y164.126 E2407.21521
G0 F10500 X115.213 Y163.686
G0 X115.222 Y163.336
;TYPE:SKIN
G1 F2100 X112.277 Y163.247 E2408.68515
G1 X109.887 Y162.845 E2409.89427
G1 X107.758 Y162.563 E2410.96571
G1 X107.582 Y161.896 E2411.30987
G1 X107.083 Y159.77 E2412.39936
G1 X106.586 Y157.023 E2413.79209
G1 X106.543 Y156.754 E2413.928
G1 X106.454 Y156.046 E2414.284
G1 X105.524 Y149.015 E2417.82234
G1 X105.109 Y143.469 E2420.59698
G1 X105.041 Y142.628 E2421.01793
G1 X104.505 Y137.002 E2423.83746
G1 X104.164 Y134.843 E2424.92794
G1 X104.113 Y128.614 E2428.03571
G1 X104.247 Y127.134 E2428.7771
G1 X104.267 Y126.883 E2428.90272
G1 X105.003 Y118.391 E2433.15528
G1 X105.104 Y117.647 E2433.52987
G1 X106.369 Y108.977 E2437.90115
G1 X106.77 Y107.553 E2438.63922
G1 X107.897 Y104.226 E2440.39171
G1 X108.701 Y101.442 E2441.83741
G1 X109.521 Y100.544 E2442.44411
G1 X110.76 Y98.622 E2443.58497
G1 X111.514 Y97.274 E2444.35555
G1 X111.576 Y97.179 E2444.41214
G1 X114.466 Y95.29 E2446.13465
G1 X115.803 Y95.066 E2446.81098
G1 X115.832 Y95.71 E2447.1326
G1 X117.497 Y95.807 E2447.96468
G1 X117.512 Y95.88 E2448.00186
G1 X119.377 Y95.578 E2448.94443
G1 X119.313 Y95.003 E2449.23307
G1 X120.41 Y95.26 E2449.79519
G1 X122.721 Y96.747 E2451.1662
G1 X123.398 Y97.132 E2451.55476
G1 X123.572 Y97.207 E2451.64929
G1 X125.62 Y100.703 E2453.67069
G1 X126.159 Y101.507 E2454.1536
G1 X126.941 Y103.429 E2455.18882
G1 X128.713 Y109.158 E2458.18063
G1 X128.813 Y109.857 E2458.53292
G1 X130.147 Y118.468 E2462.88021
G1 X130.292 Y120.088 E2463.69166
G1 X130.645 Y123.583 E2465.44419
G1 X130.875 Y127.124 E2467.21453
G1 X131.018 Y128.79 E2468.04875
G1 X131.126 Y134.857 E2471.07607
G1 X130.627 Y137.122 E2472.23318
G1 X130.33 Y142.452 E2474.89646
G1 X130.047 Y144.837 E2476.09469
G1 X129.524 Y149.319 E2478.34594
G1 X128.58 Y156.77 E2482.09297
G1 X128.498 Y157.299 E2482.36004
G1 X128.088 Y159.648 E2483.54968
G1 X127.626 Y161.442 E2484.47391
G1 X127.316 Y162.402 E2484.97721
G1 X123.21 Y162.976 E2487.04562
G1 X122.757 Y163.045 E2487.27423
G1 X122.314 Y163.059 E2487.49536
G1 X117.523 Y163.301 E2489.88864
G1 X115.222 Y163.336 E2491.03675
G0 F10500 X115.213 Y163.614
G0 X112.557 Y163.481
G0 X108.089 Y162.887
G0 X108.147 Y162.452
G1 F2100 X107.802 Y162.108 E2491.27981
G0 F10500 X107.621 Y161.361
G1 F2100 X108.798 Y162.538 E2492.11025
G0 F10500 X109.45 Y162.624
G1 F2100 X107.447 Y160.622 E2493.52312
G0 F10500 X107.274 Y159.883
G1 F2100 X110.109 Y162.717 E2495.52301
G0 F10500 X110.789 Y162.832
G1 F2100 X107.139 Y159.182 E2498.09829
G0 F10500 X107.014 Y158.491
G1 F2100 X111.469 Y162.947 E2501.24188
G0 F10500 X112.149 Y163.061
G1 F2100 X106.889 Y157.801 E2504.9531
G0 F10500 X106.764 Y157.11
G1 F2100 X112.753 Y163.099 E2509.17866
G0 F10500 X113.337 Y163.117
G1 F2100 X106.664 Y156.444 E2513.88682
G0 F10500 X106.581 Y155.796
G1 F2100 X113.92 Y163.135 E2519.06488
G0 F10500 X114.503 Y163.152
G1 F2100 X106.495 Y155.144 E2524.71496
G0 F10500 X106.408 Y154.492
G1 F2100 X115.087 Y163.171 E2530.83846
G0 F10500 X115.65 Y163.168
G1 F2100 X106.322 Y153.84 E2537.41987
G0 F10500 X106.236 Y153.188
G1 F2100 X116.208 Y163.159 E2544.4553
G0 F10500 X116.765 Y163.152
G1 F2100 X106.15 Y152.536 E2551.94511
G0 F10500 X106.063 Y151.884
G1 F2100 X117.323 Y163.143 E2559.8893
G0 F10500 X117.867 Y163.122
G1 F2100 X105.978 Y151.233 E2568.27763
G0 F10500 X105.892 Y150.581
G1 F2100 X118.406 Y163.095 E2577.10693
G0 F10500 X118.944 Y163.068
G1 F2100 X105.805 Y149.929 E2586.3772
G0 F10500 X105.719 Y149.277
G1 F2100 X119.483 Y163.041 E2596.08845
G0 F10500 X120.021 Y163.013
G1 F2100 X105.655 Y148.647 E2606.22444
G0 F10500 X105.61 Y148.037
G1 F2100 X120.56 Y162.986 E2616.77212
G0 F10500 X121.098 Y162.959
G1 F2100 X105.564 Y147.425 E2627.73219
G0 F10500 X105.518 Y146.813
G1 F2100 X121.636 Y162.931 E2639.10431
G0 F10500 X122.175 Y162.904
G1 F2100 X105.473 Y146.202 E2650.88848
G0 F10500 X105.427 Y145.591
G1 F2100 X122.72 Y162.884 E2663.08962
G0 F10500 X123.215 Y162.813
G1 F2100 X105.382 Y144.98 E2675.67177
G0 F10500 X105.336 Y144.368
G1 F2100 X123.711 Y162.744 E2688.63668
G0 F10500 X124.207 Y162.674
G1 F2100 X105.29 Y143.756 E2701.98399
G0 F10500 X105.242 Y143.143
G1 F2100 X124.703 Y162.604 E2715.71478
G0 F10500 X125.2 Y162.535
G1 F2100 X105.192 Y142.527 E2729.8315
G0 F10500 X105.132 Y141.902
G1 F2100 X125.696 Y162.465 E2744.34016
G0 F10500 X126.192 Y162.396
G1 F2100 X105.073 Y141.277 E2759.24076
G0 F10500 X105.013 Y140.652
G1 F2100 X126.688 Y162.326 E2774.53329
G0 F10500 X127.184 Y162.256
G1 F2100 X104.954 Y140.026 E2790.21776
G0 F10500 X104.894 Y139.401
G1 F2100 X127.33 Y161.837 E2806.04757
G0 F10500 X127.468 Y161.409
G1 F2100 X104.834 Y138.776 E2822.01672
G0 F10500 X104.775 Y138.15
G1 F2100 X127.584 Y160.96 E2838.11006
G0 F10500 X127.699 Y160.509
G1 F2100 X104.716 Y137.525 E2854.32616
G0 F10500 X104.651 Y136.895
G1 F2100 X127.815 Y160.059 E2870.66961
G0 F10500 X127.931 Y159.61
G1 F2100 X104.545 Y136.223 E2887.17005
G0 F10500 X104.438 Y135.551
G1 F2100 X128.016 Y159.128 E2903.80525
G0 F10500 X128.1 Y158.647
G1 F2100 X104.332 Y134.879 E2920.57486
G0 F10500 X104.319 Y134.3
G1 F2100 X128.184 Y158.165 E2937.4129
G0 F10500 X128.268 Y157.684
G1 F2100 X104.315 Y133.73 E2954.31339
G0 F10500 X104.31 Y133.16
G1 F2100 X128.351 Y157.201 E2971.27561
G0 F10500 X128.426 Y156.711
G1 F2100 X104.305 Y132.589 E2988.29464
G0 F10500 X104.301 Y132.019
G1 F2100 X128.49 Y156.209 E3005.36163
G0 F10500 X128.554 Y155.707
G1 F2100 X104.296 Y131.449 E3022.47696
G0 F10500 X104.291 Y130.878
G1 F2100 X128.617 Y155.204 E3039.64027
G0 F10500 X128.68 Y154.702
G1 F2100 X104.286 Y130.307 E3056.85191
G0 F10500 X104.281 Y129.737
G1 F2100 X128.744 Y154.2 E3074.11188
G0 F10500 X128.807 Y153.698
G1 F2100 X104.277 Y129.167 E3091.41947
G0 F10500 X104.274 Y128.598
G1 F2100 X128.871 Y153.196 E3108.77433
G0 F10500 X128.935 Y152.694
G1 F2100 X104.32 Y128.079 E3126.14155
G0 F10500 X104.367 Y127.56
G1 F2100 X128.998 Y152.192 E3143.5204
G0 F10500 X129.062 Y151.689
G1 F2100 X104.414 Y127.041 E3160.91089
G0 F10500 X104.458 Y126.519
G1 F2100 X129.126 Y151.187 E3178.3155
G0 F10500 X129.189 Y150.685
G1 F2100 X104.503 Y125.999 E3195.73281
G0 F10500 X104.548 Y125.478
G1 F2100 X129.253 Y150.183 E3213.16352
G0 F10500 X129.317 Y149.681
G1 F2100 X104.593 Y124.958 E3230.60728
G0 F10500 X104.638 Y124.437
G1 F2100 X129.379 Y149.178 E3248.06339
G0 F10500 X129.438 Y148.672
G1 F2100 X104.683 Y123.916 E3265.52974
G0 F10500 X104.728 Y123.396
G1 F2100 X129.497 Y148.165 E3283.0056
G0 F10500 X129.556 Y147.658
G1 F2100 X104.774 Y122.876 E3300.49064
G0 F10500 X104.819 Y122.355
G1 F2100 X129.615 Y147.151 E3317.98556
G0 F10500 X129.674 Y146.645
G1 F2100 X104.863 Y121.834 E3335.49106
G0 F10500 X104.909 Y121.314
G1 F2100 X129.734 Y146.139 E3353.00644
G0 F10500 X129.792 Y145.632
G1 F2100 X104.954 Y120.793 E3370.53134
G0 F10500 X104.999 Y120.273
G1 F2100 X129.852 Y145.125 E3388.06612
G0 F10500 X129.911 Y144.619
G1 F2100 X105.044 Y119.752 E3405.61114
G0 F10500 X105.089 Y119.231
G1 F2100 X129.971 Y144.114 E3423.16708
G0 F10500 X130.031 Y143.607
G1 F2100 X105.134 Y118.711 E3440.73291
G0 F10500 X105.189 Y118.199
G1 F2100 X130.091 Y143.102 E3458.30297
G0 F10500 X130.151 Y142.596
G1 F2100 X105.257 Y117.702 E3475.86703
G0 F10500 X105.329 Y117.208
G1 F2100 X130.191 Y142.07 E3493.40851
G0 F10500 X130.22 Y141.534
G1 F2100 X105.401 Y116.715 E3510.91966
G0 F10500 X105.473 Y116.221
G1 F2100 X130.251 Y140.999 E3528.40188
G0 F10500 X130.28 Y140.463
G1 F2100 X105.545 Y115.727 E3545.85411
G0 F10500 X105.617 Y115.234
G1 F2100 X130.31 Y139.927 E3563.27635
G0 F10500 X130.34 Y139.391
G1 F2100 X105.689 Y114.74 E3580.66896
G0 F10500 X105.761 Y114.246
G1 F2100 X130.37 Y138.855 E3598.03194
G0 F10500 X130.4 Y138.319
G1 F2100 X105.833 Y113.752 E3615.36529
G0 F10500 X105.905 Y113.259
G1 F2100 X130.43 Y137.783 E3632.66865
G0 F10500 X130.46 Y137.248
G1 F2100 X105.977 Y112.765 E3649.94273
G0 F10500 X106.049 Y112.272
G1 F2100 X130.542 Y136.765 E3667.22386
G0 F10500 X130.644 Y136.301
G1 F2100 X106.121 Y111.778 E3684.52616
G0 F10500 X106.194 Y111.285
G1 F2100 X130.746 Y135.838 E3701.84928
G0 F10500 X130.848 Y135.374
G1 F2100 X106.266 Y110.791 E3719.19356
G0 F10500 X106.338 Y110.298
G1 F2100 X130.951 Y134.911 E3736.55936
G0 F10500 X130.957 Y134.351
G1 F2100 X106.41 Y109.804 E3753.87859
G0 F10500 X106.482 Y109.31
G1 F2100 X130.946 Y133.775 E3771.13962
G0 F10500 X130.937 Y133.199
G1 F2100 X106.575 Y108.837 E3788.32833
G0 F10500 X106.698 Y108.395
G1 F2100 X130.926 Y132.623 E3805.42249
G0 F10500 X130.915 Y132.047
G1 F2100 X106.822 Y107.953 E3822.42175
G0 F10500 X106.949 Y107.515
G1 F2100 X130.905 Y131.471 E3839.32401
G0 F10500 X130.895 Y130.895
G1 F2100 X107.092 Y107.092 E3856.11831
G0 F10500 X107.236 Y106.67
G1 F2100 X130.884 Y130.319 E3872.8036
G0 F10500 X130.874 Y129.743
G1 F2100 X107.379 Y106.247 E3889.38095
G0 F10500 X107.522 Y105.825
G1 F2100 X130.864 Y129.167 E3905.84999
G0 F10500 X130.838 Y128.576
G1 F2100 X107.666 Y105.403 E3922.19944
G0 F10500 X107.809 Y104.98
G1 F2100 X130.786 Y127.958 E3938.41131
G0 F10500 X130.733 Y127.339
G1 F2100 X107.952 Y104.558 E3954.48453
G0 F10500 X108.09 Y104.13
G1 F2100 X130.689 Y126.729 E3970.42935
G0 F10500 X130.649 Y126.124
G1 F2100 X108.217 Y103.691 E3986.25669
G0 F10500 X108.343 Y103.252
G1 F2100 X130.61 Y125.519 E4001.96726
G0 F10500 X130.571 Y124.914
G1 F2100 X108.47 Y102.813 E4017.56071
G0 F10500 X108.596 Y102.374
G1 F2100 X130.531 Y124.309 E4033.03703
G0 F10500 X130.492 Y123.704
G1 F2100 X108.723 Y101.935 E4048.39624
G0 F10500 X108.858 Y101.504
G1 F2100 X130.432 Y123.079 E4063.61822
G0 F10500 X130.369 Y122.449
G1 F2100 X109.128 Y101.208 E4078.60489
G0 F10500 X109.397 Y100.912
G1 F2100 X130.306 Y121.821 E4093.35732
G0 F10500 X130.242 Y121.191
G1 F2100 X109.663 Y100.612 E4107.87691
G0 F10500 X109.885 Y100.269
G1 F2100 X130.179 Y120.562 E4122.19507
G0 F10500 X130.117 Y119.935
G1 F2100 X110.107 Y99.925 E4136.31321
G0 F10500 X110.329 Y99.581
G1 F2100 X130.062 Y119.314 E4150.23591
G0 F10500 X130.007 Y118.693
G1 F2100 X110.551 Y99.237 E4163.96316
G0 F10500 X110.772 Y98.893
G92 E0
G1 F2100 X129.918 Y118.039 E13.50854
G0 F10500 X129.814 Y117.369
G1 F2100 X110.986 Y98.54 E26.79306
G0 F10500 X111.189 Y98.178
G1 F2100 X129.71 Y116.7 E39.86098
G0 F10500 X129.607 Y116.031
G1 F2100 X111.392 Y97.816 E52.71265
G0 F10500 X111.595 Y97.453
G1 F2100 X129.503 Y115.361 E65.34771
G0 F10500 X129.399 Y114.692
G1 F2100 X111.879 Y97.171 E77.70937
G0 F10500 X112.22 Y96.947
G1 F2100 X129.295 Y114.022 E89.7567
G0 F10500 X129.192 Y113.353
G1 F2100 X112.562 Y96.723 E101.49006
G0 F10500 X112.905 Y96.5
G1 F2100 X129.088 Y112.683 E112.90804
G0 F10500 X128.984 Y112.014
G1 F2100 X113.247 Y96.276 E124.0117
G0 F10500 X113.589 Y96.053
G1 F2100 X128.88 Y111.344 E134.80033
G0 F10500 X128.777 Y110.675
G1 F2100 X113.931 Y95.829 E145.27498
G0 F10500 X114.273 Y95.605
G1 F2100 X128.673 Y110.006 E155.43531
G0 F10500 X128.576 Y109.343
G1 F2100 X114.653 Y95.42 E165.25874
G0 F10500 X115.138 Y95.339
G1 F2100 X128.359 Y108.56 E174.58687
G0 F10500 X128.106 Y107.741
G1 F2100 X116.26 Y95.895 E182.94486
G0 F10500 X116.861 Y95.931
G1 F2100 X127.853 Y106.923 E190.70031
G0 F10500 X127.6 Y106.104
G1 F2100 X117.535 Y96.039 E197.80171
G0 F10500 X118.022 Y95.96
G1 F2100 X127.347 Y105.286 E204.38136
G0 F10500 X127.094 Y104.467
G1 F2100 X118.508 Y95.881 E210.43924
G0 F10500 X118.995 Y95.802
G1 F2100 X126.841 Y103.648 E215.97502
G0 F10500 X126.481 Y102.722
G1 F2100 X119.482 Y95.723 E220.91319
G0 F10500 X119.548 Y95.223
G1 F2100 X126.093 Y101.768 E225.53105
G0 F10500 X126.499 Y101.604
G0 X125.588 Y100.096
G0 X125.208 Y100.317
G1 F2100 X120.286 Y95.396 E229.00343
G0 F10500 X120.386 Y94.967
G0 X122.041 Y95.978
G0 X121.803 Y96.347
G1 F2100 X124.406 Y98.95 E230.83999
G0 F10500 X124.787 Y98.728
G0 X123.987 Y97.361
G0 X123.605 Y97.583
G1 F2100 X123.259 Y97.237 E231.08411
G0 F10500 X123.476 Y96.856
G0 X120.492 Y95.054
G0 X119.079 Y94.74
G0 X117.686 Y95.568
G0 X117.695 Y95.634
;TYPE:SKIN
G1 F2100 X117.451 Y95.39 E231.17019
G0 F10500 X117.62 Y95.276
G1 F2100 X117.49 Y95.146 E231.21605
G1 F2700 E226.21605
G0 F10500 X117.54 Y95.044
G0 X117.64 Y94.076
G0 X117.395 Y92.092
G1 F2700 E231.21605
G0 F10500 X117.478 Y92.022
G1 F2100 X117.378 Y91.922 E231.25132
G0 F10500 X117.588 Y91.849
G1 F2100 X117.405 Y91.666 E231.31588
G1 F2700 E226.31588
;MESH:NONMESH
G0 F300 X117.405 Y91.666 Z21.28
G0 F10500 X117.43 Y91.669
G0 X117.296 Y92.099
G0 X116.326 Y91.994
G0 X115.73 Y93.401
G0 X115.999 Y94.823
G0 X114.385 Y95.083
G0 X111.417 Y97.023
G0 X108.505 Y101.334
G0 X106.158 Y108.918
G0 X104.786 Y118.363
G0 X103.894 Y128.609
G0 X103.945 Y134.868
G0 X105.507 Y151.016
G1 F2700 E231.31588
G0 F10500 X106.368 Y150.904
;TIME_ELAPSED:774.775058
;LAYER:7
;TYPE:WALL-INNER
;MESH:Boat.stl
G1 F2100 X105.131 Y150.816 E231.93458
G1 X104.982 Y149.763 E232.46516
G1 X104.481 Y145.423 E234.64478
G1 X104.253 Y143.044 E235.8371
G1 X104.04 Y140.57 E237.07595
G1 X103.581 Y135.493 E239.61921
G1 X103.596 Y134.726 E240.00194
G1 X103.609 Y134.642 E240.04434
G1 X103.639 Y135.118 E240.1837
G1 X104.698 Y135.309 E240.72056
G1 X104.718 Y135.35 E240.74332
G1 X104.811 Y135.663 E240.90622
G1 X104.933 Y137.049 E241.60037
G1 X105.503 Y143.157 E244.66091
G1 X106.26 Y150.111 E248.15077
G1 X106.368 Y150.904 E248.55005
G0 F10500 X106.83 Y151.338
;TYPE:WALL-OUTER
G1 F2100 X104.78 Y151.192 E249.57539
G1 X104.586 Y149.819 E250.26719
G1 X104.084 Y145.469 E252.45181
G1 X103.854 Y143.078 E253.65019
G1 X103.642 Y140.605 E254.8885
G1 X103.181 Y135.503 E257.44427
G1 X103.197 Y134.692 E257.84896
G1 X103.765 Y130.79 E259.81619
G1 X104.018 Y134.78 E261.81081
G1 X104.977 Y134.953 E262.29698
G1 X104.978 Y134.971 E262.30597
G1 X105.09 Y135.201 E262.4336
G1 X105.205 Y135.587 E262.63454
G1 X105.331 Y137.013 E263.34875
G1 X105.901 Y143.117 E266.4073
G1 X106.657 Y150.062 E269.89264
G1 X106.83 Y151.338 E270.53506
G0 F10500 X106.527 Y151.054
G0 X105.897 Y150.76
G0 X105.917 Y150.481
;TYPE:SKIN
G1 F2100 X105.473 Y150.449 E270.75715
G1 X105.368 Y149.708 E271.13053
G1 X104.869 Y145.378 E273.30507
G1 X104.641 Y143.007 E274.49343
G1 X104.428 Y140.537 E275.73029
G1 X103.979 Y135.575 E278.21595
G1 X104.4 Y135.651 E278.42939
G1 X104.427 Y135.739 E278.47531
G1 X104.545 Y137.084 E279.14891
G1 X105.115 Y143.196 E282.21143
G1 X105.872 Y150.158 E285.70526
G1 X105.917 Y150.481 E285.86796
G0 F10500 X105.585 Y150.103
G1 F2100 X105.693 Y149.996 E285.94381
G0 F10500 X105.517 Y149.606
G1 F2100 X105.637 Y149.486 E286.02847
G0 F10500 X105.458 Y149.099
G1 F2100 X105.582 Y148.976 E286.11561
G0 F10500 X105.4 Y148.592
G1 F2100 X105.526 Y148.466 E286.20451
G0 F10500 X105.341 Y148.085
G1 F2100 X105.471 Y147.955 E286.29623
G0 F10500 X105.283 Y147.577
G1 F2100 X105.415 Y147.445 E286.38937
G0 F10500 X105.225 Y147.07
G1 F2100 X105.36 Y146.935 E286.48462
G0 F10500 X105.166 Y146.563
G1 F2100 X105.305 Y146.424 E286.58269
G0 F10500 X105.108 Y146.055
G1 F2100 X105.249 Y145.915 E286.68182
G0 F10500 X105.049 Y145.548
G1 F2100 X105.194 Y145.404 E286.78377
G0 F10500 X104.996 Y145.036
G1 F2100 X105.138 Y144.894 E286.88396
G0 F10500 X104.947 Y144.519
G1 F2100 X105.083 Y144.384 E286.97956
G0 F10500 X104.897 Y144.003
G1 F2100 X105.027 Y143.874 E287.07093
G0 F10500 X104.848 Y143.487
G1 F2100 X104.972 Y143.363 E287.15842
G0 F10500 X104.798 Y142.971
G1 F2100 X104.921 Y142.848 E287.24521
G0 F10500 X104.753 Y142.45
G1 F2100 X104.873 Y142.331 E287.32952
G0 F10500 X104.709 Y141.929
G1 F2100 X104.825 Y141.813 E287.41136
G0 F10500 X104.663 Y141.409
G1 F2100 X104.776 Y141.296 E287.49109
G0 F10500 X104.618 Y140.888
G1 F2100 X104.728 Y140.778 E287.5687
G0 F10500 X104.573 Y140.368
G1 F2100 X104.68 Y140.261 E287.6442
G0 F10500 X104.526 Y139.849
G1 F2100 X104.632 Y139.744 E287.71863
G0 F10500 X104.479 Y139.331
G1 F2100 X104.583 Y139.226 E287.79237
G0 F10500 X104.432 Y138.812
G1 F2100 X104.535 Y138.708 E287.86539
G0 F10500 X104.385 Y138.293
G1 F2100 X104.487 Y138.191 E287.93736
G0 F10500 X104.339 Y137.774
G1 F2100 X104.438 Y137.674 E288.00756
G0 F10500 X104.291 Y137.255
G1 F2100 X104.39 Y137.156 E288.07741
G0 F10500 X104.245 Y136.736
G1 F2100 X104.344 Y136.637 E288.14726
G0 F10500 X104.198 Y136.217
G1 F2100 X104.298 Y136.117 E288.21782
G0 F10500 X104.737 Y136.08
G0 X104.568 Y135.465
G0 X103.799 Y134.975
G0 X103.669 Y134.483
G0 X103.741 Y134.41
;TYPE:SKIN
G1 F2100 X103.602 Y134.268 E288.29253
G1 X103.665 Y133.073 E288.7425
G1 F2700 E283.7425
G0 F10500 X103.689 Y133.045
G0 X103.799 Y134.975
G0 X104.568 Y135.465
G0 X105.683 Y143.139
G0 X106.76 Y143.025
G0 X109.069 Y144.084
G0 X109.639 Y144.461
G0 X109.779 Y147.087
;TYPE:WALL-OUTER
G1 F2700 E288.7425
G1 F2100 X109.772 Y146.165 E289.2025
G1 X109.817 Y144.563 E290.00206
G1 X109.891 Y144.628 E290.0512
G1 X109.92 Y146.157 E290.81416
G1 X109.898 Y147.086 E291.27777
G1 X109.779 Y147.087 E291.33714
G0 F10500 X109.978 Y146.886
G1 F2700 E286.33714
G0 F10500 X110.772 Y146.736
G0 X124.329 Y147.127
G0 X125.308 Y147.086
G1 F2700 E291.33714
G1 F2100 X125.192 Y147.086 E291.39501
G1 X125.143 Y145.945 E291.96478
G1 X125.163 Y144.596 E292.63788
G1 X125.187 Y144.562 E292.65864
G1 X125.269 Y144.563 E292.69955
G1 X125.39 Y144.703 E292.79187
G1 X125.275 Y145.971 E293.42707
G1 X125.308 Y147.086 E293.98359
G1 F2700 E288.98359
G0 F10500 X126.172 Y147.06
G0 X128.086 Y147.328
G0 X129.165 Y147.42
G0 X129.175 Y149.415
;TYPE:WALL-INNER
G1 F2700 E293.98359
G1 F2100 X129.228 Y148.798 E294.29255
G1 X129.48 Y145.875 E295.75625
G1 X129.739 Y143.127 E297.13331
G1 X130.038 Y140.168 E298.61708
G1 X130.525 Y135.864 E300.77805
G1 X130.54 Y135.294 E301.06253
G1 X131.394 Y135.126 E301.49675
G1 X131.503 Y134.681 E301.72533
G1 X131.507 Y134.73
G1 X131.486 Y135.652 E302.18544
G1 X131.297 Y138.4 E303.55966
G1 X130.962 Y142.876 E305.79899
G1 X130.209 Y148.208 E308.48553
G1 X129.578 Y148.945 E308.96957
G1 X129.175 Y149.415 E309.1315
G0 F10500 X128.96 Y149.926
G0 X128.648 Y150.788
;TYPE:WALL-OUTER
G1 F2100 X128.694 Y150.339 E309.35668
G1 X129.082 Y145.841 E311.60907
G1 X129.341 Y143.087 E312.98911
G1 X129.641 Y140.123 E314.47541
G1 X130.126 Y135.836 E316.62785
G1 X130.148 Y134.963 E317.06353
G1 X131.067 Y134.783 E317.53073
G1 X131.617 Y132.547 E318.67953
G1 X131.664 Y131.661 E319.12218
G1 X131.806 Y133.184 E319.8853
G1 X131.907 Y134.724 E320.65526
G1 X131.886 Y135.666 E321.12534
G1 X131.696 Y138.43 E322.50756
G1 X131.36 Y142.916 E324.75191
G1 X130.589 Y148.38 E327.50491
G1 X129.067 Y150.157 E328.6722
G1 X128.648 Y150.788 E329.05009
G0 F10500 X128.96 Y149.926
G0 X129.39 Y148.217
G0 X129.667 Y148.241
;TYPE:SKIN
G1 F2100 X129.868 Y145.912 E330.21635
G1 X130.127 Y143.166 E331.59241
G1 X130.426 Y140.211 E333.0742
G1 X130.915 Y135.891 E335.24322
G1 X130.922 Y135.616 E335.38046
G1 X131.097 Y135.581 E335.4695
G1 X131.096 Y135.625 E335.49145
G1 X130.894 Y138.576 E336.96716
G1 X130.576 Y142.821 E339.09093
G1 X129.839 Y148.04 E341.72053
G1 X129.667 Y148.241 E341.85252
G0 F10500 X129.39 Y148.217
G0 X129.877 Y142.867
G0 X130.313 Y142.912
G1 F2100 X130.415 Y142.81 E341.92448
G0 F10500 X130.853 Y142.843
G0 X130.046 Y148.134
G0 X129.777 Y148.544
G0 X129.623 Y148.411
;TYPE:SKIN
G1 F2100 X129.403 Y148.631 E342.0021
G0 F10500 X128.994 Y149.605
G1 F2100 X129.08 Y149.802 E342.17699
G0 F10500 X129.186 Y149.557
G0 X130.716 Y135.443
G0 X131.049 Y135.381
G0 X131.439 Y134.525
G0 X131.529 Y134.342
G1 F2100 X131.668 Y134.485 E342.24877
G1 X131.534 Y134.054 E342.41122
G1 X131.571 Y133.734 E342.52717
G1 F2700 E337.52717
G0 F10500 X131.594 Y133.685
G0 X131.617 Y133.4
G0 X130.579 Y133.146
G0 X119.816 Y123.121
G0 X119.692 Y122.152
G1 F2700 E342.52717
G0 F10500 X119.555 Y122.284
;TYPE:WALL-OUTER
G1 F2100 X119.521 Y122.019 E342.66046
G1 X119.785 Y121.985 E342.79326
G1 X119.819 Y122.25 E342.92655
G1 X119.555 Y122.284 E343.05935
G1 F2700 E338.05935
G0 F10500 X119.653 Y122.138
G0 X118.217 Y120.49
G0 X117.589 Y120.504
;TYPE:WALL-INNER
G1 F2700 E343.05935
G1 F2100 X117.075 Y120.336 E343.32914
G1 X116.755 Y119.896 E343.60057
G1 X116.755 Y119.355 E343.87047
G1 X117.075 Y118.915 E344.14191
G1 X117.589 Y118.747 E344.41169
G1 X118.104 Y118.915 E344.68195
G1 X118.424 Y119.355 E344.95338
G1 X118.424 Y119.896 E345.22329
G1 X118.104 Y120.336 E345.49472
G1 X117.589 Y120.504 E345.76498
G0 F10500 X117.589 Y120.924
;TYPE:WALL-OUTER
G1 F2100 X116.827 Y120.676 E346.16477
G1 X116.355 Y120.026 E346.56554
G1 X116.355 Y119.225 E346.96516
G1 X116.827 Y118.575 E347.36592
G1 X117.589 Y118.327 E347.76571
G1 X118.352 Y118.575 E348.16598
G1 X118.824 Y119.225 E348.56675
G1 X118.824 Y120.026 E348.96637
G1 X118.352 Y120.676 E349.36713
G1 X117.589 Y120.924 E349.7674
G0 F10500 X117.589 Y120.484
G0 X117.589 Y120.094
;TYPE:SKIN
G1 F2100 X117.317 Y120.004 E349.91033
G1 X117.145 Y119.768 E350.05603
G1 X117.145 Y119.483 E350.19821
G1 X117.317 Y119.247 E350.34391
G1 X117.589 Y119.157 E350.48684
G1 X117.862 Y119.247 E350.63026
G1 X118.034 Y119.483 E350.77595
G1 X118.034 Y119.768 E350.91814
G1 X117.862 Y120.004 E351.06383
G1 X117.589 Y120.094 E351.20724
G0 F10500 X117.7 Y119.887
G1 F2100 X117.873 Y119.713 E351.32965
G0 F10500 X117.67 Y119.351
G1 F2100 X117.306 Y119.716 E351.58683
G0 F10500 X117.023 Y119.923
G1 F2700 E346.58683
G0 F10500 X116.95 Y119.974
G0 X116.962 Y120.49
G0 X115.496 Y122.001
G1 F2700 E351.58683
G0 F10500 X115.603 Y122.16
;TYPE:WALL-OUTER
G1 F2100 X115.335 Y122.141 E351.72087
G1 X115.346 Y121.881 E351.8507
G1 X115.614 Y121.892 E351.98452
G1 X115.603 Y122.16 E352.11834
G0 F10500 X115.228 Y122.507
G1 F2100 X114.96 Y122.516 E352.25212
G1 X114.96 Y122.502 E352.2591
G1 X115.228 Y122.507 E352.39283
G1 F2700 E347.39283
G0 F10500 X115.475 Y122.036
G0 X115.533 Y121.028
G0 X116.485 Y117.471
G0 X115.603 Y116.781
G0 X119.833 Y116.787
G1 F2700 E352.39283
G0 F10500 X119.835 Y116.687
G1 F2100 X119.835 Y117.3 E352.69866
G1 X119.581 Y117.3 E352.82538
G1 X119.581 Y116.681 E353.1342
G1 X115.633 Y116.601 E355.10427
G1 X115.633 Y117.237 E355.42157
G1 X115.38 Y117.237 E355.54779
G1 X115.38 Y116.596 E355.86759
G1 X115.095 Y116.59 E356.00981
G1 X115.096 Y116.575 E356.01731
G1 X120.153 Y116.68 E358.5408
G1 X120.153 Y116.693 E358.54729
G1 X119.835 Y116.687 E358.70596
G1 F2700 E353.70596
G0 F10500 X119.833 Y116.787
G0 X115.52 Y116.785
G0 X114.527 Y117.432
G0 X106.38 Y118.51
G0 X105.397 Y118.513
G0 X104.795 Y121.093
G1 F2700 E358.70596
G0 F10500 X104.552 Y122.844
G1 F2100 X104.68 Y120.404 E359.92496
G1 X104.82 Y118.372 E360.94113
G1 X105.502 Y114.029 E363.13442
G1 X105.516 Y118.528 E365.37899
G1 X104.744 Y122.017 E367.16176
G1 X104.552 Y122.844 E367.58532
G0 F10500 X104.726 Y121.595
G0 X104.83 Y120.247
G0 X104.918 Y120.223
;TYPE:SKIN
G1 F2100 X104.969 Y119.89 E367.68152
G1 X105.164 Y118.281 E368.14432
G1 X105.29 Y116.74 E368.58582
G1 F2700 E363.58582
G0 F10500 X105.31 Y116.694
G0 X105.405 Y115.306
G0 X106.37 Y115.303
G0 X106.923 Y102.65
G0 X107.48 Y100.29
G0 X110.271 Y95.107
G0 X116.078 Y87.554
G0 X116.383 Y87.553
G0 X117.335 Y87.891
G1 F2700 E368.58582
G0 F10500 X117.216 Y88.004
;TYPE:WALL-OUTER
G1 F2100 X117.272 Y86.832 E369.1712
G1 X117.693 Y86.832 E369.38124
G1 X117.683 Y88.003 E369.96547
G1 X117.216 Y88.004 E370.19846
G1 F2700 E365.19846
G0 F10500 X117.394 Y87.803
G0 X118.544 Y87.66
G0 X117.49 Y91.409
G0 X117.49 Y92.061
G0 X117.533 Y92.545
G0 X117.562 Y92.89
G0 X117.503 Y93.632
;TYPE:WALL-INNER
G1 F2700 E370.19846
G1 F2100 X117.554 Y93.312 E370.36013
G1 X117.6 Y93.63 E370.38029
G1 X117.503 Y93.632
G0 F10500 X117.018 Y94.137
;TYPE:WALL-OUTER
G1 F2100 X117.227 Y92.817 E371.04704
G1 X117.558 Y92.76 E371.21461
G1 X117.888 Y92.827 E371.38261
G1 X118.075 Y94.124 E372.03637
G1 X117.558 Y94.029 E372.29862
G1 X117.3 Y94.086 E372.43044
G1 X117.018 Y94.137 E372.57342
G1 F2700 E367.57342
G0 F10500 X117.209 Y93.942
G0 X117.562 Y92.89
G0 X117.536 Y92.58
G0 X117.304 Y92.374
G1 F2700 E372.57342
G1 F2100 X117.401 Y92.261 E372.64772
G1 X117.717 Y92.26 E372.80537
G1 X117.814 Y92.374 E372.88005
G1 X117.304 Y92.374 E373.13449
G0 F10500 X118.448 Y92.532
G1 F2100 X118.419 Y92.526 E373.14926
G1 X118.266 Y90.229 E374.29778
G1 X118.098 Y88.402 E375.21312
G1 X118.234 Y88.46 E375.28688
G1 X118.322 Y90.407 E376.25923
G1 X118.376 Y91.388 E376.7494
G1 X118.448 Y92.532 E377.32127
G1 F2700 E372.32127
G0 F10500 X118.651 Y92.763
G0 X119.001 Y93.162
G0 X121.339 Y94.976
G0 X124.152 Y97.959
G0 X124.356 Y98.401
G0 X125.553 Y99.263
;TYPE:WALL-INNER
G1 F2700 E377.32127
G1 F2100 X124.915 Y98.928 E377.68078
G1 X124.25 Y98.578 E378.0557
G1 X123.681 Y97.471 E378.67667
G1 X123.214 Y96.639 E379.15267
G1 X122.016 Y95.812 E379.87894
G1 X121.477 Y95.451 E380.20259
G1 X121.653 Y94.86 E380.51023
G1 X121.153 Y94.533 E380.80829
G1 X120.615 Y94.181 E381.12905
G1 X120.022 Y94.073 E381.42976
G1 X119.339 Y93.948 E381.77617
G1 X119.312 Y93.514 E381.99312
G1 X120.065 Y93.66 E382.37579
G1 X120.657 Y93.779 E382.67206
G1 X120.931 Y93.898 E382.8211
G1 X121.365 Y94.207 E383.08689
G1 X121.834 Y94.679 E383.35802
G1 X122.453 Y95.302 E383.79617
G1 X123.667 Y96.166 E384.53956
G1 X125.178 Y98.648 E385.98925
G1 X125.553 Y99.263 E386.17542
G1 F2700 E381.17542
G0 F10500 X126.359 Y100.019
G0 X126.586 Y100.233
G1 F2700 E386.17542
G0 F10500 X126.647 Y100.29
;TYPE:WALL-OUTER
G1 F2100 X123.952 Y98.873 E387.69449
G1 X123.329 Y97.66 E388.37481
G1 X122.911 Y96.916 E388.80056
G1 X121.791 Y96.143 E389.4795
G1 X120.559 Y95.318 E390.21923
G1 X121.1 Y95.318 E390.48913
G1 X121.185 Y95.032 E390.63799
G1 X120.464 Y94.56 E391.06792
G1 X118.96 Y94.286 E391.83062
G1 X118.88 Y93.023 E392.462
G1 X120.141 Y93.267 E393.10278
G1 X120.778 Y93.395 E393.42693
G1 X121.13 Y93.548 E393.61842
G1 X121.625 Y93.901 E393.92174
G1 X122.713 Y94.996 E394.69185
G1 X123.966 Y95.888 E395.4592
G1 X126.647 Y100.29 E398.03062
