;FLAVOR:Marlin
;TIME:1081
;Filament used: 4.02205m
;Layer height: 2
;MINX:102.86
;MINY:59.406
;MINZ:0.28
;MAXX:132.093
;MAXY:175.531
;MAXZ:134.28
;Generated with Cura_SteamEngine master
M140 S50
M105
M190 S50
M104 S200
M105
M109 S200
M82 ;absolute extrusion mode
; Ender 3 Custom Start G-code
G92 E0 ; Reset Extruder
G28 ; Home all axes
G1 Z2.0 F3000 ; Move Z Axis up little to prevent scratching of Heat Bed
G1 X0.1 Y20 Z0.3 F5000.0 ; Move to start position
G1 X0.1 Y200.0 Z0.3 F1500.0 E15 ; Draw the first line
G1 X0.4 Y200.0 Z0.3 F5000.0 ; Move to side a little
G1 X0.4 Y20 Z0.3 F1500.0 E30 ; Draw the second line
G92 E0 ; Reset Extruder
G1 Z2.0 F3000 ; Move Z Axis up little to prevent scratching of Heat Bed
G1 X5 Y20 Z0.3 F5000.0 ; Move over to prevent blob squish
G92 E0
G92 E0
G1 F2700 E-5
;LAYER_COUNT:68
;LAYER:0
M107
;MESH:BoatHollow.stl
G0 F6000 X117.437 Y120.479 Z0.28
;TYPE:WALL-OUTER
G1 F2700 E0
G1 F600 X117.42 Y117.978 E0.11646
G1 X117.391 Y116.54 E0.18343
G1 X117.393 Y115.315 E0.24047
G1 X117.547 Y116.111 E0.27823
G1 X117.65 Y117.975 E0.36515
G1 X117.622 Y118.849 E0.40587
G1 X117.593 Y120.213 E0.4694
G1 X117.486 Y120.213 E0.47438
G1 X117.437 Y120.479 E0.48698
G1 F2700 E-4.51302
;MESH:NONMESH
G0 F300 X117.437 Y120.479 Z2.28
G0 F6000 X118.199 Y121.068
G0 X117.71 Y148.923
;TIME_ELAPSED:6.610103
;LAYER:1
M106 S85
;TYPE:WALL-OUTER
;MESH:BoatHollow.stl
G1 F2700 E0.48698
G1 F748.3 X117.593 Y148.923 E0.52589
G1 X117.459 Y146.047 E1.48349
G1 X117.408 Y143.33 E2.38733
G1 X117.415 Y137.284 E4.39824
G1 X117.413 Y136.765 E4.57086
G1 X117.202 Y128.562 E7.30009
G1 X117.177 Y127.046 E7.80438
G1 X117.228 Y119.865 E10.19285
G1 X117.239 Y117.971 E10.82281
G1 X117.09 Y113.037 E12.46461
G1 X117.061 Y111.974 E12.8183
G1 X117.226 Y108.119 E14.10165
G1 X117.447 Y106.574 E14.62075
G1 X117.591 Y106.574 E14.66865
G1 X117.622 Y107.014 E14.81535
G1 X117.733 Y108.349 E15.26091
G1 X117.694 Y111.928 E16.45136
G1 X117.805 Y116.62 E18.01236
G1 X117.847 Y118.012 E18.47555
G1 X117.8 Y125.413 E20.93719
G1 X117.785 Y127.048 E21.48101
G1 X118.082 Y135.414 E24.26531
G1 X118.074 Y136.793 E24.72397
G1 X117.836 Y146.045 E27.80222
G1 X117.763 Y147.518 E28.29274
G1 X117.71 Y148.923 E28.76038
G0 F8250 X117.646 Y147.834
G0 X117.547 Y144.864
G0 X117.653 Y144.823
;TYPE:SKIN
G1 F748.3 X117.654 Y144.54 E28.82157
G1 X117.719 Y138.818 E30.05891
G1 X117.735 Y135.69 E30.73528
G1 X117.544 Y129.376 E32.10117
G1 X117.484 Y126.608 E32.69984
G1 X117.529 Y120.057 E34.11638
G1 X117.519 Y117.239 E34.72572
G1 X117.379 Y112.006 E35.85765
G1 X117.466 Y108.241 E36.67197
G0 F8250 X117.417 Y108.007
G1 F748.3 X117.52 Y107.905 E36.69607
G1 F2700 E31.69607
;MESH:NONMESH
G0 F300 X117.52 Y107.905 Z4.28
G0 F8250 X117.498 Y107.936
G0 X117.645 Y147.467
G0 X118.615 Y147.524
G0 X118.551 Y149.298
G0 X117.373 Y163.279
;TIME_ELAPSED:18.364428
;LAYER:2
M106 S170
;TYPE:WALL-OUTER
;MESH:BoatHollow.stl
G1 F2700 E36.69607
G1 F2100 X117.735 Y163.281 E36.81648
G1 X117.831 Y162.387 E37.11553
G1 X117.865 Y162.387 E37.12684
G1 X117.828 Y164.046 E37.67876
G1 X117.824 Y164.089 E37.69313
G1 X117.832 Y164.421 E37.80358
G1 X117.751 Y164.747 E37.91531
G1 X117.636 Y164.979 E38.00143
G1 X117.498 Y164.98 E38.04733
G1 X117.403 Y164.742 E38.13256
G1 X117.257 Y164.343 E38.27387
G1 X117.27 Y164.046 E38.37275
G1 X117.258 Y162.442 E38.90626
G1 X117.311 Y162.614 E38.96612
G1 X117.373 Y163.279 E39.18826
G0 F10500 X117.55 Y163.653
;TYPE:SKIN
G1 F2100 X117.547 Y163.933 E39.25416
G1 X117.544 Y164.496 E39.38665
G0 F10500 X117.654 Y164.526
G0 X117.642 Y163.484
G0 X117.665 Y163.485
G1 F2100 X117.633 Y163.454 E39.39406
G1 F2700 E34.39406
G0 F10500 X118.055 Y162.2
G0 X118.129 Y160.182
G0 X117.353 Y146.153
G0 X115.927 Y140.629
G0 X114.98 Y134.355
G0 X114.553 Y131.114
G0 X114.275 Y126.289
G0 X114.194 Y120.72
G0 X116.337 Y140.523
G0 X116.844 Y140.493
G0 X116.848 Y142.718
G0 X118.016 Y142.707
G0 X118.333 Y138.315
;TYPE:WALL-INNER
G1 F2700 E39.39406
G1 F2100 X118.863 Y138.354 E39.57082
G1 X119.332 Y134.494 E40.8641
G1 X119.793 Y131.192 E41.973
G1 X120.303 Y127.173 E43.32045
G1 X120.113 Y123.451 E44.56
G1 X120.418 Y119.338 E45.93175
G1 X120.355 Y116.306 E46.94041
G1 X120.393 Y115.029 E47.36533
G1 X120.462 Y112.651 E48.15659
G1 X119.953 Y110.833 E48.78451
G1 X119.209 Y108.182 E49.7003
G1 X118.107 Y107.896 E50.07897
G1 X118.112 Y107.55 E50.19406
G1 X117.539 Y107.749 E50.39581
G1 X117.486 Y107.766 E50.41432
G1 X115.93 Y108.31 E50.96257
G1 X115.464 Y110.024 E51.55334
G1 X114.925 Y112.009 E52.23746
G1 X114.656 Y112.996 E52.57771
G1 X114.317 Y117.91 E54.216
G1 X114.28 Y119.331 E54.68879
G1 X114.376 Y120.426 E55.05438
G1 X114.457 Y121.341 E55.3599
G1 X114.857 Y127.172 E57.30386
G1 X115.36 Y131.198 E58.65332
G1 X115.788 Y134.49 E59.75746
G1 X116.497 Y140.331 E61.71445
G1 X117.026 Y140.299 E61.89071
G1 X117.03 Y141.266 E62.21234
G1 X117.029 Y142.557 E62.64173
G1 X118.091 Y142.68 E62.99731
G1 X118.252 Y141.994 E63.23168
G1 X118.254 Y141.301 E63.46217
G1 X118.333 Y138.315 E64.45567
G0 F10500 X118.512 Y137.927
;TYPE:WALL-OUTER
G1 F2100 X118.936 Y134.439 E65.62432
G1 X119.396 Y131.139 E66.73252
G1 X119.902 Y127.158 E68.06726
G1 X119.712 Y123.441 E69.30515
G1 X120.018 Y119.327 E70.67725
G1 X119.955 Y116.294 E71.68625
G1 X120.06 Y112.7 E72.88213
G1 X118.886 Y108.511 E74.32908
G1 X117.896 Y108.254 E74.66927
G1 X117.848 Y112.069 E75.93824
G1 X117.891 Y113.834 E76.52546
G1 X118.019 Y118.018 E77.91771
G1 X118.003 Y120.639 E78.78948
G1 X117.946 Y127.041 E80.91887
G1 X118.085 Y130.984 E82.23114
G1 X118.162 Y136.723 E84.14011
G1 X118.131 Y137.899 E84.53138
G1 X118.512 Y137.927 E84.65845
G1 F2700 E79.65845
G0 F10500 X117.977 Y142.287
G1 F2700 E84.65845
G0 F10500 X117.783 Y142.242
G1 F2100 X117.852 Y141.947 E84.75921
G1 X117.854 Y141.29 E84.97773
G1 X117.975 Y136.731 E86.49459
G1 X117.901 Y131.276 E88.3091
G1 X117.751 Y127.042 E89.71822
G1 X117.803 Y120.871 E91.77078
G1 X117.823 Y118.024 E92.71771
G1 X117.698 Y113.96 E94.07005
G1 X117.653 Y112.075 E94.69718
G1 X117.705 Y108.115 E96.01439
G1 X117.255 Y108.271 E96.1728
G1 X117.099 Y112.086 E97.44274
G1 X117.213 Y116.121 E98.78532
G1 X117.27 Y117.997 E99.40957
G1 X117.239 Y124.037 E101.41851
G1 X117.216 Y127.032 E102.41468
G1 X117.312 Y132.783 E104.32773
G1 X117.411 Y136.706 E105.63294
G1 X117.43 Y141.266 E107.14962
G1 X117.429 Y142.201 E107.4606
G1 X117.783 Y142.242 E107.57913
G1 F2700 E102.57913
G0 F10500 X117.977 Y142.287
G0 X117.301 Y142.315
G0 X116.849 Y139.909
G1 F2700 E107.57913
G1 F2100 X117.226 Y139.886 E107.70475
G1 X117.214 Y136.709 E108.76143
G1 X117.118 Y133.004 E109.99414
G1 X117.019 Y127.039 E111.97838
G1 X117.039 Y124.236 E112.91068
G1 X117.072 Y118.003 E114.98381
G1 X117.019 Y116.253 E115.56613
G1 X116.904 Y112.09 E116.95128
G1 X117.062 Y108.338 E118.20031
G1 X116.261 Y108.618 E118.48253
G1 X115.052 Y113.063 E120.01465
G1 X114.717 Y117.929 E121.63692
G1 X114.68 Y119.319 E122.0994
G1 X114.856 Y121.314 E122.76552
G1 X115.255 Y127.133 E124.70547
G1 X115.757 Y131.147 E126.05093
G1 X116.185 Y134.438 E127.15474
G1 X116.849 Y139.909 E128.98776
G1 F2700 E123.98776
G0 F10500 X116.337 Y140.523
G0 X114.194 Y120.72
G0 X114.29 Y127.059
G0 X114.553 Y131.114
G0 X115.103 Y135.259
G0 X115.927 Y140.629
G0 X117.656 Y147.38
;TYPE:WALL-INNER
G1 F2700 E128.98776
G1 F2100 X117.623 Y147.372 E128.99905
G1 X117.624 Y147.042 E129.10881
G1 X117.192 Y146.214 E129.41943
G1 X116.501 Y143.688 E130.29045
G1 X115.759 Y140.659 E131.32769
G1 X114.921 Y135.261 E133.14458
G1 X114.811 Y134.377 E133.44086
G1 X114.382 Y131.125 E134.53185
G1 X114.119 Y127.072 E135.88272
G1 X114.104 Y126.293 E136.14187
G1 X113.977 Y120.407 E138.10001
G1 X113.954 Y119.309 E138.43312
G1 X114.099 Y117.717 E138.85094
G1 X114.334 Y112.989 E140.05095
G1 X114.63 Y111.929 E140.34373
G1 X115.078 Y109.922 E140.94712
G1 X115.951 Y106.011 E142.27994
G1 X116.952 Y105.682 E142.63039
G1 X117.586 Y105.359 E142.86705
G1 X118.253 Y105.641 E143.10791
G1 X119.131 Y105.864 E143.40921
G1 X119.2 Y105.99 E143.45699
G1 X119.567 Y108.12 E144.17587
G1 X120.032 Y110.81 E144.68086
G1 X120.584 Y112.657 E144.85039
G1 X120.789 Y115.027 E145.36836
G1 X121.038 Y117.888 E146.32352
G1 X121.008 Y118.701 E146.59411
G1 X121.021 Y119.257 E146.77909
G1 X120.962 Y120.023 E147.03462
G1 X121.117 Y122.867 E147.98194
G1 X121.062 Y126.233 E149.10163
G1 X121.069 Y127.194 E149.42126
G1 X120.751 Y131.275 E150.78272
G1 X120.31 Y134.374 E151.82384
G1 X120.201 Y135.26 E152.12075
G1 X119.361 Y140.662 E153.93905
G1 X118.618 Y143.698 E154.97863
G1 X117.931 Y146.217 E155.84705
G1 X117.647 Y146.759 E156.05057
G1 X117.656 Y147.38 E156.13544
G1 F2700 E151.13544
G0 F10500 X117.355 Y160.423
G1 F2700 E156.13544
G0 F10500 X117.191 Y160.423
;TYPE:WALL-OUTER
G1 F2100 X117.601 Y160.423 E156.2718
G1 X117.935 Y160.41 E156.38298
G1 X117.849 Y159.176 E156.7944
G1 X117.931 Y155.273 E158.09283
G1 X117.947 Y153.065 E158.82724
G1 X117.871 Y147.844 E160.56393
G1 X117.569 Y147.771 E160.66727
G1 X117.416 Y148.06 E160.77603
G1 X117.411 Y149.714 E161.32616
G1 X117.502 Y155.281 E163.178
G1 X117.333 Y157.916 E164.0562
G1 X117.191 Y160.423 E164.89137
G0 F10500 X117.962 Y160.639
G1 F2100 X117.153 Y160.639 E165.16044
G1 X117.185 Y158.64 E165.8254
G1 X117.304 Y155.28 E166.94364
G1 X117.214 Y149.962 E168.71267
G1 X117.224 Y147.14 E169.65127
G1 X116.817 Y146.361 E169.9436
G1 X116.115 Y143.794 E170.82874
G1 X115.368 Y140.746 E171.87251
G1 X114.524 Y135.311 E173.70186
G1 X114.414 Y134.428 E173.99782
G1 X113.985 Y131.177 E175.08848
G1 X113.719 Y127.084 E176.45269
G1 X113.704 Y126.301 E176.71317
G1 X113.554 Y119.299 E179.04258
G1 X113.7 Y117.689 E179.58026
G1 X113.936 Y112.929 E181.16539
G1 X114.242 Y111.832 E181.54418
G1 X115.574 Y105.867 E183.57701
G1 X115.677 Y105.68 E183.64802
G1 X116.798 Y105.312 E184.04044
G1 X117.199 Y105.107 E184.19023
G1 X117.332 Y101.846 E185.27575
G1 X117.406 Y101.571 E185.37046
G1 X117.485 Y101.402 E185.43251
G1 X117.673 Y101.401 E185.49504
G1 X117.819 Y101.977 E185.69268
G1 X117.913 Y105.063 E186.71956
G1 X118.381 Y105.261 E186.88858
G1 X119.396 Y105.518 E187.23682
G1 X119.538 Y105.772 E187.33361
G1 X119.583 Y105.856 E187.3653
G1 X120.422 Y110.718 E189.00631
G1 X120.98 Y112.586 E189.65474
G1 X121.439 Y117.876 E191.42081
G1 X121.408 Y118.704 E191.6964
G1 X121.421 Y119.269 E191.88437
G1 X121.363 Y120.027 E192.13722
G1 X121.517 Y122.867 E193.08319
G1 X121.462 Y126.235 E194.20354
G1 X121.469 Y127.21 E194.52784
G1 X121.149 Y131.315 E195.89731
G1 X120.707 Y134.427 E196.94275
G1 X120.598 Y135.31 E197.23867
G1 X119.752 Y140.747 E199.06878
G1 X119.007 Y143.793 E200.11175
G1 X118.306 Y146.362 E200.99744
G1 X118.048 Y146.855 E201.18251
G1 X118.134 Y152.634 E203.10482
G1 X118.114 Y155.253 E203.97593
G1 X117.886 Y158.863 E205.17901
G1 X117.962 Y160.639 E205.77026
G0 F10500 X117.786 Y160.472
G0 X117.834 Y146.149
G0 X117.565 Y146.075
;TYPE:SKIN
G1 F2100 X117.558 Y146.072 E205.77279
G1 X116.879 Y143.59 E206.62864
G1 X116.713 Y142.912 E206.8608
G1 X118.361 Y143.104 E207.41264
G1 X118.241 Y143.6 E207.58237
G1 X117.565 Y146.075 E208.43571
G1 F2700 E203.43571
G0 F10500 X117.834 Y146.149
G0 X117.562 Y146.509
G0 X117.353 Y146.153
G0 X115.927 Y140.629
G0 X114.98 Y134.355
G0 X114.553 Y131.114
G0 X114.275 Y126.289
G0 X114.194 Y120.72
G0 X116.337 Y140.523
G0 X116.844 Y140.493
G0 X116.919 Y142.619
G1 F2700 E208.43571
G0 F10500 X116.641 Y142.618
G1 F2100 X116.181 Y140.741 E209.07848
G1 X116.638 Y140.714 E209.23074
G1 X116.641 Y142.618 E209.86401
G0 F10500 X116.919 Y142.619
G0 X117.882 Y142.384
G0 X118.363 Y141.955
G0 X118.642 Y141.956
G1 F2100 X118.644 Y141.311 E210.07854
G1 X118.712 Y138.733 E210.93629
G1 X119.206 Y138.77 E211.10105
G1 X119.719 Y134.541 E212.51793
G1 X120.179 Y131.243 E213.62547
G1 X120.655 Y127.505 E214.87878
G1 X120.365 Y131.22 E216.11815
G1 X119.924 Y134.323 E217.16058
G1 X119.815 Y135.2 E217.45452
G1 X118.977 Y140.59 E219.26878
G1 X118.642 Y141.956 E219.73657
G0 F10500 X118.363 Y141.955
G0 X117.882 Y142.384
G0 X117.301 Y142.315
G0 X116.844 Y140.493
G0 X116.39 Y140.366
G0 X116.114 Y140.399
G1 F2100 X115.303 Y135.176 E221.49457
G1 X115.197 Y134.328 E221.77881
G1 X114.772 Y131.1 E222.86171
G1 X114.574 Y128.052 E223.87761
G1 X114.973 Y131.247 E224.94853
G1 X115.401 Y134.539 E226.05267
G1 X116.114 Y140.399 E228.01609
G0 F10500 X116.39 Y140.366
G0 X117.055 Y139.714
G0 X118.311 Y133.874
G0 X118.308 Y137.689
G0 X118.666 Y137.716
G0 X120.397 Y126.837
G0 X120.676 Y126.823
G1 F2100 X120.503 Y123.444 E229.14142
G1 X120.65 Y121.468 E229.80046
G1 X120.727 Y122.888 E230.27344
G1 X120.672 Y126.231 E231.38548
G1 X120.676 Y126.823 E231.58238
G0 F10500 X120.397 Y126.837
G0 X118.42 Y139.211
G0 X118.858 Y139.222
G1 F2100 X119.004 Y139.369 E231.65129
G0 F10500 X118.843 Y139.773
G1 F2100 X118.928 Y139.858 E231.69128
G1 F2700 E226.69128
G0 F10500 X119.363 Y139.926
G0 X120.582 Y131.249
G0 X120.898 Y127.197
G0 X120.946 Y122.878
G0 X120.867 Y117.89
G0 X120.596 Y115.19
G0 X119.962 Y131.215
G0 X118.511 Y138.511
G0 X118.493 Y139.379
G0 X117.787 Y142.756
G1 F2700 E231.69128
G0 F10500 X117.736 Y143.192
G1 F2100 X118.089 Y143.545 E231.85732
G0 F10500 X117.968 Y143.99
G1 F2100 X117.096 Y143.117 E232.26771
G0 F10500 X117.06 Y143.647
G1 F2100 X117.847 Y144.435 E232.63813
G0 F10500 X117.726 Y144.879
G1 F2100 X117.272 Y144.425 E232.85168
G0 F10500 X117.485 Y145.204
G1 F2100 X117.604 Y145.323 E232.90765
G0 F10500 X117.393 Y146.243
;TYPE:SKIN
G1 F2100 X117.618 Y146.468 E232.96057
G1 F2700 E227.96057
G0 F10500 X117.662 Y146.492
G0 X117.353 Y146.153
G0 X115.927 Y140.629
G0 X114.98 Y134.355
G0 X114.553 Y131.114
G0 X114.275 Y126.289
G0 X114.194 Y120.72
G0 X116.337 Y140.523
G0 X116.844 Y140.493
G0 X116.846 Y142.294
G0 X118.157 Y142.885
G1 F2700 E232.96057
G0 F10500 X118.315 Y142.922
G1 F2100 X118.22 Y142.827 E232.98291
G0 F10500 X118.274 Y142.598
G1 F2100 X118.634 Y142.958 E233.06758
G0 F10500 X118.689 Y142.731
G1 F2100 X118.327 Y142.369 E233.15271
G0 F10500 X118.381 Y142.14
G1 F2100 X118.745 Y142.504 E233.23832
G0 F10500 X118.801 Y142.276
G1 F2100 X118.658 Y142.134 E233.27183
G1 F2700 E228.27183
G0 F10500 X118.874 Y142.187
G0 X119.193 Y140.632
G0 X120.141 Y134.351
G0 X120.582 Y131.249
G0 X120.898 Y127.197
G0 X120.946 Y122.878
G0 X120.867 Y117.89
G0 X120.596 Y115.19
G0 X119.962 Y131.215
G0 X118.511 Y138.511
G0 X116.991 Y135.512
G0 X117.053 Y136.711
G0 X117.055 Y139.714
G0 X116.7 Y139.736
G0 X114.83 Y127.844
G1 F2700 E233.27183
G0 F10500 X114.58 Y127.874
G1 F2100 X114.314 Y127.608 E233.33439
G0 F10500 X114.294 Y127.305
G1 F2100 X114.773 Y127.784 E233.44705
G0 F10500 X114.732 Y127.46
G1 F2100 X114.277 Y127.005 E233.55406
G0 F10500 X114.271 Y126.717
G1 F2100 X114.694 Y127.139 E233.65342
G0 F10500 X114.674 Y126.836
G1 F2100 X114.266 Y126.428 E233.74938
G0 F10500 X114.26 Y126.14
G1 F2100 X114.653 Y126.532 E233.84169
G0 F10500 X114.632 Y126.229
G1 F2100 X114.254 Y125.85 E233.9307
G0 F10500 X114.247 Y125.561
G1 F2100 X114.611 Y125.925 E234.01631
G0 F10500 X114.59 Y125.621
G1 F2100 X114.242 Y125.273 E234.09816
G0 F10500 X114.235 Y124.983
G1 F2100 X114.569 Y125.317 E234.17671
G0 F10500 X114.549 Y125.014
G1 F2100 X114.229 Y124.694 E234.25197
G0 F10500 X114.223 Y124.405
G1 F2100 X114.527 Y124.71 E234.32358
G0 F10500 X114.507 Y124.406
G1 F2100 X114.217 Y124.117 E234.39167
G0 F10500 X114.486 Y124.102
G1 F2100 X114.211 Y123.827 E234.45634
G0 F10500 X114.465 Y123.799
G1 F2100 X114.204 Y123.538 E234.51773
G0 F10500 X114.444 Y123.495
G1 F2100 X114.198 Y123.249 E234.57558
G0 F10500 X114.424 Y123.192
G1 F2100 X114.192 Y122.96 E234.63014
G0 F10500 X114.402 Y122.888
G1 F2100 X114.186 Y122.671 E234.68106
G0 F10500 X114.382 Y122.584
G1 F2100 X114.18 Y122.382 E234.72857
G0 F10500 X114.361 Y122.281
G1 F2100 X114.173 Y122.093 E234.77278
G0 F10500 X114.34 Y121.977
G1 F2100 X114.167 Y121.804 E234.81347
G0 F10500 X114.32 Y121.673
G1 F2100 X114.161 Y121.515 E234.85075
G0 F10500 X114.3 Y121.371
G1 F2100 X114.155 Y121.226 E234.88485
G0 F10500 X114.272 Y121.06
G1 F2100 X114.148 Y120.937 E234.91389
G0 F10500 X114.244 Y120.749
G1 F2100 X114.142 Y120.647 E234.93788
G0 F10500 X114.914 Y113.036
G0 X116.149 Y108.514
G0 X116.887 Y108.269
G0 X118.052 Y108.713
G0 X118.072 Y108.172
G0 X118.995 Y108.401
G0 X120.199 Y112.683
G0 X120.405 Y121.014
G0 X120.452 Y121.018
G1 F2100 X120.727 Y121.292 E235.00244
G0 F10500 X120.863 Y121.146
G1 F2100 X120.471 Y120.754 E235.09463
G0 F10500 X120.491 Y120.491
G1 F2100 X120.847 Y120.847 E235.17836
G0 F10500 X120.83 Y120.547
G1 F2100 X120.511 Y120.228 E235.25338
G0 F10500 X120.53 Y119.964
G1 F2100 X120.814 Y120.248 E235.32018
G0 F10500 X120.807 Y119.958
G1 F2100 X120.55 Y119.701 E235.38062
G0 F10500 X120.569 Y119.438
G1 F2100 X120.826 Y119.695 E235.44106
G0 F10500 X120.847 Y119.433
G1 F2100 X120.573 Y119.158 E235.50562
G0 F10500 X120.857 Y119.16
G1 F2100 X120.567 Y118.87 E235.57382
G0 F10500 X120.851 Y118.871
G1 F2100 X120.56 Y118.581 E235.64214
G0 F10500 X120.554 Y118.291
G1 F2100 X120.851 Y118.588 E235.71199
G0 F10500 X120.861 Y118.315
G1 F2100 X120.548 Y118.003 E235.78549
G0 F10500 X120.542 Y117.714
G1 F2100 X120.871 Y118.042 E235.86275
G0 F10500 X120.865 Y117.754
G1 F2100 X120.536 Y117.425 E235.94012
G0 F10500 X120.53 Y117.136
G1 F2100 X120.838 Y117.444 E236.01256
G0 F10500 X120.812 Y117.135
G1 F2100 X120.524 Y116.847 E236.08029
G0 F10500 X120.785 Y116.825
G1 F2100 X120.518 Y116.558 E236.14309
G0 F10500 X120.758 Y116.515
G1 F2100 X120.514 Y116.271 E236.20047
G0 F10500 X120.731 Y116.205
G1 F2100 X120.522 Y115.997 E236.24951
G0 F10500 X120.704 Y115.896
G1 F2100 X120.53 Y115.722 E236.29043
G0 F10500 X120.677 Y115.586
G1 F2100 X120.539 Y115.447 E236.323
G0 F10500 X120.65 Y115.276
G1 F2100 X120.546 Y115.172 E236.34746
G0 F10500 X120.594 Y115.13
G0 X120.867 Y117.89
G0 X120.958 Y126.994
G0 X120.772 Y126.994
G1 F2100 X120.908 Y127.131 E236.37957
G0 F10500 X120.841 Y127.347
G1 F2100 X120.496 Y127.002 E236.46071
G0 F10500 X120.454 Y127.242
G1 F2100 X120.527 Y127.315 E236.47787
G0 F10500 X120.399 Y127.299
G0 X120.095 Y116.301
G0 X120.199 Y112.683
G0 X119.384 Y107.706
G0 X119.109 Y107.752
;TYPE:SKIN
G1 F2100 X118.501 Y107.595 E236.68673
G1 X118.51 Y106.998 E236.88531
G1 X117.416 Y107.379 E237.27062
G1 X117.362 Y107.396 E237.28944
G1 X115.929 Y107.898 E237.79446
G1 X116.282 Y106.312 E238.33488
G1 X117.102 Y106.043 E238.62191
G1 X117.601 Y105.788 E238.80829
G1 X118.128 Y106.012 E238.99875
G1 X118.839 Y106.193 E239.24277
G1 X119.109 Y107.752 E239.76902
G0 F10500 X119.384 Y107.706
G0 X119.207 Y106.682
G0 X118.656 Y106.776
G1 F2100 X118.019 Y106.14 E240.06841
G0 F10500 X117.388 Y106.075
G1 F2100 X118.236 Y106.923 E240.46728
G0 F10500 X117.816 Y107.068
G1 F2100 X116.995 Y106.247 E240.85345
G0 F10500 X116.568 Y106.386
G1 F2100 X117.397 Y107.215 E241.24339
G0 F10500 X116.977 Y107.36
G1 F2100 X116.35 Y106.733 E241.53831
G0 F10500 X116.247 Y107.196
G1 F2100 X116.558 Y107.507 E241.68459
G0 F10500 X116.702 Y107.923
G0 X118.225 Y107.343
G0 X118.663 Y107.349
G1 F2100 X118.828 Y107.514 E241.76221
G0 F10500 X118.802 Y106.923
G1 F2100 X118.671 Y106.792 E241.82382
G0 F10500 X119.211 Y106.7
G0 X119.36 Y108.026
G0 X117.923 Y107.886
G0 X115.832 Y108.227
G0 X115.817 Y108.18
;TYPE:SKIN
G1 F2100 X115.663 Y108.026 E241.86004
G0 F10500 X115.611 Y108.258
G1 F2100 X115.742 Y108.388 E241.89073
G0 F10500 X115.56 Y108.489
G1 F2100 X115.682 Y108.611 E241.91943
G0 F10500 X115.508 Y108.72
G1 F2100 X115.621 Y108.833 E241.946
G0 F10500 X115.457 Y108.951
G1 F2100 X115.561 Y109.055 E241.97046
G0 F10500 X115.405 Y109.182
G1 F2100 X115.5 Y109.278 E241.99292
G0 F10500 X115.353 Y109.414
G1 F2100 X115.44 Y109.5 E242.01327
G0 F10500 X115.302 Y109.645
G1 F2100 X115.38 Y109.723 E242.03161
G0 F10500 X115.25 Y109.876
G1 F2100 X115.319 Y109.945 E242.04784
G0 F10500 X115.374 Y109.56
G0 X116.101 Y106.148
G0 X117.424 Y105.262
G0 X117.396 Y105.234
G1 F2100 X117.521 Y105.076 E242.09373
G1 X117.567 Y103.708 E242.40552
G1 X117.573 Y102.299 E242.72647
G0 F10500 X117.647 Y102.09
G1 F2100 X117.502 Y101.945 E242.76057
G1 F2700 E237.76057
;MESH:NONMESH
G0 F300 X117.502 Y101.945 Z6.28
G0 F10500 X117.526 Y101.947
G0 X117.593 Y105.551
G0 X119.036 Y106.047
G0 X119.36 Y108.026
G0 X117.473 Y107.589
G0 X117.418 Y108.374
G0 X117.149 Y142.742
G0 X116.844 Y140.493
G0 X114.687 Y127.189
G0 X114.277 Y121.381
G0 X114.194 Y120.72
G0 X114.29 Y127.059
G0 X114.553 Y131.114
G0 X115.103 Y135.259
G0 X115.927 Y140.629
G0 X117.362 Y147.107
G0 X117.004 Y158.635
G0 X116.319 Y158.625
G0 X116.287 Y161.492
G0 X117.066 Y161.522
G0 X117.066 Y162.2
G0 X117.286 Y162.897
;TIME_ELAPSED:62.023930
;LAYER:3
M106 S255
;TYPE:WALL-OUTER
;MESH:BoatHollow.stl
G1 F2700 E242.76057
G1 F2100 X117.359 Y163.205 E242.86585
G1 X117.389 Y163.543 E242.97871
G1 X117.751 Y163.547 E243.09912
G1 X117.822 Y162.897 E243.3166
G1 X117.286 Y162.897 E243.49487
G1 F2700 E238.49487
G0 F10500 X117.389 Y163.231
G0 X117.564 Y165.551
G1 F2700 E243.49487
G0 F10500 X117.466 Y165.739
G1 F2100 X117.254 Y165.437 E243.6176
G1 X117.292 Y164.738 E243.85043
G1 X117.294 Y164.401 E243.96252
G1 X117.282 Y162.897 E244.46277
G1 X116.991 Y162.897 E244.55955
G1 X116.972 Y162.805 E244.5908
G1 X117.274 Y162.805 E244.69124
G1 X117.27 Y162.758 E244.70693
G1 X117.865 Y162.758 E244.90483
G1 X117.864 Y162.804 E244.92013
G1 X118.148 Y162.804 E245.01459
G1 X118.128 Y162.897 E245.04623
G1 X117.861 Y162.897 E245.13504
G1 X117.835 Y164.103 E245.53625
G1 X117.809 Y164.438 E245.648
G1 X117.834 Y165.445 E245.98304
G1 X117.839 Y165.555 E246.01966
G1 X117.675 Y165.739 E246.10164
G1 X117.466 Y165.739 E246.17115
G0 F10500 X117.609 Y165.516
;TYPE:SKIN
G1 F2100 X117.546 Y165.295 E246.2124
G1 X117.565 Y163.862 E246.46961
G1 F2700 E241.46961
G0 F10500 X117.643 Y163.761
G0 X117.709 Y163.399
G0 X118.055 Y162.571
G0 X119.09 Y162.552
G0 X119.187 Y162.069
G0 X118.999 Y157.161
G0 X118.004 Y156.815
G0 X120.785 Y150.957
G0 X122.089 Y146.724
G0 X123.111 Y140.923
G0 X125.139 Y127.584
G0 X125.182 Y125.84
G0 X124.749 Y118.525
G0 X124.226 Y111.938
G0 X122.819 Y107.252
G0 X122.11 Y105.353
G0 X121.428 Y103.851
;TYPE:WALL-INNER
G1 F2700 E246.46961
G1 F2100 X121.272 Y103.658 E246.55215
G1 X120.942 Y103.034 E246.78693
G1 X120.864 Y102.893 E246.84052
G1 X119.694 Y101.806 E247.37169
G1 X118.148 Y101.139 E247.93171
G1 X118.145 Y101.043 E247.96365
G1 X117.922 Y101.042 E248.03782
G1 X117.611 Y100.908 E248.15046
G1 X117.613 Y100.848 E248.17042
G1 X117.216 Y101.038 E248.31681
G1 X117.007 Y101.037 E248.38632
G1 X117.571 Y100.813 E248.47263
G1 X118.187 Y101.026 E248.60069
G1 X119.436 Y101.458 E248.78683
G1 X119.906 Y101.92 E248.93447
G1 X120.858 Y102.791 E248.96164
G1 X121.428 Y103.851 E249.24532
G0 F10500 X119.548 Y102.028
G0 X117.815 Y101.314
G0 X116.98 Y101.151
G1 F2100 X116.04 Y101.601 E249.59194
G1 X115.417 Y101.899 E249.82164
G1 X114.707 Y102.603 E250.15419
G1 X114.353 Y102.953 E250.31977
G1 X114.251 Y103.14 E250.39061
G1 X113.702 Y104.065 E250.74838
G1 X113.666 Y104.102 E250.76555
G1 X114.388 Y102.773 E251.05665
G1 X114.622 Y102.518 E251.08478
G1 X115.349 Y101.828 E251.17609
G1 X115.646 Y101.546 E251.26375
G1 X115.967 Y101.45 E251.28743
G1 X116.984 Y101.046 E251.41329
G1 X116.98 Y101.151 E251.44824
G0 F10500 X115.57 Y102.116
G0 X114.564 Y103.111
G0 X113.285 Y104.992
G0 X111.843 Y109.089
G0 X111.05 Y111.753
G0 X110.784 Y114.301
G0 X110.186 Y120.929
G1 F2100 X110.206 Y121.484 E251.63295
G1 X110.198 Y123.358 E252.25625
G1 X110.181 Y126.92 E253.44099
G1 X110.667 Y129.252 E254.23328
G1 X110.809 Y129.929 E254.46336
G1 X110.866 Y130.943 E254.80115
G1 X110.965 Y132.724 E255.39442
G1 X111.066 Y134.509 E255.98907
G1 X111.166 Y135.562 E256.34087
G1 X111.434 Y138.004 E257.15796
G1 X111.759 Y140.955 E258.1454
G1 X111.926 Y141.942 E258.47834
G1 X111.5 Y140.905 E258.61607
G1 X111.35 Y138.014 E259.02788
G1 X111.036 Y135.579 E259.24777
G1 X110.885 Y134.408 E259.4258
G1 X110.628 Y132.743 E259.80986
G1 X110.467 Y130.966 E260.35721
G1 X110.324 Y129.393 E260.88255
G1 X110.109 Y127.021 E261.41274
G1 X110.165 Y123.358 E261.67971
G1 X110.181 Y121.484 E261.72533
G1 X110.186 Y120.929 E261.73111
G1 F2700 E256.73111
G0 F10500 X110.578 Y116.249
G0 X111.05 Y111.753
G0 X111.843 Y109.089
G0 X113.285 Y104.992
G0 X114.564 Y103.111
G0 X115.57 Y102.116
G0 X117.321 Y101.311
G0 X117.822 Y101.302
G0 X119.548 Y102.028
G0 X120.713 Y103.157
G0 X121.943 Y104.907
G0 X122.819 Y107.252
G0 X124.226 Y111.938
G0 X124.813 Y119
G0 X125.182 Y125.84
G0 X125.117 Y128.49
G1 F2700 E261.73111
G1 F2100 X124.995 Y130.127 E262.27709
G1 X124.69 Y134.187 E263.63125
G1 X124.651 Y135.198 E263.96776
G1 X124.18 Y138.901 E265.20931
G1 X123.859 Y140.113 E265.62632
G1 X123.66 Y140.865 E265.88505
G1 X123.171 Y142.116 E266.33179
G1 X123.368 Y140.963 E266.4655
G1 X123.478 Y140.193 E266.7006
G1 X124.047 Y136.218 E268.03617
G1 X124.151 Y135.187 E268.38082
G1 X124.537 Y130.261 E270.02424
G1 X125.117 Y128.49 E270.35469
G0 F10500 X124.705 Y130.298
G0 X122.722 Y143.2
G0 X122.153 Y146.371
G0 X120.839 Y151.422
G1 F2100 X120.369 Y152.907 E270.87276
G1 X120.2 Y153.345 E271.0289
G1 X120.048 Y153.72 E271.16348
G1 X119.129 Y154.978 E271.68165
G1 X118.63 Y155.661 E271.96299
G1 X117.717 Y156.714 E272.42653
G1 X117.723 Y156.842 E272.46915
G1 X117.635 Y156.813 E272.47277
G1 X117.565 Y156.894 E272.50838
G1 X117.476 Y156.791 E272.52817
G1 X117.376 Y156.824 E272.56319
G1 X117.381 Y156.683 E272.58189
G1 X117.063 Y156.314 E272.7439
G1 X116.313 Y155.322 E273.15753
G1 X115.422 Y154.143 E273.64905
G1 X115.071 Y153.707 E273.83522
G1 X114.922 Y153.345 E273.96542
G1 X114.754 Y152.909 E274.12083
G1 X114.348 Y151.545 E274.59416
G1 X114.982 Y152.792 E274.74185
G1 X115.174 Y153.168 E274.84243
G1 X115.463 Y153.558 E274.98719
G1 X115.728 Y153.916 E275.13156
G1 X116.605 Y155.1 E275.59025
G1 X116.841 Y155.021 E275.67303
G1 X116.818 Y155.387 E275.74573
G1 X117.539 Y156.36 E276.11927
G1 X118.31 Y155.413 E276.52543
G1 X118.315 Y155.09 E276.63287
G1 X118.512 Y155.161 E276.64774
G1 X118.837 Y154.765 E276.80483
G1 X119.72 Y153.493 E277.29459
G1 X119.952 Y153.159 E277.41115
G1 X120.14 Y152.791 E277.50579
G1 X120.839 Y151.422 E277.66867
G1 F2700 E272.66867
G0 F10500 X120.213 Y152.325
G0 X117.708 Y155.834
G1 F2700 E277.66867
G0 F10500 X117.554 Y155.708
;TYPE:WALL-OUTER
G1 F2100 X117.912 Y155.268 E277.85734
G1 X117.916 Y155.034 E277.93518
G1 X117.98 Y145.961 E280.95295
G1 X117.981 Y145.122 E281.232
G1 X118.18 Y145.321 E281.3256
G1 X118.18 Y145.872 E281.50887
G1 X118.116 Y154.593 E284.40956
G1 X118.382 Y154.689 E284.50362
G1 X118.517 Y154.524 E284.57453
G1 X119.608 Y152.953 E285.21068
G1 X120.655 Y150.904 E285.976
G1 X121.954 Y146.691 E287.44235
G1 X122.585 Y143.176 E288.63013
G1 X122.973 Y140.901 E289.39772
G1 X123.65 Y136.17 E290.98729
G1 X123.753 Y135.151 E291.32794
G1 X124.142 Y130.184 E292.98502
G1 X125 Y127.561 E293.90293
G1 X125.043 Y125.841 E294.47518
G1 X124.674 Y119.011 E296.75016
G1 X124.62 Y118.506 E296.91908
G1 X124.088 Y111.965 E299.10181
G1 X123.894 Y111.369 E299.31028
G1 X122.687 Y107.296 E300.72319
G1 X122.244 Y106.155 E301.13029
G1 X121.821 Y104.976 E301.5469
G1 X120.934 Y103.876 E302.01689
G1 X120.59 Y103.224 E302.26208
G1 X120.545 Y103.143 E302.2929
G1 X119.472 Y102.146 E302.78006
G1 X117.948 Y101.489 E303.33204
G1 X118.084 Y105.736 E304.74532
G1 X118.06 Y107.658 E305.38463
G1 X117.858 Y107.658 E305.45182
G1 X117.883 Y105.738 E306.09047
G1 X117.788 Y102.569 E307.14495
G1 X117.757 Y101.441 E307.52027
G1 X117.37 Y101.439 E307.64899
G1 X117.326 Y102.674 E308.06001
G1 X117.211 Y105.752 E309.08447
G1 X117.135 Y107.658 E309.71891
G1 X116.935 Y107.658 E309.78544
G1 X117.186 Y101.496 E311.83662
G1 X115.651 Y102.231 E312.40268
G1 X114.676 Y103.196 E312.85894
G1 X114.595 Y103.344 E312.91506
G1 X114.021 Y104.312 E313.28936
G1 X113.783 Y104.555 E313.40249
G1 X113.411 Y105.055 E313.60977
G1 X112.698 Y107.441 E314.43803
G1 X111.974 Y109.136 E315.05107
G1 X111.317 Y111.319 E315.80931
G1 X111.188 Y111.779 E315.9682
G1 X110.717 Y116.26 E317.4668
G1 X110.527 Y119.348 E318.49582
G1 X110.606 Y121.469 E319.20175
G1 X110.581 Y126.88 E321.00148
G1 X111.206 Y129.871 E322.01778
G1 X111.465 Y134.479 E323.55282
G1 X111.564 Y135.521 E323.90095
G1 X112.155 Y140.9 E325.70078
G1 X112.537 Y143.152 E326.4605
G1 X113.208 Y146.639 E327.64156
G1 X114.468 Y150.9 E329.11944
G1 X115.515 Y152.957 E329.88712
G1 X116.753 Y154.628 E330.57881
G1 X117.029 Y154.535 E330.67568
G1 X117.022 Y154.079 E330.82737
G1 X117.05 Y145.748 E333.59828
G1 X117.049 Y145.279 E333.75427
G1 X117.249 Y144.798 E333.92753
G1 X117.252 Y145.613 E334.19861
G1 X117.224 Y153.958 E336.97418
G1 X117.241 Y155.027 E337.32978
G1 X117.226 Y155.266 E337.40942
G1 X117.554 Y155.708 E337.59249
G1 F2700 E332.59249
G0 F10500 X117.707 Y155.835
G0 X117.563 Y157.332
G0 X119.01 Y157.342
G0 X119.21 Y161.955
G0 X119.09 Y162.552
G0 X117.563 Y162.578
G0 X117.998 Y162.658
G1 F2700 E337.59249
G0 F10500 X118.207 Y161.282
G1 F2100 X118.04 Y157.734 E338.77387
G1 X118.014 Y157.362 E338.8979
G1 X117.761 Y157.277 E338.98667
G1 X117.563 Y157.505 E339.0871
G1 X117.348 Y157.255 E339.19677
G1 X117.093 Y157.34 E339.28617
G1 X117.06 Y157.851 E339.45649
G1 X116.917 Y161.185 E340.5664
G1 X116.957 Y157.369 E341.83568
G1 X116.976 Y156.826 E342.01639
G1 X116.76 Y156.576 E342.12628
G1 X115.106 Y154.389 E343.03828
G1 X114.723 Y153.912 E343.24174
G1 X114.552 Y153.497 E343.39103
G1 X114.376 Y153.041 E343.5536
G1 X113.631 Y150.538 E344.42219
G1 X112.5 Y146.711 E345.74948
G1 X111.667 Y142.364 E347.22161
G1 X111.105 Y140.995 E347.71381
G1 X110.951 Y138.05 E348.69466
G1 X110.489 Y134.464 E349.89723
G1 X110.231 Y132.793 E350.45959
G1 X109.709 Y127.032 E352.38356
G1 X109.765 Y123.353 E353.60734
G1 X109.8 Y119.213 E354.98436
G1 X110.241 Y116.691 E355.8359
G1 X110.756 Y111.721 E357.49778
G1 X111.605 Y108.705 E358.5399
G1 X112.775 Y104.799 E359.89607
G1 X113.174 Y104.17 E360.14381
G1 X114.058 Y102.541 E360.76026
G1 X114.334 Y102.24 E360.89609
G1 X115.44 Y101.19 E361.40332
G1 X115.836 Y101.072 E361.54075
G1 X117.224 Y100.52 E362.03757
G1 X117.277 Y99.165 E362.48859
G1 X117.345 Y98.336 E362.76524
G1 X117.489 Y98.048 E362.87234
G1 X117.694 Y98.141 E362.94721
G1 X117.832 Y98.409 E363.04747
G1 X117.852 Y98.694 E363.14249
G1 X117.877 Y99.11 E363.2811
G1 X117.919 Y100.51 E363.74696
G1 X119.651 Y101.109 E364.3565
G1 X120.181 Y101.63 E364.60369
G1 X121.177 Y102.541 E365.05263
G1 X122.397 Y104.811 E365.90977
G1 X123.565 Y108.762 E367.28009
G1 X124.591 Y111.932 E368.38829
G1 X124.872 Y115.405 E369.54719
G1 X125.245 Y118.865 E370.70466
G1 X125.518 Y123.953 E372.39937
G1 X125.595 Y127.463 E373.56708
G1 X125.089 Y134.21 E375.81744
G1 X125.05 Y135.229 E376.15661
G1 X124.574 Y138.978 E377.41354
G1 X124.041 Y140.989 E378.1055
G1 X123.464 Y142.467 E378.63322
G1 X122.687 Y146.813 E380.10162
G1 X121.557 Y150.48 E381.37787
G1 X120.748 Y153.035 E382.26924
G1 X120.571 Y153.496 E382.43349
G1 X120.401 Y153.914 E382.58357
G1 X118.945 Y155.908 E383.40477
G1 X118.124 Y156.856 E383.82188
G1 X118.146 Y157.364 E383.991
G1 X118.207 Y161.282 E385.29429
G0 F10500 X118.216 Y161.886
G1 F2100 X116.905 Y161.887 E385.73033
G1 X116.905 Y161.851 E385.7423
G1 X118.215 Y161.846 E386.17801
G1 X118.216 Y161.886 E386.19132
G1 F2700 E381.19132
G0 F10500 X117.998 Y162.658
G0 X118.383 Y162.616
G0 X119.09 Y162.552
G0 X119.187 Y162.069
G0 X119.594 Y156.48
G0 X118.85 Y155.836
G0 X120.785 Y150.957
G0 X121.958 Y147.148
G0 X123.723 Y139.265
G1 F2700 E386.19132
G0 F10500 X123.771 Y139.272
;TYPE:SKIN
G1 F2100 X123.967 Y139.075 E386.28375
G0 F10500 X123.866 Y138.612
G1 F2100 X124.083 Y138.394 E386.38605
G0 F10500 X123.96 Y137.951
G1 F2100 X124.165 Y137.747 E386.48225
G0 F10500 X124.055 Y137.291
G1 F2100 X124.247 Y137.098 E386.57279
G0 F10500 X124.149 Y136.631
G1 F2100 X124.329 Y136.451 E386.65746
G0 F10500 X124.231 Y135.983
G1 F2100 X124.411 Y135.803 E386.74213
G0 F10500 X124.294 Y135.355
G1 F2100 X124.491 Y135.158 E386.83479
G0 F10500 X124.346 Y134.737
G1 F2100 X124.514 Y134.569 E386.91381
G0 F10500 X124.394 Y134.124
G1 F2100 X124.544 Y133.973 E386.9846
G0 F10500 X124.442 Y133.51
G1 F2100 X124.59 Y133.361 E387.05445
G0 F10500 X124.49 Y132.896
G1 F2100 X124.637 Y132.749 E387.1236
G0 F10500 X124.538 Y132.282
G1 F2100 X124.683 Y132.137 E387.1918
G0 F10500 X124.587 Y131.668
G1 F2100 X124.729 Y131.526 E387.25859
G0 F10500 X124.635 Y131.054
G1 F2100 X124.775 Y130.914 E387.32444
G0 F10500 X124.683 Y130.44
G1 F2100 X124.821 Y130.302 E387.38935
G0 F10500 X124.869 Y130.306
G0 X125.104 Y128.322
G0 X125.239 Y128.187
;TYPE:SKIN
G1 F2100 X125.194 Y127.949 E387.42861
G1 X125.296 Y126.998 E387.58361
G1 X125.251 Y124.498 E387.98882
G1 X124.968 Y119.124 E388.86093
G1 X124.563 Y114.721 E389.57749
G1 X124.31 Y111.862 E390.04263
G1 X123.434 Y109.061 E390.51823
G0 F10500 X123.443 Y109.035
G0 X122.837 Y107.129
G0 X122.847 Y107.103
G1 F2100 X122.775 Y106.892 E390.56023
G1 X122.05 Y104.788 E390.97939
G1 X121.6 Y104.107 E391.13313
G0 F10500 X121.479 Y104.234
G0 X120.656 Y103.057
G0 X119.548 Y102.028
G0 X117.76 Y101.16
G0 X117.707 Y101.213
G1 F2100 X117.472 Y101.164 E391.17742
G1 X117.565 Y100.506 E391.30003
G1 X117.574 Y98.516 E391.66719
G0 F10500 X117.628 Y98.451
G0 X117.353 Y100.612
G0 X116.39 Y100.976
G0 X113.564 Y104.224
G0 X113.266 Y104.522
G1 F2100 X112.948 Y105.405 E391.82044
G1 X112.201 Y107.849 E392.23774
G1 X111.597 Y109.585 E392.53788
G1 X111.019 Y111.577 E392.87656
G1 X110.755 Y113.821 E393.24551
G1 X110.389 Y117.298 E393.81639
G1 X110.172 Y119.212 E394.13093
G1 X110.208 Y120.589 E394.35585
G1 X110.357 Y120.723 E394.38858
G0 F10500 X110.377 Y120.681
G0 X110.435 Y126.272
G0 X110.671 Y130.003
G0 X110.64 Y130.058
G1 F2100 X110.587 Y130.111 E394.40104
G0 F10500 X110.5 Y130.118
G0 X111.867 Y142.124
G0 X111.828 Y142.163
G1 F2100 X112.017 Y142.257 E394.46361
G1 X112.828 Y146.538 E395.7552
G1 X114.043 Y150.697 E397.03958
G1 X114.271 Y151.317 E397.2354
G0 F10500 X114.39 Y151.186
G0 X115.396 Y153.031
G0 X116.705 Y154.784
G0 X117.162 Y154.629
G0 X117.17 Y151.119
G0 X117.084 Y153.959
G0 X117.102 Y155.021
G0 X117.086 Y155.307
G0 X117.55 Y155.91
G0 X118.628 Y154.608
G0 X119.519 Y153.327
G0 X120.814 Y151.032
G0 X121.092 Y150.718
G1 F2100 X121.351 Y149.893 E397.42793
G1 X122.108 Y147.44 E397.99951
G1 X121.226 Y150.302 E398.66633
G1 X121.052 Y151.041 E398.83537
G1 X121.086 Y151.29 E398.89132
G0 F10500 X121.107 Y151.24
G0 X122.182 Y146.545
G0 X122.401 Y146.299
G1 F2100 X122.462 Y145.954 E399.01949
G1 X123.056 Y142.532 E400.29006
G1 X122.975 Y142.33 E400.36967
G1 F2700 E395.36967
G0 F10500 X123.057 Y142.248
G0 X123.892 Y135.163
G0 X125.139 Y127.584
G0 X125.182 Y125.84
G0 X124.749 Y118.525
G0 X124.226 Y111.938
G0 X122.819 Y107.252
G0 X121.943 Y104.907
G0 X120.656 Y103.057
G0 X119.548 Y102.028
G0 X117.815 Y101.314
G0 X117.241 Y101.322
G0 X115.57 Y102.116
G0 X114.756 Y102.921
G0 X112.846 Y105.258
G1 F2700 E400.36967
G0 F10500 X112.821 Y105.25
G1 F2100 X113.727 Y104.344 E400.58275
G0 F10500 X113.707 Y104.234
G1 F2700 E395.58275
;MESH:NONMESH
G0 F300 X113.707 Y104.234 Z8.28
G0 F10500 X113.285 Y104.992
G0 X111.843 Y109.089
G0 X111.05 Y111.753
G0 X110.578 Y116.249
G0 X110.388 Y119.347
G0 X110.442 Y126.894
G0 X112.017 Y140.919
G0 X113.073 Y146.672
G0 X114.338 Y150.951
G0 X117.385 Y157.12
G0 X116.093 Y157.348
G0 X115.921 Y161.955
G0 X116.029 Y162.529
G0 X117.385 Y162.578
G0 X117.564 Y165.539
G1 F2700 E400.58275
G0 F10500 X117.466 Y166.11
;TIME_ELAPSED:93.680853
;LAYER:4
;TYPE:WALL-OUTER
;MESH:BoatHollow.stl
G1 F2100 X117.307 Y165.883 E400.67493
G1 X117.288 Y165.864 E400.68387
G1 X117.314 Y165.379 E400.84541
G1 X117.319 Y164.761 E401.05096
G1 X117.31 Y163.59 E401.44045
G1 X117.283 Y163.281 E401.54362
G1 X117.428 Y163.885 E401.75022
G1 X117.764 Y163.864 E401.86219
G1 X117.842 Y163.132 E402.10703
G1 X117.864 Y163.129 E402.11442
G1 X117.842 Y164.146 E402.45275
G1 X117.794 Y164.784 E402.66555
G1 X117.813 Y165.57 E402.92705
G1 X117.829 Y165.943 E403.05122
G1 X117.678 Y166.11 E403.12611
G1 X117.466 Y166.11 E403.19662
G0 F10500 X117.548 Y165.914
;TYPE:SKIN
G1 F2100 X117.561 Y165.644 E403.23149
G1 X117.571 Y164.24 E403.4126
G1 F2700 E398.4126
G0 F10500 X117.515 Y164.16
G0 X117.453 Y163.75
G0 X117.066 Y162.942
G0 X117.065 Y161.982
G0 X116.715 Y161.261
G0 X116.755 Y159.395
G0 X113.739 Y158.644
G0 X111.43 Y154.003
G0 X110.454 Y150.097
G0 X109.337 Y146.043
;TYPE:WALL-INNER
G1 F2700 E403.4126
G1 F2100 X108.845 Y144.431 E403.97317
G1 X108.429 Y141.929 E404.81677
G1 X108.299 Y141.151 E405.07912
G1 X108.32 Y141.228 E405.10566
G1 X108.54 Y141.91 E405.13143
G1 X109.019 Y144.397 E405.43608
G1 X109.337 Y146.043 E405.55911
G0 F10500 X110.977 Y152.113
G0 X111.484 Y154.17
G0 X111.826 Y154.68
G1 F2100 X112.146 Y154.957 E405.69988
G1 X112.741 Y156.533 E406.26017
G1 X112.944 Y157.07 E406.45112
G1 X112.613 Y156.807 E406.49221
G1 X112.431 Y156.651 E406.53039
G1 X111.996 Y155.213 E406.92396
G1 X111.826 Y154.68 E407.01099
G0 F10500 X113.739 Y158.644
G0 X115.958 Y158.888
G0 X119.199 Y158.887
G0 X121.4 Y158.63
G0 X122.972 Y154.971
G1 F2100 X123.315 Y154.671 E407.16255
G1 X122.692 Y156.7 E407.8685
G1 X122.534 Y156.838 E407.93827
G1 X122.189 Y157.064 E408.07545
G1 X122.37 Y156.58 E408.15647
G1 X122.972 Y154.971 E408.5558
G0 F10500 X123.639 Y154.174
G0 X125.232 Y147.99
G0 X125.531 Y147.446
G1 F2100 X125.597 Y147.186 E408.64502
G1 X125.832 Y145.938 E409.0674
G1 X126.033 Y144.87 E409.42885
G1 X126.593 Y141.884 E410.43931
G1 X126.803 Y141.243 E410.66366
G1 X126.876 Y140.893 E410.78258
G1 X126.836 Y141.224 E410.78405
G1 X126.762 Y141.902 E410.85102
G1 X126.429 Y144.922 E411.5705
G1 X126.352 Y145.613 E411.80175
G1 X125.797 Y147.17 E412.25235
G1 X125.531 Y147.446 E412.30127
G1 F2700 E407.30127
G0 F10500 X125.208 Y147.946
G0 X123.639 Y154.174
G0 X121.4 Y158.63
G0 X118.116 Y158.983
;TYPE:WALL-OUTER
G1 F2700 E412.30127
G1 F2100 X117.923 Y154.892 E413.66345
G1 X118.117 Y154.892 E413.72798
G1 X118.15 Y156.4 E414.22966
G1 X118.19 Y158.987 E415.0902
G1 X119.199 Y159.049 E415.42643
G1 X120.401 Y158.9 E415.82928
G1 X121.07 Y158.83 E416.053
G1 X121.76 Y157.067 E416.68269
G1 X122.654 Y154.679 E417.53078
G1 X122.701 Y154.676 E417.54644
G1 X123.43 Y154.04 E417.86821
G1 X123.5 Y153.799 E417.95168
G1 X125.206 Y147.1 E420.25089
G1 X126.205 Y141.786 E422.0493
G1 X126.416 Y141.14 E422.27533
G1 X127.434 Y136.244 E423.93857
G1 X127.607 Y134.585 E424.49335
G1 X127.624 Y134.197 E424.62252
G1 X127.879 Y127.217 E426.94563
G1 X127.788 Y125.97 E427.36149
G1 X127.449 Y118.668 E429.79276
G1 X127.193 Y116.743 E430.43865
G1 X126.604 Y111.612 E432.15644
G1 X125.912 Y109.456 E432.90956
G1 X124.165 Y104.248 E434.7366
G1 X123.701 Y103.516 E435.02486
G1 X122.511 Y101.421 E435.82622
G1 X121.953 Y100.962 E436.06654
G1 X119.996 Y99.238 E436.93398
G1 X119.594 Y99.147 E437.07107
G1 X117.974 Y98.708 E437.62932
G1 X118.046 Y99.943 E438.04078
G1 X118.107 Y101.873 E438.68302
G1 X117.907 Y101.873 E438.74954
G1 X117.852 Y99.955 E439.38773
G1 X117.782 Y98.658 E439.81975
G1 X117.366 Y98.542 E439.96339
G1 X117.259 Y99.967 E440.43868
G1 X117.19 Y101.873 E441.07303
G1 X116.989 Y101.873 E441.13988
G1 X117.064 Y99.961 E441.77631
G1 X117.171 Y98.68 E442.20385
G1 X115.447 Y99.133 E442.79672
G1 X115.017 Y99.235 E442.94371
G1 X113.03 Y101.152 E443.86202
G1 X112.761 Y101.47 E444.00055
G1 X112.59 Y101.674 E444.08909
G1 X111.397 Y103.519 E444.81985
G1 X110.954 Y104.247 E445.10329
G1 X109.182 Y110.074 E447.12899
G1 X108.789 Y111.299 E447.55688
G1 X108.003 Y116.366 E449.26233
G1 X107.608 Y118.946 E450.13044
G1 X107.327 Y125.597 E452.34454
G1 X107.263 Y127.064 E452.83293
G1 X107.517 Y134.584 E455.33552
G1 X107.712 Y136.389 E455.93936
G1 X108.707 Y141.125 E457.54895
G1 X108.929 Y141.812 E457.78908
G1 X109.942 Y147.069 E459.56973
G1 X111.496 Y153.295 E461.70403
G1 X111.625 Y153.799 E461.87707
G1 X111.693 Y154.037 E461.9594
G1 X112.41 Y154.656 E462.27445
G1 X112.465 Y154.669 E462.29324
G1 X113.374 Y157.077 E463.14931
G1 X114.065 Y158.835 E463.77757
G1 X114.515 Y158.867 E463.92762
G1 X115.622 Y159.003 E464.29858
G1 X115.952 Y159.05 E464.40945
G1 X116.936 Y158.992 E464.73729
G1 X116.979 Y154.891 E466.10137
G1 X117.172 Y154.891 E466.16556
G1 X116.997 Y158.987 E467.52914
G1 X117.603 Y158.953 E467.73101
G1 X118.116 Y158.983 E467.90193
G1 F2700 E462.90193
G0 F10500 X118.225 Y161.281
G1 F2700 E467.90193
G1 F2100 X118.128 Y159.222 E468.58751
G1 X117.913 Y159.245 E468.65943
G1 X117.603 Y159.26 E468.76266
G1 X117.292 Y159.244 E468.86623
G1 X116.986 Y159.218 E468.96837
G1 X116.899 Y161.188 E469.62424
G1 X116.932 Y159.214 E470.28088
G1 X115.369 Y159.283 E470.80125
G1 X115.327 Y159.278 E470.81531
G1 X113.437 Y158.951 E471.45327
G1 X113.418 Y158.95 E471.4596
G1 X113.213 Y158.453 E471.63841
G1 X112.851 Y157.508 E471.97499
G1 X112.357 Y157.114 E472.18516
G1 X112.082 Y156.878 E472.30568
G1 X111.614 Y155.332 E472.84293
G1 X111.137 Y153.84 E473.36391
G1 X109.689 Y148.126 E475.32447
G1 X109.248 Y147.124 E475.68859
G1 X108.454 Y144.523 E476.5931
G1 X107.904 Y141.217 E477.70779
G1 X107.775 Y140.122 E478.07451
G1 X107.176 Y134.597 E479.9229
G1 X107.105 Y132.197 E480.72149
G1 X106.929 Y127.052 E482.43372
G1 X107.104 Y123.125 E483.74115
G1 X107.279 Y118.966 E485.12566
G1 X108.471 Y111.204 E487.73757
G1 X109.478 Y108.063 E488.83465
G1 X110.676 Y104.121 E490.20498
G1 X111.597 Y102.609 E490.79382
G1 X112.526 Y101.152 E491.36855
G1 X113.224 Y100.584 E491.66786
G1 X114.93 Y98.949 E492.45378
G1 X115.938 Y98.714 E492.79804
G1 X117.196 Y98.379 E493.23103
G1 X117.338 Y96.671 E493.80107
G1 X117.502 Y96.371 E493.91479
G1 X117.706 Y96.44 E493.98642
G1 X117.839 Y96.707 E494.08563
G1 X117.938 Y98.101 E494.55044
G1 X117.957 Y98.415 E494.65507
G1 X119.077 Y98.717 E495.04089
G1 X120.095 Y98.952 E495.38838
G1 X121.523 Y100.211 E496.02157
G1 X122.646 Y101.142 E496.50675
G1 X123.489 Y102.629 E497.07527
G1 X124.443 Y104.144 E497.67075
G1 X125.626 Y107.676 E498.90964
G1 X126.829 Y111.415 E500.21602
G1 X127.201 Y114.649 E501.29874
G1 X127.755 Y118.796 E502.69029
G1 X127.979 Y123.732 E504.3337
G1 X128.234 Y127.222 E505.49758
G1 X128.062 Y131.929 E507.06417
G1 X127.945 Y134.59 E507.95008
G1 X127.363 Y140.19 E509.82268
G1 X127.233 Y141.27 E510.18448
G1 X126.745 Y145.702 E511.66748
G1 X126.145 Y147.384 E512.26145
G1 X125.446 Y148.111 E512.59688
G1 X123.988 Y153.84 E514.56309
G1 X123.04 Y156.927 E515.63716
G1 X122.778 Y157.157 E515.75311
G1 X122.291 Y157.475 E515.94656
G1 X121.922 Y158.441 E516.2905
G1 X121.714 Y158.949 E516.47308
G1 X121.612 Y158.956 E516.50708
G1 X119.792 Y159.281 E517.12199
G1 X118.194 Y159.211 E517.654
G1 X118.225 Y161.281 E518.34256
G1 F2700 E513.34256
G0 F10500 X118.087 Y162.005
G0 X116.881 Y162.231
G1 F2700 E518.34256
G1 F2100 X116.882 Y162.181 E518.35919
G1 X118.239 Y162.179 E518.81053
G1 X118.24 Y162.231 E518.82783
G1 X116.881 Y162.231 E519.27984
G0 F10500 X116.755 Y159.395
G0 X113.868 Y158.722
G0 X113.601 Y158.573
;TYPE:SKIN
G1 F2100 X113.439 Y158.129 E519.52196
G0 F10500 X113.52 Y157.926
G1 F2100 X112.999 Y157.406 E519.64438
G1 X112.976 Y157.382
G1 X112.896 Y157.302 E519.66319
G0 F10500 X113.06 Y157.183
G1 F2100 X113.337 Y157.46 E519.72834
G0 F10500 X113.219 Y157.505
G0 X111.694 Y154.597
G0 X111.584 Y154.576
G1 F2100 X111.603 Y154.312 E519.76962
G1 X111.28 Y153.423 E519.91713
G1 X109.942 Y148.126 E520.76918
G1 X109.522 Y146.857 E520.97764
G1 X109.526 Y146.295 E521.06529
G0 F10500 X109.416 Y146.186
G0 X108.373 Y140.99
G0 X108.223 Y140.75
G1 F2100 X108.197 Y140.441 E521.14839
G1 X107.703 Y137.402 E521.97352
G0 F10500 X107.8 Y138.026
G0 X108.161 Y140.831
G0 X108.036 Y140.845
G1 F2100 X108.197 Y141.007 E522.0115
G1 F2700 E517.0115
G0 F10500 X111.484 Y154.17
G0 X113.739 Y158.644
G0 X115.958 Y158.888
G0 X119.199 Y158.887
G0 X121.4 Y158.63
G0 X123.639 Y154.174
G0 X125 Y148.859
G0 X125.377 Y147.633
G1 F2700 E522.0115
G0 F10500 X125.368 Y147.713
G1 F2100 X125.27 Y147.897 E522.03828
G1 X124.451 Y151.038 E522.45524
G1 X123.634 Y154.181 E522.87239
G1 X123.373 Y154.485 E522.92386
G0 F10500 X123.451 Y154.569
G0 X121.997 Y157.282
G0 X121.994 Y157.349
G1 F2100 X121.915 Y157.553 E522.98623
G1 X121.395 Y158.73 E523.3531
G0 F10500 X121.327 Y158.704
G0 X123.639 Y154.174
G0 X125.232 Y147.99
G0 X126.186 Y145.649
G0 X126.11 Y145.626
G1 F2100 X126.157 Y145.39 E523.38845
G0 F10500 X126.087 Y145.349
G0 X126.869 Y140.729
G0 X126.79 Y140.65
G1 F2100 X126.942 Y140.519 E523.43506
G1 X127.436 Y137.335 E524.18343
G1 F2700 E519.18343
G0 F10500 X127.305 Y137.854
G0 X127.502 Y136.905
G0 X127.255 Y136.213
G0 X127.463 Y134.189
G0 X127.718 Y127.215
G0 X127.288 Y118.674
G0 X126.446 Y111.644
G0 X124.018 Y104.316
G0 X122.384 Y101.527
G0 X119.92 Y99.387
G0 X117.68 Y98.447
G0 X117.534 Y98.301
G1 F2700 E524.18343
G1 F2100 X117.59 Y98.074 E524.25937
G1 X117.591 Y96.944 E524.62639
G0 F10500 X117.648 Y96.718
G1 F2100 X117.563 Y96.633 E524.64638
G1 F2700 E519.64638
;MESH:NONMESH
G0 F300 X117.563 Y96.633 Z10.28
G0 F10500 X117.627 Y96.766
G0 X117.392 Y102.205
G0 X117.448 Y102.879
G0 X116.409 Y163.085
G0 X117.392 Y162.949
G0 X117.516 Y164.289
G1 F2700 E524.64638
G0 F10500 X117.429 Y164.288
;TIME_ELAPSED:116.954544
;LAYER:5
;TYPE:WALL-OUTER
;MESH:BoatHollow.stl
G1 F2100 X117.766 Y164.267 E524.75868
G1 X117.848 Y163.509 E525.01226
G1 X117.865 Y163.501 E525.01851
G1 X117.85 Y164.19 E525.24773
G1 X117.778 Y165.129 E525.56096
G1 X117.792 Y165.696 E525.7496
G1 X117.818 Y166.333 E525.96164
G1 X117.678 Y166.481 E526.0294
G1 X117.465 Y166.481 E526.10025
G1 X117.321 Y166.3 E526.17718
G1 X117.336 Y166.021 E526.27011
G1 X117.343 Y165.12 E526.56979
G1 X117.337 Y164.279 E526.84951
G1 X117.286 Y163.685 E527.04781
G1 X117.429 Y164.288 E527.25393
G0 F10500 X117.577 Y164.698
;TYPE:SKIN
G1 F2100 X117.567 Y164.992 E527.28592
G1 X117.566 Y166.124 E527.40903
G1 F2700 E522.40903
G0 F10500 X117.527 Y166.191
G0 X117.732 Y164.033
G0 X118.055 Y163.314
G0 X118.961 Y160.758
G0 X124.2 Y159.894
G0 X125.235 Y157.837
G0 X126.792 Y151.018
G0 X127.61 Y147.724
G0 X127.762 Y146.627
G0 X128.548 Y143.123
;TYPE:WALL-INNER
G1 F2700 E527.40903
G1 F2100 X128.691 Y142.148 E527.73678
G1 X128.775 Y141.398 E527.98779
G1 X129.101 Y138.642 E528.91083
G1 X129.458 Y137.419 E529.33458
G1 X129.303 Y138.667 E529.43987
G1 X128.99 Y141.17 E529.9675
G1 X128.956 Y141.422 E530.05207
G1 X128.838 Y142.155 E530.15302
G1 X128.548 Y143.123 E530.219
G1 F2700 E525.219
G0 F10500 X127.8 Y146.422
G0 X127.61 Y147.724
G0 X126.792 Y151.018
G0 X125.235 Y157.837
G0 X124.2 Y159.894
G0 X120.767 Y160.433
G0 X118.405 Y160.509
G0 X118.286 Y154.36
G0 X116.809 Y154.359
G0 X116.719 Y160.509
G0 X114.322 Y160.425
G0 X110.99 Y159.892
G0 X109.874 Y157.704
G0 X109.085 Y154.31
G0 X107.675 Y147.445
G0 X107.481 Y146.339
G0 X106.725 Y143.547
G1 F2700 E530.219
G1 F2100 X106.364 Y142.6 E530.55609
G1 X106.143 Y141.389 E530.96552
G1 X106.081 Y140.9 E531.12946
G1 X106.189 Y141.451 E531.1482
G1 X106.53 Y142.441 E531.24276
G1 X106.725 Y143.547 E531.36419
G1 F2700 E526.36419
G0 F10500 X107.522 Y146.532
G0 X109.348 Y155.45
G0 X109.874 Y157.704
G0 X110.99 Y159.892
G0 X114.322 Y160.425
G0 X116.719 Y160.509
G0 X116.894 Y160.391
;TYPE:WALL-OUTER
G1 F2700 E531.36419
G1 F2100 X116.956 Y156.739 E532.57902
G1 X116.979 Y154.531 E533.31344
G1 X117.172 Y154.531 E533.37764
G1 X117.08 Y156.676 E534.09172
G1 X116.916 Y160.392 E535.32887
G1 X117.506 Y160.423 E535.52538
G1 X118.2 Y160.39 E535.75646
G1 X117.923 Y154.532 E537.70702
G1 X118.117 Y154.532 E537.77154
G1 X118.195 Y158.218 E538.99779
G1 X118.229 Y160.389 E539.71995
G1 X120.436 Y160.282 E540.45487
G1 X120.758 Y160.295 E540.56205
G1 X123.775 Y159.814 E541.57818
G1 X124.096 Y159.774 E541.68577
G1 X124.318 Y159.002 E541.95295
G1 X124.827 Y158.287 E542.24486
G1 X125.104 Y157.785 E542.43556
G1 X125.647 Y155.415 E543.24425
G1 X125.9 Y154.281 E543.63069
G1 X126.658 Y150.983 E544.75621
G1 X127.473 Y147.7 E545.88128
G1 X128.294 Y142.097 E547.76475
G1 X128.378 Y141.351 E548.01444
G1 X128.708 Y138.56 E548.9492
G1 X129.842 Y134.683 E550.29272
G1 X129.631 Y129.997 E551.85287
G1 X129.812 Y127.177 E552.79273
G1 X129.741 Y123.578 E553.99
G1 X129.519 Y118.965 E555.52606
G1 X129.314 Y117.672 E555.96149
G1 X128.342 Y110.697 E558.3038
G1 X127.758 Y108.997 E558.90166
G1 X125.917 Y103.427 E560.85282
G1 X125.452 Y102.691 E561.14237
G1 X123.571 Y99.779 E562.2954
G1 X123.117 Y99.453 E562.4813
G1 X121.639 Y98.461 E563.07334
G1 X121.111 Y98.283 E563.25867
G1 X120.404 Y97.698 E563.56388
G1 X119.199 Y97.289 E563.98712
G1 X117.986 Y96.99 E564.40264
G1 X118.024 Y97.508 E564.57539
G1 X118.101 Y98.815 E565.01085
G1 X117.901 Y98.815 E565.07737
G1 X117.835 Y97.591 E565.48507
G1 X117.793 Y96.942 E565.70138
G1 X117.358 Y96.834 E565.85045
G1 X117.201 Y98.816 E566.51173
G1 X116.999 Y98.816 E566.57892
G1 X117.163 Y96.961 E567.1983
G1 X114.705 Y97.508 E568.03583
G1 X114.464 Y97.552 E568.11732
G1 X111.941 Y99.476 E569.17263
G1 X111.519 Y99.776 E569.34484
G1 X109.654 Y102.688 E570.49498
G1 X109.192 Y103.404 E570.7784
G1 X107.364 Y108.941 E572.71778
G1 X106.784 Y110.673 E573.32529
G1 X105.804 Y116.698 E575.35554
G1 X105.433 Y118.854 E576.08317
G1 X105.059 Y125.951 E578.44692
G1 X105.135 Y126.962 E578.78413
G1 X105.191 Y128.459 E579.28238
G1 X105.298 Y134.677 E581.3508
G1 X105.512 Y135.935 E581.77523
G1 X106.576 Y141.347 E583.60972
G1 X106.919 Y142.342 E583.95977
G1 X107.812 Y147.421 E585.67497
G1 X108.551 Y151.044 E586.90479
G1 X109.222 Y154.283 E588.00496
G1 X109.483 Y155.419 E588.39264
G1 X110.006 Y157.654 E589.15609
G1 X110.311 Y158.183 E589.35918
G1 X110.789 Y158.733 E589.60154
G1 X110.943 Y159.24 E589.77778
G1 X111.094 Y159.772 E589.96171
G1 X111.504 Y159.823 E590.09913
G1 X114.33 Y160.287 E591.05165
G1 X114.702 Y160.274 E591.17545
G1 X116.894 Y160.391 E591.90555
G1 F2700 E586.90555
G0 F10500 X117.492 Y160.726
G0 X118.045 Y160.74
G0 X118.244 Y161.304
G1 F2700 E591.90555
G1 F2100 X118.223 Y160.871 E592.04974
G1 X117.62 Y160.865 E592.25031
G1 X116.897 Y160.803 E592.49166
G1 X116.882 Y161.134 E592.60186
G1 X116.888 Y160.803 E592.71197
G1 X115.708 Y160.702 E593.10588
G1 X114.036 Y160.683 E593.66202
G1 X112.403 Y160.459 E594.21025
G1 X110.344 Y160.089 E594.90604
G1 X109.512 Y156.677 E596.07413
G1 X108.954 Y154.412 E596.85
G1 X107.523 Y147.488 E599.2016
G1 X107.361 Y146.56 E599.51492
G1 X106.583 Y144.298 E600.31052
G1 X105.976 Y142.707 E600.87689
G1 X105.749 Y141.461 E601.29813
G1 X105.686 Y140.967 E601.46377
G1 X104.918 Y134.674 E603.57236
G1 X104.826 Y132.164 E604.40775
G1 X104.68 Y126.998 E606.12665
G1 X104.867 Y123.974 E607.13436
G1 X105.131 Y118.87 E608.83423
G1 X105.893 Y114.437 E610.33027
G1 X106.514 Y110.604 E611.62176
G1 X107.721 Y107.002 E612.88526
G1 X108.938 Y103.312 E614.17759
G1 X110.084 Y101.538 E614.88003
G1 X111.369 Y99.526 E615.67406
G1 X112.778 Y98.526 E616.24873
G1 X114.408 Y97.281 E616.93092
G1 X115.387 Y97.113 E617.2613
G1 X117.186 Y96.711 E617.8744
G1 X117.236 Y96.142 E618.06438
G1 X117.329 Y95.006 E618.44348
G1 X117.509 Y94.718 E618.55644
G1 X117.723 Y94.755 E618.62867
G1 X117.845 Y95.008 E618.72209
G1 X117.969 Y96.739 E619.2993
G1 X119.918 Y97.213 E619.96644
G1 X120.497 Y97.316 E620.16204
G1 X122.405 Y98.606 E620.92807
G1 X123.709 Y99.543 E621.46214
G1 X125.021 Y101.579 E622.26774
G1 X126.154 Y103.359 E622.96953
G1 X127.426 Y107.209 E624.31812
G1 X128.594 Y110.605 E625.51258
G1 X129.189 Y114.874 E626.94618
G1 X129.835 Y118.965 E628.32371
G1 X130.138 Y125.201 E630.40026
G1 X130.25 Y127.156 E631.05156
G1 X130.235 Y132.581 E632.85593
G1 X130.203 Y134.687 E633.55647
G1 X129.387 Y141.22 E635.74624
G1 X129.351 Y141.485 E635.83518
G1 X129.229 Y142.244 E636.09087
G1 X128.562 Y144.47 E636.86376
G1 X127.848 Y146.774 E637.66603
G1 X127.717 Y147.691 E637.97412
G1 X127.639 Y148.004 E638.08141
G1 X126.165 Y154.407 E640.26676
G1 X125.615 Y156.689 E641.04749
G1 X124.807 Y160.089 E642.20982
G1 X121.273 Y160.748 E643.4055
G1 X118.97 Y160.878 E644.1727
G1 X118.237 Y160.871 E644.41651
G1 X118.244 Y161.304 E644.56054
G1 F2700 E639.56054
G0 F10500 X118.119 Y162.338
G0 X116.858 Y162.574
G1 F2700 E644.56054
G1 F2100 X116.859 Y162.511 E644.5815
G1 X118.262 Y162.511 E645.04814
G1 X118.263 Y162.574 E645.0691
G1 X116.858 Y162.574 E645.5364
G0 F10500 X117.076 Y160.689
G0 X117.629 Y160.666
G0 X117.679 Y160.638
;TYPE:SKIN
G1 F2100 X117.967 Y160.632 E645.57493
G1 X120.605 Y160.539 E645.92795
G1 X122.247 Y160.312 E646.14964
G1 X123.953 Y160.019 E646.38114
G1 X124.505 Y159.751 E646.46321
G1 X124.634 Y159.905 E646.49008
G1 X124.685 Y159.005 E646.61064
G1 X124.919 Y158.487 E646.68665
G0 F10500 X124.996 Y158.411
G0 X124.2 Y159.894
G0 X120.767 Y160.433
G0 X117.833 Y160.55
G0 X113.95 Y160.425
G0 X113.913 Y160.442
G1 F2100 X113.667 Y160.405 E646.72948
G1 X110.984 Y159.977 E647.1972
G1 X110.664 Y159.732 E647.26658
G1 X110.309 Y158.673 E647.45886
G1 X110.124 Y158.292 E647.53178
G0 F10500 X110.134 Y158.274
G0 X109.874 Y157.704
G0 X109.085 Y154.31
G0 X108.13 Y149.488
G0 X107.251 Y145.626
G0 X107.266 Y145.594
G1 F2100 X107.209 Y145.368 E647.58412
G1 X106.794 Y143.803 E647.9477
G0 F10500 X106.664 Y143.949
G0 X106.204 Y140.717
G0 X106.232 Y140.688
G1 F2100 X106.04 Y140.597 E647.99368
G1 X105.371 Y136.458 E648.901
G1 X105.295 Y135.969 E649.0081
G0 F10500 X105.31 Y135.934
G0 X105.226 Y135.228
G0 X105.022 Y132.017
G0 X105.04 Y131.981
G1 F2100 X105.029 Y131.708 E649.03252
G1 X104.908 Y127.022 E649.45156
G1 F2700 E644.45156
G0 F10500 X104.936 Y126.971
G0 X104.921 Y125.95
G0 X105.294 Y118.84
G0 X106.649 Y110.64
G0 X109.064 Y103.345
G0 X111.417 Y99.679
G0 X111.862 Y99.361
G0 X114.407 Y97.421
G0 X116.995 Y96.872
G0 X118.284 Y98.988
G0 X118.157 Y96.905
G0 X119.232 Y97.153
G0 X120.474 Y97.576
G0 X123.194 Y99.338
G0 X123.673 Y99.682
G0 X125.569 Y102.615
G0 X126.044 Y103.365
G0 X127.889 Y108.952
G0 X128.478 Y110.666
G0 X129.657 Y118.945
G0 X129.88 Y123.572
G0 X129.919 Y125.613
G0 X129.918 Y128.626
G1 F2700 E649.45156
G0 F10500 X129.982 Y128.535
G1 F2100 X129.992 Y128.242 E649.4909
G1 X130.025 Y127.077 E649.64729
G0 F10500 X130.043 Y127.037
G0 X130.046 Y128.73
G0 X129.972 Y128.828
G1 F2100 X129.962 Y129.121 E649.69718
G1 X129.967 Y131.378 E650.08124
G1 X130.002 Y133.322 E650.41209
G0 F10500 X129.983 Y133.368
G0 X129.983 Y133.744
G0 X129.918 Y135.361
G0 X129.858 Y135.447
G1 F2100 X129.779 Y135.809 E650.50775
G1 X129.542 Y136.894 E650.79446
G1 X129.601 Y137.118 E650.85426
G0 F10500 X129.716 Y136.977
G0 X128.53 Y143.281
G1 F2100 X128.256 Y143.555 E650.9187
G0 F10500 X128.455 Y143.639
G1 F2100 X128.37 Y144.006 E650.99206
G1 X128.023 Y145.484 E651.28772
G1 F2700 E646.28772
G0 F10500 X127.989 Y145.547
G0 X129.982 Y134.698
G0 X129.88 Y123.572
G0 X129.657 Y118.945
G0 X128.478 Y110.666
G0 X127.889 Y108.952
G0 X126.044 Y103.365
G0 X125.569 Y102.615
G0 X123.673 Y99.682
G0 X122.077 Y98.593
G0 X121.146 Y98.053
G1 F2700 E651.28772
G0 F10500 X121.165 Y98.037
G1 F2100 X121.003 Y97.916 E651.31701
G0 F10500 X120.992 Y97.925
G0 X120.474 Y97.576
G0 X118.904 Y97.076
G0 X117.845 Y96.845
G0 X117.724 Y96.67
G1 F2100 X117.601 Y96.51 E651.37612
G1 X117.574 Y95.404 E651.70012
G0 F10500 X117.487 Y95.21
G1 F2100 X117.661 Y95.035 E651.74116
G1 F2700 E646.74116
;MESH:NONMESH
G0 F300 X117.661 Y95.035 Z12.28
G0 F10500 X117.64 Y95.042
G0 X117.576 Y99.061
G0 X116.995 Y96.872
G0 X114.653 Y97.386
G0 X111.862 Y99.361
G0 X111.417 Y99.679
G0 X109.064 Y103.345
G0 X106.649 Y110.64
G0 X105.294 Y118.84
G0 X104.921 Y125.95
G0 X105.159 Y134.687
G0 X107.675 Y147.445
G0 X109.348 Y155.45
G0 X109.874 Y157.704
G0 X110.99 Y159.892
G0 X114.322 Y160.425
G0 X116.719 Y160.509
G0 X117.293 Y154.371
G0 X117.28 Y156.685
G0 X116.092 Y156.725
G0 X116.406 Y163.428
G0 X117.28 Y163.321
G0 X117.541 Y164.69
G1 F2700 E651.74116
G0 F10500 X117.433 Y164.69
;TIME_ELAPSED:143.784271
;LAYER:6
;TYPE:WALL-OUTER
;MESH:BoatHollow.stl
G1 F2100 X117.769 Y164.669 E651.85313
G1 X117.853 Y163.89 E652.11373
G1 X117.52 Y163.878 E652.22456
G1 X117.865 Y163.872 E652.33932
G1 X117.857 Y164.234 E652.45975
G1 X117.763 Y165.475 E652.87369
G1 X117.77 Y165.821 E652.9888
G1 X117.807 Y166.722 E653.28872
G1 X117.677 Y166.853 E653.35011
G1 X117.457 Y166.84 E653.42341
G1 X117.354 Y166.736 E653.47209
G1 X117.358 Y166.663 E653.49641
G1 X117.368 Y165.479 E653.89022
G1 X117.364 Y164.969 E654.05985
G1 X117.288 Y164.088 E654.35396
G1 X117.433 Y164.69 E654.55992
G0 F10500 X117.539 Y165.057
;TYPE:SKIN
G1 F2100 X117.572 Y165.089 E654.56756
G0 F10500 X117.475 Y165.088
G0 X117.559 Y166.466
G0 X117.534 Y166.466
G1 F2100 X117.625 Y166.556 E654.58884
G1 F2700 E649.58884
G0 F10500 X117.599 Y166.556
G0 X117.488 Y165.478
G0 X116.503 Y165.474
G0 X113.443 Y162.649
G0 X113.505 Y161.34
G0 X109.174 Y160.761
G1 F2700 E654.58884
G0 F10500 X109.282 Y160.643
;TYPE:WALL-OUTER
G1 F2100 X109.642 Y160.699 E654.71002
G1 X113.515 Y161.222 E656.00988
G1 X113.887 Y161.245 E656.13384
G1 X117.63 Y161.431 E657.3803
G1 X121.732 Y161.212 E658.74658
G1 X125.555 Y160.686 E660.03009
G1 X125.863 Y160.637 E660.13382
G1 X126.023 Y159.913 E660.38044
G1 X126.563 Y159.272 E660.6592
G1 X126.883 Y158.69 E660.88011
G1 X127.713 Y154.999 E662.13839
G1 X128.437 Y151.606 E663.29232
G1 X129.24 Y147.911 E664.54996
G1 X130.31 Y141.897 E666.58164
G1 X130.373 Y141.516 E666.71008
G1 X130.525 Y140.395 E667.08634
G1 X130.684 Y139.996 E667.2292
G1 X131.382 Y137.2 E668.18769
G1 X131.558 Y134.755 E669.00301
G1 X131.571 Y133.598 E669.38785
G1 X131.631 Y127.088 E671.55318
G1 X131.466 Y125.059 E672.23025
G1 X130.967 Y118.799 E674.31894
G1 X130.645 Y116.871 E674.96908
G1 X129.351 Y110.034 E677.28344
G1 X128.687 Y107.889 E678.03027
G1 X127.024 Y102.779 E679.81761
G1 X126.68 Y102.218 E680.03648
G1 X124.269 Y98.376 E681.54511
G1 X121.012 Y96.201 E682.84773
G1 X120.336 Y96.015 E683.08092
G1 X117.982 Y95.513 E683.88147
G1 X118.097 Y96.757 E684.29699
G1 X117.9 Y96.757 E684.36252
G1 X117.791 Y95.47 E684.79211
G1 X117.335 Y95.42 E684.94468
G1 X117.201 Y96.757 E685.3916
G1 X117.001 Y96.757 E685.45812
G1 X117.143 Y95.494 E685.88084
G1 X114.773 Y96.018 E686.68814
G1 X114.153 Y96.172 E686.90062
G1 X111.329 Y98.016 E688.0224
G1 X110.802 Y98.373 E688.23411
G1 X108.735 Y101.587 E689.50508
G1 X108.067 Y102.657 E689.92462
G1 X106.316 Y107.915 E691.76786
G1 X105.65 Y110.098 E692.52697
G1 X104.232 Y118.731 E695.43679
G1 X103.603 Y125.059 E697.55186
G1 X103.417 Y127 E698.2004
G1 X103.545 Y133.752 E700.44653
G1 X103.554 Y134.754 E700.77981
G1 X103.857 Y138.337 E701.97577
G1 X104.679 Y141.389 E703.02704
G1 X104.691 Y141.489 E703.06054
G1 X105.901 Y147.823 E705.20533
G1 X106.713 Y151.754 E706.54039
G1 X107.395 Y155.001 E707.64391
G1 X107.662 Y156.179 E708.04566
G1 X108.238 Y158.641 E708.88663
G1 X108.569 Y159.222 E709.10903
G1 X109.09 Y159.814 E709.37133
G1 X109.282 Y160.643 E709.65435
G1 F2700 E704.65435
G0 F10500 X109.088 Y160.687
G0 X113.88 Y161.384
G0 X116.686 Y161.512
G0 X116.868 Y161.035
G1 F2700 E709.65435
G1 F2100 X116.974 Y154.585 E711.79992
G1 X116.979 Y154.171 E711.93763
G1 X117.173 Y154.171 E712.00215
G1 X116.868 Y161.035 E714.28738
G0 F10500 X117.018 Y161.528
G0 X117.629 Y161.571
G0 X118.052 Y161.537
G0 X118.261 Y161.303
G1 F2100 X117.922 Y154.172 E716.66184
G1 X118.117 Y154.172 E716.7267
G1 X118.241 Y160.036 E718.67751
G1 X118.261 Y161.303 E719.09896
G0 F10500 X117.671 Y161.99
G1 F2100 X113.118 Y161.767 E720.61511
G1 X112.808 Y161.722 E720.7193
G1 X108.614 Y161.075 E722.13073
G1 X107.763 Y157.618 E723.31486
G1 X107.146 Y155.089 E724.18068
G1 X105.626 Y147.865 E726.636
G1 X105.426 Y146.812 E726.99249
G1 X104.178 Y142.696 E728.42303
G1 X104.054 Y141.742 E728.743
G1 X103.456 Y134.777 E731.06809
G1 X103.428 Y132.54 E731.81218
G1 X103.315 Y127.009 E733.65218
G1 X103.613 Y123.76 E734.73734
G1 X104.119 Y118.711 E736.42505
G1 X104.83 Y114.391 E737.88122
G1 X105.553 Y110.043 E739.34723
G1 X106.556 Y106.798 E740.4769
G1 X107.974 Y102.567 E741.96106
G1 X109.068 Y100.842 E742.64046
G1 X110.744 Y98.245 E743.66848
G1 X111.762 Y97.562 E744.07621
G1 X114.125 Y96.028 E745.01324
G1 X115.161 Y95.781 E745.36747
G1 X117.162 Y95.327 E746.04992
G1 X117.293 Y94.174 E746.43588
G1 X117.494 Y93.991 E746.52629
G1 X117.682 Y94 E746.58889
G1 X117.795 Y94.153 E746.65215
G1 X117.906 Y94.686 E746.83323
G1 X117.967 Y95.352 E747.05567
G1 X119.882 Y95.773 E747.70781
G1 X121.093 Y96.102 E748.12519
G1 X123.42 Y97.645 E749.05384
G1 X124.331 Y98.256 E749.41868
G1 X126.34 Y101.419 E750.66497
G1 X127.119 Y102.675 E751.15654
G1 X128.481 Y106.877 E752.62571
G1 X129.467 Y110.004 E753.71624
G1 X130.495 Y115.454 E755.56088
G1 X131.062 Y118.781 E756.6834
G1 X131.435 Y123.671 E758.31454
G1 X131.713 Y127.081 E759.45248
G1 X131.669 Y132.35 E761.20501
G1 X131.644 Y134.771 E762.01029
G1 X131.311 Y139.612 E763.62421
G1 X130.844 Y141.703 E764.33682
G1 X129.662 Y147.046 E766.15687
G1 X129.504 Y147.934 E766.45686
G1 X129.414 Y148.343 E766.59615
G1 X127.964 Y155.089 E768.89112
G1 X127.366 Y157.579 E769.74285
G1 X126.532 Y161.068 E770.93599
G1 X122.5 Y161.712 E772.29403
G1 X122.151 Y161.766 E772.41149
G1 X118.271 Y161.963 E773.70365
G1 X117.671 Y161.99 E773.90341
G0 F10500 X117.672 Y161.79
G0 X117.005 Y161.829
G0 X116.836 Y162.918
G1 F2100 X116.838 Y162.842 E773.9287
G1 X118.285 Y162.843 E774.40997
G1 X118.286 Y162.918 E774.43492
G1 X116.836 Y162.918 E774.91719
G0 F10500 X116.799 Y161.771
G0 X116.69 Y161.662
;TYPE:SKIN
G1 F2100 X116.392 Y161.647 E774.97419
G1 X113.404 Y161.487 E775.54581
G1 X110.454 Y161.083 E776.11461
G1 X109.459 Y160.936 E776.30675
G1 X108.928 Y160.688 E776.41871
G1 X108.719 Y159.914 E776.57186
G1 X108.469 Y159.381 E776.68432
G0 F10500 X108.365 Y159.267
G0 X108.741 Y160.757
G0 X108.718 Y160.761
G1 F2100 X108.897 Y160.94 E776.72642
G0 F10500 X108.901 Y160.918
G0 X112.933 Y161.295
G0 X116.879 Y161.568
G0 X116.987 Y161.676
G1 F2100 X117.284 Y161.691 E776.78562
G1 X119.204 Y161.63 E777.16803
G1 X122.143 Y161.458 E777.75411
G1 X126.08 Y160.869 E778.54658
G1 X126.277 Y160.501 E778.62968
G1 X126.679 Y159.488 E778.84664
G0 F10500 X126.604 Y159.456
G0 X127.014 Y158.74
G0 X127.487 Y156.636
G0 X130.399 Y143.062
G0 X130.322 Y143.05
G1 F2100 X130.369 Y142.814 E778.87845
G1 X130.827 Y140.444 E779.19757
G1 X131.149 Y139.069 E779.38427
G1 F2700 E774.38427
G0 F10500 X131.041 Y139.026
G0 X129.41 Y147.717
G0 X127.85 Y155.027
G0 X127.014 Y158.74
G0 X126.678 Y159.352
G0 X125.973 Y160.754
G0 X121.741 Y161.35
G0 X118.439 Y161.516
G0 X118.286 Y154
G0 X116.81 Y153.999
G0 X116.686 Y161.512
G0 X113.503 Y161.36
G0 X109.174 Y160.761
G0 X108.454 Y159.302
G0 X108.107 Y158.693
G0 X107.585 Y156.458
G0 X104.974 Y144.032
G1 F2700 E779.38427
G0 F10500 X104.831 Y143.863
G1 F2100 X104.736 Y143.485 E779.48827
G1 X104.454 Y142.073 E779.87245
G1 X104.174 Y140.378 E780.33083
G0 F10500 X104.131 Y140.308
G0 X104.812 Y144.096
G0 X104.926 Y144.241
G1 F2100 X105.021 Y144.619 E780.39736
G1 X105.197 Y145.361 E780.52752
G1 F2700 E775.52752
G0 F10500 X105.235 Y145.402
G0 X104.574 Y141.509
G0 X105.532 Y141.23
G0 X116.678 Y97.609
G0 X116.795 Y96.944
G0 X117.619 Y95.274
G0 X117.495 Y95.15
G1 F2700 E780.52752
G1 F2100 X117.586 Y94.958 E780.60939
G1 X117.572 Y94.379 E780.83255
G0 F10500 X117.746 Y94.602
G1 F2700 E775.83255
;MESH:NONMESH
G0 F300 X117.746 Y94.602 Z14.28
G0 F10500 X117.686 Y94.613
G0 X117.39 Y97.042
G0 X117.4 Y97.719
G0 X116.404 Y163.772
G0 X117.39 Y163.692
G0 X117.859 Y164.269
;TIME_ELAPSED:164.590187
;LAYER:7
;TYPE:WALL-OUTER
;MESH:BoatHollow.stl
G1 F2700 E780.83255
G1 F2100 X117.271 Y164.253 E781.02819
G1 X117.27 Y164.243 E781.03153
G1 X117.865 Y164.243 E781.22943
G1 X117.864 Y164.277 E781.24074
G1 X117.747 Y165.819 E781.75509
G1 X117.749 Y165.946 E781.79733
G1 X117.778 Y166.681 E782.04199
G1 X117.663 Y166.828 E782.10406
G1 X117.459 Y166.827 E782.17191
G1 X117.384 Y166.732 E782.21217
G1 X117.393 Y165.84 E782.50887
G1 X117.392 Y165.658 E782.5694
G1 X117.292 Y164.498 E782.95665
G1 X117.416 Y165.018 E783.13445
G1 X117.733 Y165.018 E783.23989
G1 X117.814 Y164.669 E783.35905
G1 X117.859 Y164.269 E783.49293
G0 F10500 X117.616 Y165.226
;TYPE:SKIN
G1 F2100 X117.538 Y165.304 E783.51127
G1 F2700 E778.51127
G0 F10500 X117.562 Y165.301
G0 X117.637 Y165.009
G0 X118.055 Y164.056
G0 X118.055 Y163.042
G0 X118.069 Y162.614
G0 X118.273 Y161.208
;TYPE:WALL-OUTER
G1 F2700 E783.51127
G1 F2100 X118.108 Y157.686 E784.68398
G1 X118.2 Y157.736 E784.71881
G1 X118.273 Y161.208 E785.87385
G0 F10500 X118.167 Y162.604
G0 X117.49 Y162.655
G0 X116.952 Y162.621
G0 X116.851 Y160.982
G1 F2100 X116.905 Y157.735 E786.95396
G1 X116.997 Y157.685 E786.98879
G1 X116.851 Y160.982 E788.08645
G1 F2700 E783.08645
G0 F10500 X117.203 Y157.358
G0 X116.884 Y156.765
G0 X117.397 Y96.763
G0 X117.391 Y96.086
G0 X117.671 Y95.412
G0 X117.651 Y95.116
G0 X117.556 Y94.692
;TYPE:WALL-INNER
G1 F2700 E788.08645
G1 F2100 X117.525 Y94.684 E788.0971
G1 X117.535 Y94.595 E788.12688
G1 X117.556 Y94.692 E788.13013
G1 F2700 E783.13013
G0 F10500 X117.667 Y95.359
G0 X117.391 Y96.086
G0 X117.397 Y96.763
G0 X118.217 Y156.765
G0 X117.901 Y157.36
G0 X118.167 Y162.604
G0 X117.901 Y162.792
G1 F2700 E788.13013
G1 F2100 X117.903 Y162.862 E788.15342
G1 X117.22 Y162.862 E788.38059
G1 X117.221 Y162.805 E788.39955
G1 X117.493 Y162.816 E788.45971
G1 X117.901 Y162.792 E788.49248
G1 F2700 E783.49248
G0 F10500 X117.052 Y162.639
G0 X113.013 Y162.456
G0 X109.274 Y162.088
G0 X108.86 Y162.08
G0 X107.421 Y161.942
;TYPE:WALL-OUTER
G1 F2700 E788.49248
G1 F2100 X107.714 Y161.977 E788.59062
G1 X108.134 Y162.036 E788.73169
G1 X109.471 Y161.858 E789.1803
G1 X112.584 Y162.198 E790.22184
G1 X114.174 Y162.28 E790.75138
G1 X117.489 Y162.416 E791.85488
G1 X121.672 Y162.171 E793.24854
G1 X122.509 Y162.16 E793.52695
G1 X125.149 Y161.963 E794.40746
G1 X127.209 Y162.013 E795.09282
G1 X127.721 Y161.948 E795.26448
G1 X128.591 Y156.895 E796.96984
G1 X128.779 Y155.694 E797.37416
G1 X129.258 Y152.155 E798.56197
G1 X129.804 Y148.284 E799.86221
G1 X130.601 Y142.532 E801.79361
G1 X130.699 Y141.848 E802.02344
G1 X130.811 Y140.264 E802.55159
G1 X131.16 Y138.964 E802.99928
G1 X131.676 Y136.844 E803.72498
G1 X131.837 Y134.844 E804.39234
G1 X131.846 Y133.82 E804.73294
G1 X131.919 Y127.073 E806.97713
G1 X131.253 Y118.551 E809.8202
G1 X131.011 Y117.126 E810.30094
G1 X129.705 Y109.624 E812.83365
G1 X129.252 Y108.148 E813.34717
G1 X127.325 Y101.979 E815.49676
G1 X127.068 Y101.557 E815.66109
G1 X124.424 Y97.406 E817.298
G1 X124.164 Y97.237 E817.40114
G1 X121.449 Y95.436 E818.48477
G1 X119.149 Y95.191 E819.25408
G1 X118.019 Y95.174 E819.62996
G1 X118.078 Y95.809 E819.84208
G1 X117.88 Y95.811 E819.90793
G1 X117.828 Y95.182 E820.11785
G1 X117.27 Y95.028 E820.31038
G1 X117.201 Y95.818 E820.57414
G1 X117.003 Y95.82 E820.64
G1 X117.074 Y95.143 E820.8664
G1 X115.911 Y95.071 E821.25396
G1 X114.006 Y95.253 E821.89045
G1 X112.214 Y96.341 E822.58773
G1 X110.658 Y97.382 E823.21039
G1 X107.888 Y101.648 E824.90214
G1 X107.769 Y101.84 E824.97727
G1 X105.794 Y108.086 E827.15608
G1 X105.332 Y109.509 E827.65369
G1 X104.144 Y117.081 E830.20296
G1 X103.937 Y118.537 E830.6921
G1 X103.389 Y125.057 E832.8683
G1 X103.227 Y127.062 E833.53734
G1 X103.258 Y134.447 E835.99363
G1 X103.258 Y134.848 E836.127
G1 X103.387 Y136.252 E836.59594
G1 X104.39 Y141.857 E838.48978
G1 X104.58 Y142.536 E838.72429
G1 X105.296 Y148.243 E840.63733
G1 X105.765 Y151.37 E841.68901
G1 X106.407 Y155.702 E843.14557
G1 X106.639 Y157.384 E843.7103
G1 X107.421 Y161.942 E845.24845
G1 F2700 E840.24845
G0 F10500 X108.861 Y162.416
G0 X111.441 Y162.299
G0 X113.448 Y162.48
G0 X117.052 Y162.639
G1 F2700 E845.24845
G0 F10500 X116.82 Y162.857
G1 F2100 X116.325 Y162.837 E845.41322
G1 X112.435 Y162.634 E846.7088
G1 X111.43 Y162.518 E847.04529
G1 X110.532 Y162.504 E847.344
G1 X108.173 Y162.111 E848.13942
G1 X107.42 Y162.004 E848.39238
G1 X106.773 Y158.395 E849.61188
G1 X106.312 Y155.781 E850.49472
G1 X105.425 Y149.863 E852.48504
G1 X105.187 Y148.299 E853.01121
G1 X104.818 Y145.359 E853.99673
G1 X103.869 Y142.037 E855.14584
G1 X103.732 Y141.291 E855.39811
G1 X103.148 Y134.871 E857.54222
G1 X103.097 Y127.059 E860.14056
G1 X103.797 Y118.528 E862.98752
G1 X104.19 Y115.807 E863.90192
G1 X105.195 Y109.447 E866.04351
G1 X105.964 Y107.081 E866.87097
G1 X107.656 Y101.756 E868.72933
G1 X108.188 Y100.91 E869.06172
G1 X110.585 Y97.254 E870.51576
G1 X111.123 Y96.907 E870.72869
G1 X113.943 Y95.037 E871.85411
G1 X114.384 Y94.958 E872.00312
G1 X116.878 Y94.354 E872.8566
G1 X117.163 Y94.324 E872.95192
G1 X117.25 Y93.546 E873.2123
G1 X117.395 Y93.386 E873.28411
G1 X117.6 Y93.355 E873.35307
G1 X117.714 Y93.496 E873.41338
G1 X117.902 Y94.393 E873.71821
G1 X120.868 Y95.176 E874.7385
G1 X121.421 Y95.281 E874.92571
G1 X123.745 Y96.815 E875.85188
G1 X124.487 Y97.292 E876.14527
G1 X126.697 Y100.745 E877.50882
G1 X127.401 Y101.887 E877.95503
G1 X129.812 Y109.584 E880.63772
G1 X130.915 Y115.844 E882.75187
G1 X131.378 Y118.547 E883.66399
G1 X132.034 Y127.063 E886.50481
G1 X131.965 Y132.556 E888.33194
G1 X131.94 Y134.871 E889.10195
G1 X131.603 Y139.209 E890.54913
G1 X130.93 Y141.936 E891.48334
G1 X130.566 Y143.613 E892.0541
G1 X129.914 Y148.337 E893.64021
G1 X129.637 Y150.317 E894.30517
G1 X128.891 Y155.767 E896.13475
G1 X128.513 Y157.816 E896.82775
G1 X127.731 Y162.005 E898.24509
G1 X122.623 Y162.751 E899.96204
G1 X122.061 Y162.779 E900.14919
G1 X118.605 Y162.812 E901.29871
G1 X118.302 Y162.829 E901.39965
G1 X118.309 Y163.262 E901.54369
G1 X116.813 Y163.262 E902.04126
G1 X116.82 Y162.857 E902.17598
G0 F10500 X116.825 Y162.622
;TYPE:SKIN
G1 F2100 X116.554 Y162.61 E902.20198
G1 X112.508 Y162.414 E902.59025
G1 X110.437 Y162.222 E902.78962
G1 X109.442 Y162.086 E902.88588
G0 F10500 X109.425 Y162.115
G0 X111.945 Y162.358
G0 X114.165 Y162.519
G0 X117.49 Y162.655
G0 X118.099 Y162.61
G0 X118.262 Y162.599
G1 F2100 X118.562 Y162.582 E902.9334
G1 X122.357 Y162.464 E903.5339
G1 X124.882 Y162.202 E903.93539
G1 F2700 E898.93539
G0 F10500 X123.96 Y162.302
G0 X125.225 Y162.166
G0 X125.25 Y161.099
G0 X129.901 Y140.881
G0 X130.965 Y140.956
G0 X131.101 Y140.401
G1 F2700 E903.93539
G0 F10500 X131.002 Y140.809
G1 F2100 X131.046 Y140.482 E903.97834
G1 X131.376 Y139.02 E904.17343
G1 F2700 E899.17343
G0 F10500 X131.413 Y138.978
G0 X130.965 Y140.956
G0 X129.901 Y140.881
G0 X105.556 Y143.385
G0 X104.501 Y143.517
G0 X104.388 Y142.764
G1 F2700 E904.17343
G0 F10500 X104.365 Y142.837
G1 F2100 X104.413 Y143.073 E904.20768
G1 X104.041 Y141.465 E904.4424
G1 X103.83 Y139.979 E904.65585
G1 F2700 E899.65585
G0 F10500 X103.978 Y140.69
G0 X103.775 Y139.563
G0 X104.823 Y139.375
G0 X115.51 Y95.977
G0 X115.409 Y94.917
G0 X115.998 Y94.777
G1 F2700 E904.65585
G0 F10500 X115.573 Y94.86
G1 F2100 X115.888 Y94.828 E904.72559
G1 X116.84 Y94.725 E904.93652
G0 F10500 X116.892 Y94.956
G1 F2100 X117.37 Y94.478 E905.04894
G1 X117.407 Y94.441
G1 X117.676 Y94.172 E905.1122
G0 F10500 X117.488 Y94.077
G1 F2100 X117.482 Y93.8 E905.15922
G1 X117.786 Y94.628 E905.30889
G1 X118.141 Y94.838 E905.37887
G1 X119.145 Y94.965 E905.5506
G0 F10500 X119.173 Y94.943
G0 X117.363 Y94.742
G0 X117.352 Y94.779
G1 F2100 X117.281 Y94.85 E905.56729
G1 F2700 E900.56729
;MESH:NONMESH
G0 F300 X117.281 Y94.85 Z16.28
G0 F10500 X117.317 Y94.729
G0 X117.634 Y94.888
G0 X117.667 Y95.359
G0 X117.391 Y96.086
G0 X117.397 Y96.763
G0 X116.402 Y164.116
G0 X117.391 Y164.063
G0 X117.574 Y165.425
G1 F2700 E905.56729
G0 F10500 X117.74 Y165.36
;TIME_ELAPSED:187.639441
;LAYER:8
;TYPE:WALL-OUTER
;MESH:BoatHollow.stl
G1 F2100 X117.822 Y164.999 E905.69042
G1 X117.847 Y164.628 E905.8141
G1 X117.879 Y164.616 E905.82546
G1 X117.882 Y164.676 E905.84544
G1 X117.81 Y165.879 E906.24628
G1 X117.676 Y166.013 E906.30931
G1 X117.444 Y166.014 E906.38647
G1 X117.36 Y165.93 E906.42598
G1 X117.366 Y165.745 E906.48755
G1 X117.285 Y164.799 E906.80334
G1 X117.423 Y165.362 E906.99614
G1 X117.74 Y165.36 E907.10157
G0 F10500 X117.529 Y165.612
;TYPE:SKIN
G1 F2100 X117.643 Y165.726 E907.12839
G1 F2700 E902.12839
G0 F10500 X117.62 Y165.723
G0 X117.369 Y164.436
G0 X116.418 Y164.687
G0 X116.156 Y150.665
G0 X115.896 Y149.717
G0 X116.254 Y128.086
G0 X116.149 Y123.242
G0 X116.817 Y122.781
G0 X116.767 Y116.013
G0 X116.028 Y115.986
G0 X115.94 Y111.439
G0 X116.555 Y95.938
G0 X117.307 Y95.152
G0 X117.052 Y95.141
G0 X117.094 Y94.645
G0 X117.369 Y92.799
G1 F2700 E907.12839
G0 F10500 X117.252 Y92.785
;TYPE:WALL-OUTER
G1 F2100 X117.728 Y92.717 E907.28831
G1 X117.685 Y92.089 E907.49767
G1 X117.316 Y92.085 E907.62041
G1 X117.252 Y92.785 E907.8542
G0 F10500 X117.369 Y92.799
G0 X117.127 Y94.265
G0 X117.052 Y95.141
G0 X117.325 Y95.414
;TYPE:WALL-INNER
G1 F2100 X117.709 Y95.412 E907.98192
G1 X117.763 Y95.987 E908.17401
G1 X118.552 Y95.636 E908.46123
G1 X118.156 Y104.469 E911.40205
G1 X118.114 Y105.588 E911.77449
G1 X118.133 Y106.972 E912.23486
G1 X118.289 Y116.138 E915.28392
G1 X117.252 Y116.172 E915.62901
G1 X117.265 Y118.819 E916.50942
G1 X117.278 Y119.716 E916.80779
G1 X117.251 Y123.05 E917.91672
G1 X118.295 Y123.042 E918.26397
G1 X118.217 Y131.257 E920.99641
G1 X118.247 Y132.317 E921.34911
G1 X118.581 Y148.689 E926.79559
G1 X116.129 Y149.362 E927.64129
G1 X115.934 Y147.965 E928.11044
G1 X116.281 Y144.029 E929.42464
G1 X116.18 Y131.444 E933.61056
G1 X116.036 Y126.895 E935.12432
G1 X115.991 Y125.411 E935.61813
G1 X115.98 Y124.057 E936.06849
G1 X115.963 Y123.061 E936.39981
G1 X117.099 Y123.052 E936.77765
G1 X116.982 Y119.727 E937.39853
G1 X116.95 Y118.831 E937.62712
G1 X116.856 Y116.186 E938.41142
G1 X115.849 Y116.164 E938.74643
G1 X115.769 Y111.431 E940.32086
G1 X116.313 Y97.18 E945.06421
G1 X116.377 Y95.578 E945.59747
G1 X116.683 Y95.794 E945.72204
G1 X117.322 Y95.479 E945.959
G1 X117.325 Y95.414 E945.98064
G0 F10500 X117.093 Y94.445
G0 X116.982 Y94.432
;TYPE:WALL-OUTER
G1 F2100 X116.074 Y94.567 E946.28596
G1 X116.011 Y94.83 E946.37591
G1 X116.719 Y95.33 E946.66419
G1 X116.932 Y95.225 E946.74318
G1 X116.954 Y94.695 E946.91961
G1 X116.982 Y94.432 E947.00758
G0 F10500 X117.532 Y93.923
;TYPE:WALL-INNER
G1 F2100 X117.443 Y93.937 E947.03754
G1 X117.488 Y93.538 E947.13387
G1 X117.532 Y93.923 E947.14644
G0 F10500 X117.127 Y94.265
G0 X117.052 Y95.141
G0 X117.882 Y95.21
G0 X117.882 Y95.011
;TYPE:WALL-OUTER
G1 F2100 X117.756 Y94.372 E947.36306
G1 X117.523 Y94.329 E947.44187
G1 X117.249 Y94.378 E947.53444
G1 X117.191 Y95.014 E947.74686
G1 X117.882 Y95.011 E947.97669
G0 F10500 X118.42 Y95.738
G0 X118.394 Y106.967
G0 X118.463 Y110.429
G0 X121.162 Y110.383
G0 X121.544 Y116.145
G0 X122.097 Y112.005
;TYPE:WALL-INNER
G1 F2100 X122.094 Y112.746 E948.22315
G1 X121.727 Y116.403 E949.44558
G1 X121.481 Y118.864 E950.26819
G1 X121.365 Y121.706 E951.21423
G1 X121.321 Y122.765 E951.56676
G1 X121.309 Y123.53 E951.82123
G1 X121.297 Y124.253 E952.06173
G1 X121.229 Y128.326 E953.41661
G1 X121.169 Y124.251 E953.63431
G1 X121.114 Y123.527 E953.73255
G1 X121.153 Y122.757 E953.84966
G1 X121.207 Y121.7 E953.99327
G1 X121.272 Y118.86 E954.42744
G1 X121.329 Y116.387 E955.05441
G1 X121.431 Y111.979 E956.52091
G1 X121.437 Y111.979 E956.5229
G1 X121.437 Y111.716 E956.61038
G1 X121.447 Y111.275 E956.75709
G1 X121.437 Y111.275 E956.76042
G1 X121.427 Y103.904 E959.21202
G1 X121.418 Y96.813 E961.5705
G1 X121.417 Y96.193 E961.77671
G1 X121.606 Y96.244 E961.84182
G1 X121.515 Y96.812 E961.90577
G1 X121.826 Y103.896 E963.37178
G1 X122.103 Y110.199 E965.47019
G1 X122.099 Y110.938 E965.71599
G1 X122.097 Y112.005 E966.07087
G1 F2700 E961.07087
G0 F10500 X123.862 Y111.676
;TYPE:WALL-OUTER
G1 F2700 E966.07087
G1 F2100 X123.879 Y110.592 E966.43146
G1 X122.502 Y110.614 E966.88951
G1 X122.498 Y111.621 E967.22444
G1 X123.862 Y111.676 E967.67848
G1 F2700 E962.67848
G0 F10500 X121.927 Y111.889
G0 X121.923 Y112.737
G0 X121.544 Y116.145
G0 X121.595 Y112.452
G0 X121.037 Y111.562
G1 F2700 E967.67848
G1 F2100 X121.036 Y110.638 E967.9858
G1 X118.597 Y110.678 E968.79712
G1 X118.612 Y111.554 E969.08853
G1 X119.63 Y111.505 E969.42751
G1 X121.037 Y111.562 E969.89586
G0 F10500 X121.472 Y111.882
G1 F2700 E964.89586
G0 F10500 X118.482 Y111.388
G0 X118.473 Y110.908
G0 X118.595 Y110.598
G1 F2700 E969.89586
G1 F2100 X121.035 Y110.558 E970.70752
G1 X121.016 Y95.671 E975.65896
G1 X122.058 Y95.951 E976.01782
G1 X121.916 Y96.835 E976.31561
G1 X122.503 Y110.181 E980.7588
G1 X122.501 Y110.532 E980.87554
G1 X123.88 Y110.51 E981.33426
G1 X123.931 Y107.167 E982.44627
G1 X123.566 Y96.649 E985.94668
G1 X123.538 Y96.204 E986.09498
G1 X121.687 Y95.006 E986.82832
G1 X121.421 Y94.881 E986.92607
G1 X121.073 Y94.707 E987.05548
G1 X119.457 Y94.539 E987.59586
G1 X117.986 Y94.398 E988.08736
G1 X118.022 Y94.704 E988.18984
G1 X118.062 Y94.896 E988.25507
G1 X118.109 Y95.395 E988.42177
G1 X118.981 Y95.007 E988.73922
G1 X118.556 Y104.486 E991.89511
G1 X118.514 Y105.593 E992.26357
G1 X118.533 Y106.966 E992.72027
G1 X118.595 Y110.598 E993.92846
G0 F10500 X118.16 Y110.915
G1 F2700 E988.92846
G0 F10500 X118.103 Y115.962
G0 X117.068 Y116.008
G0 X116.028 Y115.986
G0 X115.546 Y112.001
G0 X111.014 Y111.933
G1 F2700 E993.92846
G1 F2100 X112.07 Y111.948 E994.27972
G1 X112.981 Y111.89 E994.58333
G1 X113.035 Y110.77 E994.95628
G1 X111.024 Y110.802 E995.62522
G1 X111.014 Y111.933 E996.00141
G0 F10500 X110.475 Y111.927
G1 F2100 X110.501 Y110.812 E996.37236
G1 X109.68 Y110.825 E996.64546
G1 X108.764 Y110.763 E996.95082
G1 X108.778 Y111.903 E997.33002
G1 X110.475 Y111.927 E997.8945
G0 F10500 X110.623 Y110.982
G0 X108.633 Y110.5
G0 X108.32 Y106.946
;TYPE:WALL-INNER
G1 F2100 X108.293 Y105.689 E998.31267
G1 X108.28 Y105.089 E998.51228
G1 X108.257 Y104.041 E998.86093
G1 X108.24 Y101.818 E999.60033
G1 X107.921 Y101.771 E999.70757
G1 X108.002 Y101.511 E999.75939
G1 X108.207 Y101.144 E999.89921
G1 X108.514 Y100.594 E1000.10871
G1 X108.579 Y101.22 E1000.2182
G1 X108.838 Y103.701 E1001.04787
G1 X108.314 Y103.849 E1001.22897
G1 X108.33 Y105.087 E1001.40172
G1 X108.305 Y105.688 E1001.41819
G1 X108.32 Y106.946 E1001.42464
G1 F2700 E996.42464
G0 F10500 X108.633 Y110.5
G0 X110.502 Y110.734
;TYPE:WALL-OUTER
G1 F2700 E1001.42464
G1 F2100 X110.534 Y109.391 E1001.87145
G1 X110.348 Y100.919 E1004.68993
G1 X110.386 Y97.73 E1005.75067
G1 X110.097 Y97.643 E1005.85105
G1 X108.816 Y99.635 E1006.63877
G1 X109.271 Y103.995 E1008.09678
G1 X108.718 Y104.151 E1008.28789
G1 X108.73 Y105.104 E1008.60488
G1 X108.705 Y105.694 E1008.8013
G1 X108.764 Y110.681 E1010.46009
G1 X109.676 Y110.748 E1010.76424
G1 X110.502 Y110.734 E1011.03901
G1 F2700 E1006.03901
G0 F10500 X113.676 Y110.68
G1 F2700 E1011.03901
G1 F2100 X115.398 Y110.652 E1011.61183
G1 X115.913 Y97.165 E1016.10089
G1 X116.018 Y94.576 E1016.9627
G1 X114.685 Y94.774 E1017.41093
G1 X113.993 Y94.841 E1017.64216
G1 X113.421 Y95.012 E1017.84073
G1 X113.02 Y95.212 E1017.98977
G1 X110.628 Y96.818 E1018.94804
G1 X110.233 Y97.432 E1019.19087
G1 X110.417 Y97.657 E1019.28754
G1 X110.794 Y97.511 E1019.422
G1 X111.048 Y108.218 E1022.98417
G1 X111.053 Y109.385 E1023.37232
G1 X111.025 Y110.725 E1023.8181
G1 X113.039 Y110.692 E1024.48805
G1 X113.301 Y105.25 E1026.30016
G1 X112.996 Y97.094 E1029.01475
G1 X113.004 Y96.164 E1029.32409
G1 X113.687 Y95.997 E1029.55794
G1 X113.811 Y104.267 E1032.30887
G1 X113.812 Y105.248 E1032.63515
G1 X113.786 Y106.352 E1033.00244
G1 X113.676 Y110.68 E1034.44241
G0 F10500 X113.541 Y110.934
G0 X113.527 Y111.607
G0 X113.647 Y111.847
G1 F2100 X115.374 Y111.737 E1035.01797
G1 X115.369 Y111.416 E1035.12475
G1 X115.395 Y110.731 E1035.35275
G1 X113.674 Y110.759 E1035.92523
G1 X113.647 Y111.847 E1036.28721
G0 F10500 X113.512 Y112.106
G0 X113.41 Y115.78
G0 X113.513 Y138.373
;TYPE:WALL-INNER
G1 F2100 X113.582 Y142.293 E1037.59121
G1 X113.595 Y143.006 E1037.82839
G1 X113.562 Y143.933 E1038.13691
G1 X113.569 Y146.333 E1038.93516
G1 X113.588 Y152.862 E1041.10672
G1 X113.171 Y146.346 E1042.19305
G1 X113.094 Y145.154 E1042.59034
G1 X113.202 Y142.3 E1043.54026
G1 X113.342 Y142.265 E1043.58826
G1 X113.276 Y138.378 E1044.3605
G1 X112.926 Y117.764 E1051.21773
G1 X112.956 Y116.635 E1051.59337
G1 X112.978 Y115.841 E1051.85756
G1 X113.176 Y114.615 E1052.27061
G1 X113.146 Y115.845 E1052.35598
G1 X113.125 Y116.639 E1052.46764
G1 X113.145 Y117.76 E1052.64827
G1 X113.513 Y138.373 E1056.56655
G0 F10500 X113.919 Y138.717
;TYPE:WALL-OUTER
G1 F2100 X115.292 Y138.689 E1057.02331
G1 X115.839 Y138.672 E1057.20533
G1 X115.78 Y131.453 E1059.60646
G1 X115.767 Y131.088 E1059.72794
G1 X115.628 Y126.639 E1061.2084
G1 X114.733 Y126.636 E1061.50608
G1 X113.703 Y126.572 E1061.84932
G1 X113.919 Y138.717 E1065.8894
G0 F10500 X113.483 Y139.035
G1 F2700 E1060.8894
G0 F10500 X113.58 Y126.737
G0 X115.625 Y126.515
G1 F2700 E1065.8894
G1 F2100 X115.591 Y125.423 E1066.25278
G1 X115.58 Y124.062 E1066.70547
G1 X115.556 Y122.664 E1067.17051
G1 X116.685 Y122.655 E1067.54603
G1 X116.47 Y116.578 E1069.56851
G1 X115.455 Y116.556 E1069.90618
G1 X115.375 Y111.811 E1071.4846
G1 X113.645 Y111.926 E1072.06127
G1 X113.525 Y116.64 E1073.62966
G1 X113.703 Y126.535 E1076.92128
G1 X114.967 Y126.548 E1077.34171
G1 X115.625 Y126.515 E1077.56084
G0 F10500 X116.073 Y126.81
G1 F2700 E1072.56084
G0 F10500 X116.149 Y123.242
G0 X118.111 Y123.226
G0 X118.092 Y126.325
G0 X120.802 Y126.484
G1 F2700 E1077.56084
G1 F2100 X120.769 Y124.269 E1078.29764
G1 X120.713 Y123.538 E1078.54148
G1 X120.807 Y121.685 E1079.15858
G1 X121.038 Y111.658 E1082.49446
G1 X119.633 Y111.6 E1082.96216
G1 X118.613 Y111.648 E1083.30179
G1 X118.696 Y116.525 E1084.92412
G1 X117.654 Y116.559 E1085.27088
G1 X117.665 Y118.815 E1086.02124
G1 X117.678 Y119.719 E1086.32194
G1 X117.654 Y122.647 E1087.29583
G1 X118.384 Y122.641 E1087.53864
G1 X118.699 Y122.651 E1087.64346
G1 X118.663 Y126.466 E1088.91239
G1 X119.897 Y126.459 E1089.32283
G1 X120.802 Y126.484 E1089.62394
G0 F10500 X121.246 Y126.796
G1 F2700 E1084.62394
G0 F10500 X121.33 Y138.547
G0 X122.1 Y138.736
G1 F2700 E1089.62394
G1 F2100 X122.016 Y135.029 E1090.85721
G1 X122.032 Y132.515 E1091.69339
G1 X122.107 Y129.138 E1092.81686
G1 X122.095 Y126.55 E1093.67764
G1 X121.659 Y126.55 E1093.82266
G1 X121.455 Y138.723 E1097.87198
G1 X122.1 Y138.736 E1098.08655
G0 F10500 X121.18 Y138.678
G0 X120.98 Y138.678
G1 F2100 X120.98 Y138.424 E1098.17104
G1 X120.803 Y126.553 E1102.11978
G1 X118.662 Y126.557 E1102.83189
G1 X118.617 Y131.253 E1104.39385
G1 X118.647 Y132.309 E1104.74522
G1 X118.775 Y138.596 E1106.83672
G1 X118.986 Y138.596 E1106.9069
G1 X120.592 Y138.636 E1107.44122
G1 X120.98 Y138.678 E1107.57103
G1 F2700 E1102.57103
G0 F10500 X121.18 Y138.678
G0 X120.935 Y126.725
G0 X118.533 Y126.729
G0 X118.111 Y123.226
G0 X116.149 Y123.242
G0 X115.759 Y126.81
G0 X113.58 Y126.737
G0 X113.096 Y112.135
G0 X108.654 Y112.156
G0 X108.312 Y125.293
;TYPE:WALL-INNER
G1 F2700 E1107.57103
G1 F2100 X108.448 Y121.36 E1108.87993
G1 X108.479 Y120.475 E1109.17446
G1 X108.484 Y120.86 E1109.30252
G1 X108.472 Y121.36
G1 X108.312 Y125.293 E1109.34206
G0 F10500 X108.654 Y112.156
G0 X110.597 Y112.183
G0 X110.553 Y125.771
G1 F2100 X110.583 Y124.477 E1109.77256
G1 X110.627 Y125.768 E1109.81195
G1 X110.733 Y128.785 E1110.81603
G1 X110.553 Y125.771 E1110.9093
G0 F10500 X110.616 Y128.104
G0 X110.909 Y142
G1 F2100 X110.865 Y153.249 E1114.65076
G1 X110.852 Y156.252 E1115.64958
G1 X110.738 Y156.25 E1115.6875
G1 X110.727 Y153.249 E1116.00247
G1 X110.909 Y142 E1116.64971
G1 F2700 E1111.64971
G0 F10500 X110.78 Y122.848
G0 X110.885 Y112.186
G0 X113.096 Y112.135
G0 X113.794 Y138.954
G0 X115.969 Y138.99
G0 X116.106 Y147.96
G0 X116.283 Y149.129
G0 X118.4 Y148.552
G0 X118.533 Y126.729
G0 X120.935 Y126.725
G0 X122.369 Y111.887
G0 X123.986 Y111.954
G0 X123.927 Y142.789
G1 F2700 E1116.64971
G1 F2100 X123.963 Y154.067 E1120.40081
G1 X123.97 Y155.944 E1121.02511
G1 X123.874 Y155.953 E1121.05717
G1 X123.855 Y154.068 E1121.21845
G1 X123.927 Y142.789 E1121.72631
G1 F2700 E1116.72631
G0 F10500 X123.986 Y111.954
G0 X122.369 Y111.887
G0 X121.741 Y118.879
G0 X120.935 Y126.725
G0 X118.533 Y126.729
G0 X118.4 Y148.552
G0 X115.89 Y149.726
G0 X114.922 Y149.861
G0 X114.85 Y153.786
G0 X112.099 Y157.518
G0 X107.238 Y157.832
G0 X106.564 Y157.946
G0 X107.233 Y162.892
;TYPE:WALL-OUTER
G1 F2700 E1121.72631
G1 F2100 X108.458 Y163.041 E1122.13675
G1 X111.475 Y163.283 E1123.14343
G1 X112.395 Y163.381 E1123.45116
G1 X116.325 Y163.543 E1124.75939
G1 X117.482 Y163.318 E1125.15142
G1 X118.599 Y163.595 E1125.53419
G1 X122.716 Y163.203 E1126.9097
G1 X125.981 Y162.711 E1128.0079
G1 X127.819 Y162.796 E1128.61988
G1 X127.985 Y162.318 E1128.78818
G1 X128.189 Y161.372 E1129.11005
G1 X128.977 Y156.892 E1130.62298
G1 X129.248 Y155.045 E1131.24387
G1 X130.151 Y148.716 E1133.37022
G1 X131.098 Y142.109 E1135.59018
G1 X131.322 Y139.266 E1136.53869
G1 X131.566 Y138.689 E1136.74706
G1 X131.833 Y138.191 E1136.935
G1 X132.008 Y134.886 E1138.03579
G1 X131.911 Y133.334 E1138.55299
G1 X131.839 Y127.084 E1140.63189
G1 X131.689 Y124.851 E1141.37626
G1 X131.332 Y118.475 E1143.50025
G1 X131.088 Y117.027 E1143.98864
G1 X129.67 Y109.372 E1146.57802
G1 X129.311 Y107.984 E1147.05486
G1 X127.297 Y101.384 E1149.34996
G1 X127.205 Y101.224 E1149.41135
G1 X124.471 Y96.809 E1151.13854
G1 X124.195 Y96.629 E1151.24813
G1 X123.983 Y96.75 E1151.32932
G1 X124.385 Y106.295 E1154.50681
G1 X124.443 Y107.19 E1154.80512
G1 X124.423 Y107.93 E1155.05133
G1 X124.446 Y110.5 E1155.90615
G1 X129.3 Y110.436 E1157.52074
G1 X129.301 Y110.52 E1157.54868
G1 X124.447 Y110.582 E1159.16326
G1 X124.457 Y111.7 E1159.53512
G1 X126.313 Y111.775 E1160.15293
G1 X129.306 Y111.857 E1161.14878
G1 X129.304 Y111.935 E1161.17473
G1 X124.458 Y111.801 E1162.78714
G1 X124.504 Y116.868 E1164.4725
G1 X124.504 Y117.501 E1164.68303
G1 X124.302 Y136.022 E1170.84351
G1 X124.306 Y136.297 E1170.93498
G1 X124.371 Y156.307 E1177.59037
G1 X123.478 Y156.393 E1177.88876
G1 X123.455 Y154.065 E1178.66309
G1 X123.568 Y136.384 E1184.54394
G1 X123.572 Y135.225 E1184.92943
G1 X123.769 Y117.169 E1190.93523
G1 X123.791 Y116.337 E1191.21205
G1 X123.861 Y111.776 E1192.72923
G1 X122.498 Y111.72 E1193.18295
G1 X122.494 Y112.767 E1193.53118
G1 X121.88 Y118.892 E1195.57858
G1 X121.721 Y122.776 E1196.87148
G1 X121.66 Y126.507 E1198.11258
G1 X122.121 Y126.521 E1198.26598
G1 X122.239 Y130.054 E1199.44172
G1 X122.247 Y132.507 E1200.25759
G1 X122.121 Y136.386 E1201.54843
G1 X122.115 Y138.774 E1202.34269
G1 X121.453 Y138.83 E1202.56366
G1 X121.427 Y140.216 E1203.02472
G1 X121.336 Y149.688 E1206.17527
G1 X120.817 Y149.82 E1206.35339
G1 X120.827 Y149.325 E1206.51806
G1 X120.974 Y138.848 E1210.00306
G1 X120.647 Y138.856 E1210.11186
G1 X118.78 Y138.807 E1210.73304
G1 X118.987 Y148.993 E1214.12161
G1 X115.796 Y149.868 E1215.22212
G1 X115.532 Y147.976 E1215.8575
G1 X115.881 Y144.013 E1217.1807
G1 X115.839 Y138.816 E1218.90929
G1 X114.489 Y138.801 E1219.35833
G1 X113.919 Y138.785 E1219.54798
G1 X113.995 Y143.02 E1220.95678
G1 X113.962 Y143.94 E1221.26297
G1 X113.989 Y153.367 E1224.39841
G1 X113.256 Y153.94 E1224.70786
G1 X112.693 Y145.155 E1227.63576
G1 X112.813 Y141.985 E1228.69086
G1 X112.937 Y141.954 E1228.73337
G1 X112.526 Y117.753 E1236.78382
G1 X112.579 Y115.803 E1237.43263
G1 X112.882 Y113.931 E1238.06336
G1 X112.977 Y111.97 E1238.71636
G1 X112.066 Y112.03 E1239.02002
G1 X111.014 Y112.015 E1239.36995
G1 X110.919 Y122.842 E1242.97116
G1 X110.948 Y123.443 E1243.17129
G1 X111.333 Y134.523 E1246.85873
G1 X111.337 Y135.154 E1247.06861
G1 X111.25 Y156.656 E1254.22026
G1 X110.34 Y156.646 E1254.52295
G1 X110.327 Y153.243 E1255.6548
G1 X110.639 Y134.01 E1262.05256
G1 X110.625 Y133.679 E1262.16275
G1 X110.153 Y125.774 E1264.79665
G1 X110.474 Y112.009 E1269.37615
G1 X108.78 Y111.985 E1269.93963
G1 X108.884 Y120.869 E1272.89467
G1 X108.872 Y121.376 E1273.06334
G1 X108.105 Y140.17 E1279.31946
G1 X108.115 Y140.617 E1279.46817
G1 X108.201 Y145.28 E1281.01935
G1 X108.528 Y150.801 E1282.85886
G1 X107.741 Y149.804 E1283.28133
G1 X107.526 Y136.693 E1287.64265
G1 X107.544 Y135.839 E1287.92675
G1 X108.157 Y118.239 E1293.78409
G1 X108.145 Y117.422 E1294.05585
G1 X108.028 Y111.976 E1295.86762
G1 X105.595 Y111.943 E1296.67691
G1 X105.596 Y111.862 E1296.70385
G1 X108.025 Y111.894 E1297.51181
G1 X108 Y110.71 E1297.9057
G1 X106.829 Y110.63 E1298.29608
G1 X105.57 Y110.537 E1298.71597
G1 X105.577 Y110.447 E1298.74599
G1 X107.999 Y110.624 E1299.5537
G1 X107.857 Y104.05 E1301.74073
G1 X107.843 Y102.164 E1302.36804
G1 X107.503 Y102.114 E1302.48234
G1 X105.877 Y107.436 E1304.33321
G1 X105.348 Y109.182 E1304.94
G1 X104.437 Y115.542 E1307.07694
G1 X104.075 Y118.448 E1308.05095
G1 X103.348 Y127.076 E1310.9308
G1 X103.087 Y132.733 E1312.81433
G1 X103.186 Y134.952 E1313.55311
G1 X103.984 Y140.573 E1315.44141
G1 X104.126 Y142.131 E1315.96175
G1 X104.165 Y142.507 E1316.08748
G1 X104.861 Y148.523 E1318.10175
G1 X105.331 Y151.312 E1319.04246
G1 X106.142 Y156.408 E1320.75872
G1 X106.386 Y157.977 E1321.28685
G1 X107.233 Y162.892 E1322.94568
G1 F2700 E1317.94568
G0 F10500 X111.117 Y163.067
G0 X111.48 Y163.396
G0 X112.173 Y163.488
G0 X113.352 Y163.542
G0 X117.617 Y163.689
G1 F2700 E1322.94568
G0 F10500 X117.607 Y163.89
G1 F2100 X113.28 Y163.677 E1324.38659
G1 X112.36 Y163.617 E1324.69323
G1 X108.111 Y163.044 E1326.11925
G1 X107.227 Y162.931 E1326.41566
G1 X106.031 Y156.466 E1328.60241
G1 X104.861 Y149.231 E1331.04004
G1 X104.747 Y148.562 E1331.26576
G1 X104.53 Y146.674 E1331.89785
G1 X103.689 Y142.972 E1333.16051
G1 X103.584 Y142.46 E1333.33435
G1 X103.573 Y142.325 E1333.3794
G1 X103.303 Y139.599 E1334.2905
G1 X102.934 Y135.497 E1335.66034
G1 X102.869 Y134.988 E1335.83101
G1 X102.86 Y134.646 E1335.9448
G1 X103.188 Y127.074 E1338.46562
G1 X103.358 Y125.078 E1339.1319
G1 X103.953 Y118.432 E1341.35121
G1 X104.387 Y114.991 E1342.50475
G1 X105.241 Y109.132 E1344.47406
G1 X105.932 Y106.827 E1345.27441
G1 X107.632 Y101.354 E1347.18053
G1 X108.175 Y100.381 E1347.55114
G1 X110.589 Y96.699 E1349.01551
G1 X111.2 Y96.301 E1349.25804
G1 X113.913 Y94.507 E1350.33983
G1 X114.307 Y94.44 E1350.47275
G1 X117.041 Y93.928 E1351.39789
G1 X117.26 Y92.007 E1352.04096
G1 X117.716 Y92.007 E1352.19263
G1 X117.932 Y93.905 E1352.82798
G1 X120.783 Y94.443 E1353.79296
G1 X121.089 Y94.515 E1353.89752
G1 X123.9 Y96.315 E1355.00771
G1 X124.503 Y96.704 E1355.24638
G1 X127.054 Y100.736 E1356.8333
G1 X127.386 Y101.299 E1357.05069
G1 X129.271 Y107.405 E1359.17613
G1 X129.785 Y109.304 E1359.83046
G1 X131.145 Y116.524 E1362.27408
G1 X131.473 Y118.442 E1362.92127
G1 X131.746 Y124.218 E1364.84452
G1 X131.934 Y127.078 E1365.79781
G1 X131.94 Y132.428 E1367.57723
G1 X132.088 Y134.92 E1368.40753
G1 X131.787 Y140.423 E1370.24057
G1 X131.217 Y142.109 E1370.83252
G1 X131.173 Y142.257 E1370.88387
G1 X129.726 Y152.545 E1374.33935
G1 X129.152 Y156.484 E1375.66331
G1 X128.905 Y157.889 E1376.13778
G1 X127.936 Y162.954 E1377.85296
G1 X127.413 Y163.034 E1378.02893
G1 X123.501 Y163.692 E1379.34834
G1 X123.147 Y163.714 E1379.46631
G1 X122.901 Y163.754 E1379.54921
G1 X122.458 Y163.796 E1379.69721
G1 X117.607 Y163.89 E1381.31096
G1 F2700 E1376.31096
G0 F10500 X117.617 Y163.689
G0 X116.894 Y163.559
G0 X116.955 Y162.652
G0 X117.135 Y161.991
G0 X116.148 Y150.667
G0 X115.89 Y149.726
G0 X116.526 Y149.138
G1 F2700 E1381.31096
G0 F10500 X116.454 Y148.869
;TYPE:SKIN
G1 F2100 X116.326 Y147.954 E1381.61826
G1 X116.671 Y144.045 E1382.92345
G1 X116.57 Y131.436 E1387.11735
G1 X116.426 Y126.883 E1388.63244
G1 X116.381 Y125.399 E1389.12625
G1 X116.37 Y124.052 E1389.57428
G1 X116.359 Y123.447 E1389.77554
G1 X117.901 Y123.435 E1390.28842
G1 X117.827 Y131.261 E1392.89148
G1 X117.857 Y132.325 E1393.24551
G1 X118.185 Y148.393 E1398.59086
G1 X116.454 Y148.869 E1399.18796
G0 F10500 X116.9 Y148.578
G1 F2100 X116.522 Y148.2 E1399.36576
G0 F10500 X116.514 Y147.627
G1 F2100 X117.344 Y148.457 E1399.75617
G0 F10500 X117.787 Y148.334
G1 F2100 X116.56 Y147.107 E1400.33331
G0 F10500 X116.606 Y146.588
G1 F2100 X118.018 Y147.999 E1400.99724
G0 F10500 X118.006 Y147.421
G1 F2100 X116.652 Y146.068 E1401.63388
G0 F10500 X116.698 Y145.548
G1 F2100 X117.994 Y146.844 E1402.24348
G0 F10500 X117.982 Y146.267
G1 F2100 X116.744 Y145.028 E1402.82603
G0 F10500 X116.789 Y144.508
G1 F2100 X117.97 Y145.689 E1403.38154
G0 F10500 X117.958 Y145.111
G1 F2100 X116.83 Y143.983 E1403.91212
G0 F10500 X116.825 Y143.412
G1 F2100 X117.946 Y144.534 E1404.43964
G0 F10500 X117.935 Y143.957
G1 F2100 X116.821 Y142.842 E1404.96386
G0 F10500 X116.816 Y142.272
G1 F2100 X117.923 Y143.379 E1405.48456
G0 F10500 X117.911 Y142.801
G1 F2100 X116.811 Y141.702 E1406.00173
G0 F10500 X116.807 Y141.132
G1 F2100 X117.9 Y142.224 E1406.51561
G0 F10500 X117.888 Y141.646
G1 F2100 X116.802 Y140.561 E1407.0262
G0 F10500 X116.798 Y139.991
G1 F2100 X117.876 Y141.069 E1407.53326
G0 F10500 X117.864 Y140.492
G1 F2100 X116.793 Y139.42 E1408.03726
G0 F10500 X116.789 Y138.851
G1 F2100 X117.852 Y139.914 E1408.53726
G0 F10500 X117.84 Y139.336
G1 F2100 X116.785 Y138.281 E1409.0335
G0 F10500 X116.78 Y137.71
G1 F2100 X117.828 Y138.759 E1409.52668
G0 F10500 X117.817 Y138.182
G1 F2100 X116.775 Y137.14 E1410.01681
G0 F10500 X116.77 Y136.569
G1 F2100 X117.805 Y137.604 E1410.50364
G0 F10500 X117.793 Y137.026
G1 F2100 X116.766 Y135.999 E1410.98671
G0 F10500 X116.762 Y135.43
G1 F2100 X117.782 Y136.449 E1411.46625
G0 F10500 X117.77 Y135.871
G1 F2100 X116.757 Y134.859 E1411.9425
G0 F10500 X116.753 Y134.289
G1 F2100 X117.758 Y135.294 E1412.41522
G0 F10500 X117.746 Y134.717
G1 F2100 X116.748 Y133.718 E1412.88488
G0 F10500 X116.744 Y133.148
G1 F2100 X117.734 Y134.139 E1413.35078
G0 F10500 X117.722 Y133.561
G1 F2100 X116.739 Y132.578 E1413.81316
G0 F10500 X116.734 Y132.008
G1 F2100 X117.71 Y132.984 E1414.27224
G0 F10500 X117.699 Y132.407
G1 F2100 X116.73 Y131.438 E1414.72803
G0 F10500 X116.712 Y130.854
G1 F2100 X117.683 Y131.825 E1415.18475
G0 F10500 X117.668 Y131.244
G1 F2100 X116.693 Y130.27 E1415.64313
G0 F10500 X116.674 Y129.685
G1 F2100 X117.673 Y130.683 E1416.11279
G0 F10500 X117.678 Y130.123
G1 F2100 X116.656 Y129.101 E1416.59351
G0 F10500 X116.637 Y128.517
G1 F2100 X117.683 Y129.563 E1417.08552
G0 F10500 X117.688 Y129.002
G1 F2100 X116.619 Y127.933 E1417.58834
G0 F10500 X116.601 Y127.349
G1 F2100 X117.694 Y128.442 E1418.10246
G0 F10500 X117.699 Y127.881
G1 F2100 X116.582 Y126.765 E1418.62762
G0 F10500 X116.565 Y126.181
G1 F2100 X117.704 Y127.32 E1419.16337
G0 F10500 X117.709 Y126.76
G1 F2100 X116.546 Y125.597 E1419.71041
G0 F10500 X116.537 Y125.022
G1 F2100 X117.714 Y126.2 E1420.26427
G0 F10500 X117.72 Y125.64
G1 F2100 X116.533 Y124.452 E1420.82284
G0 F10500 X116.527 Y123.881
G1 F2100 X117.725 Y125.079 E1421.38634
G0 F10500 X117.73 Y124.518
G1 F2100 X116.814 Y123.602 E1421.8172
G0 F10500 X117.376 Y123.599
G1 F2100 X117.736 Y123.958 E1421.9863
G0 F10500 X118.176 Y123.962
G0 X118.05 Y122.781
G0 X117.525 Y122.776
G0 X117.526 Y116.435
G0 X117.89 Y116.417
G0 X118.171 Y115.756
G0 X117.893 Y115.76
G1 F2100 X116.861 Y115.794 E1422.32973
G1 X116.233 Y115.782 E1422.53864
G1 X116.159 Y111.446 E1423.98101
G1 X116.703 Y97.195 E1428.72436
G1 X116.743 Y96.199 E1429.0559
G1 X117.363 Y95.893 E1429.28586
G1 X117.426 Y96.564 E1429.51002
G1 X118.134 Y96.249 E1429.76775
G1 X117.766 Y104.453 E1432.49916
G1 X117.724 Y105.584 E1432.87559
G1 X117.743 Y106.978 E1433.33928
G1 X117.893 Y115.76 E1436.26061
G0 F10500 X118.171 Y115.756
G0 X116.753 Y116.073
G0 X116.763 Y115.631
G1 F2100 X116.383 Y115.252 E1436.43912
G0 F10500 X116.373 Y114.676
G1 F2100 X117.315 Y115.618 E1436.8822
G0 F10500 X117.728 Y115.465
G1 F2100 X116.363 Y114.1 E1437.52426
G0 F10500 X116.353 Y113.525
G1 F2100 X117.718 Y114.89 E1438.16631
G0 F10500 X117.708 Y114.314
G1 F2100 X116.343 Y112.949 E1438.80837
G0 F10500 X116.333 Y112.374
G1 F2100 X117.698 Y113.738 E1439.45019
G0 F10500 X117.688 Y113.163
G1 F2100 X116.324 Y111.798 E1440.09201
G0 F10500 X116.326 Y111.234
G1 F2100 X117.678 Y112.587 E1440.72818
G0 F10500 X117.668 Y112.012
G1 F2100 X116.347 Y110.69 E1441.34977
G0 F10500 X116.367 Y110.145
G1 F2100 X117.659 Y111.436 E1441.95726
G0 F10500 X117.649 Y110.861
G1 F2100 X116.389 Y109.6 E1442.55016
G0 F10500 X116.409 Y109.055
G1 F2100 X117.639 Y110.286 E1443.12895
G0 F10500 X117.63 Y109.71
G1 F2100 X116.43 Y108.51 E1443.69339
G0 F10500 X116.451 Y107.966
G1 F2100 X117.62 Y109.134 E1444.24302
G0 F10500 X117.61 Y108.559
G1 F2100 X116.471 Y107.42 E1444.77877
G0 F10500 X116.493 Y106.876
G1 F2100 X117.6 Y107.983 E1445.29946
G0 F10500 X117.59 Y107.408
G1 F2100 X116.513 Y106.331 E1445.80605
G0 F10500 X116.534 Y105.786
G1 F2100 X117.581 Y106.833 E1446.29853
G0 F10500 X117.573 Y106.259
G1 F2100 X116.555 Y105.241 E1446.77737
G0 F10500 X116.576 Y104.697
G1 F2100 X117.564 Y105.685 E1447.24209
G0 F10500 X117.58 Y105.135
G1 F2100 X116.596 Y104.151 E1447.70493
G0 F10500 X116.617 Y103.606
G1 F2100 X117.6 Y104.589 E1448.16731
G0 F10500 X117.623 Y104.047
G1 F2100 X116.638 Y103.062 E1448.63062
G0 F10500 X116.659 Y102.517
G1 F2100 X117.647 Y103.505 E1449.09535
G0 F10500 X117.671 Y102.963
G1 F2100 X116.68 Y101.972 E1449.56148
G0 F10500 X116.7 Y101.427
G1 F2100 X117.696 Y102.423 E1450.02997
G0 F10500 X117.72 Y101.881
G1 F2100 X116.722 Y100.882 E1450.49963
G0 F10500 X116.742 Y100.337
G1 F2100 X117.744 Y101.339 E1450.97094
G0 F10500 X117.768 Y100.798
G1 F2100 X116.763 Y99.792 E1451.4439
G0 F10500 X116.784 Y99.248
G1 F2100 X117.793 Y100.257 E1451.9185
G0 F10500 X117.817 Y99.715
G1 F2100 X116.804 Y98.702 E1452.39499
G0 F10500 X116.826 Y98.158
G1 F2100 X117.841 Y99.173 E1452.87241
G0 F10500 X117.866 Y98.632
G1 F2100 X116.846 Y97.613 E1453.35195
G0 F10500 X116.867 Y97.068
G1 F2100 X117.89 Y98.091 E1453.83314
G0 F10500 X117.914 Y97.549
G1 F2100 X116.888 Y96.524 E1454.3155
G0 F10500 X117.121 Y96.191
G1 F2100 X117.241 Y96.311 E1454.37195
G0 F10500 X117.594 Y96.664
G1 F2100 X117.938 Y97.007 E1454.53352
G0 F10500 X118.378 Y97.027
G0 X118.349 Y95.933
G0 X117.497 Y95.585
G0 X116.636 Y95.941
G0 X116.681 Y96.033
;TYPE:SKIN
G1 F2100 X116.558 Y95.911 E1454.56233
G0 F10500 X116.529 Y95.884
G0 X117.544 Y95.594
G0 X118.349 Y95.933
G0 X118.394 Y106.967
G0 X118.463 Y110.429
G0 X121.162 Y110.383
G0 X121.586 Y104.05
;TYPE:SKIN
G1 F2100 X121.675 Y104.139 E1454.60419
G0 F10500 X121.587 Y104.616
G1 F2100 X121.701 Y104.73 E1454.65782
G0 F10500 X121.587 Y105.182
G1 F2100 X121.727 Y105.322 E1454.72367
G0 F10500 X121.588 Y105.749
G1 F2100 X121.753 Y105.914 E1454.80128
G0 F10500 X121.589 Y106.315
G1 F2100 X121.779 Y106.505 E1454.89065
G0 F10500 X121.589 Y106.882
G1 F2100 X121.805 Y107.097 E1454.99201
G0 F10500 X121.59 Y107.448
G1 F2100 X121.831 Y107.689 E1455.10537
G0 F10500 X121.591 Y108.014
G1 F2100 X121.857 Y108.281 E1455.23073
G0 F10500 X121.592 Y108.581
G1 F2100 X121.883 Y108.873 E1455.36784
G0 F10500 X121.593 Y109.148
G1 F2100 X121.91 Y109.465 E1455.51695
G0 F10500 X121.594 Y109.714
G1 F2100 X121.936 Y110.056 E1455.67781
G0 F10500 X121.594 Y110.281
G1 F2100 X121.94 Y110.626 E1455.84033
G0 F10500 X121.595 Y110.847
G1 F2100 X121.938 Y111.19 E1456.00166
G0 F10500 X121.602 Y111.42
G1 F2100 X121.937 Y111.754 E1456.159
G0 F10500 X121.596 Y111.979
G1 F2100 X121.935 Y112.318 E1456.31846
G0 F10500 X121.577 Y112.526
G1 F2100 X121.92 Y112.869 E1456.47979
G0 F10500 X121.565 Y113.079
G1 F2100 X121.869 Y113.383 E1456.62279
G0 F10500 X121.551 Y113.632
G1 F2100 X121.817 Y113.897 E1456.74767
G0 F10500 X121.538 Y114.185
G1 F2100 X121.765 Y114.411 E1456.85421
G0 F10500 X121.526 Y114.737
G1 F2100 X121.714 Y114.926 E1456.94287
G0 F10500 X121.513 Y115.29
G1 F2100 X121.663 Y115.44 E1457.01343
G0 F10500 X121.5 Y115.843
G1 F2100 X121.611 Y115.954 E1457.06564
G0 F10500 X121.66 Y115.959
G0 X122.369 Y111.887
G0 X123.986 Y111.954
G0 X123.995 Y116.049
G0 X124.146 Y116.226
;TYPE:SKIN
G1 F2100 X124.147 Y115.945 E1457.10839
G1 X124.166 Y109.458 E1458.09535
G1 X124.174 Y106.921 E1458.48134
G1 X123.928 Y100.735 E1459.42324
G1 X123.884 Y98.993 E1459.68836
G0 F10500 X123.866 Y98.975
G0 X123.803 Y96.65
G1 F2100 X123.737 Y96.584 E1459.70388
G1 F2700 E1454.70388
G0 F10500 X123.763 Y96.583
G0 X124.071 Y107.161
G0 X124.012 Y110.335
G0 X122.383 Y110.364
G0 X121.14 Y95.832
G0 X121.162 Y110.383
G0 X118.463 Y110.429
G0 X118.375 Y105.595
G0 X118.851 Y95.197
G0 X118.001 Y95.578
G0 X117.052 Y95.141
G0 X117.127 Y94.265
G0 X118.545 Y94.224
G1 F2700 E1459.70388
G0 F10500 X118.532 Y94.207
G1 F2100 X118.231 Y94.189 E1459.72966
G1 X117.603 Y94.127 E1459.78362
G1 X115.869 Y94.373 E1459.93335
G1 X115.627 Y94.414 E1459.95434
G0 F10500 X115.595 Y94.403
G0 X117.122 Y94.285
G0 X117.062 Y95.309
G0 X116.744 Y95.468
G0 X116.189 Y95.235
G0 X116.164 Y95.234
G1 F2100 X116.344 Y95.414 E1459.99667
G0 F10500 X116.708 Y95.486
G0 X117.062 Y95.309
G0 X117.143 Y94.137
G0 X117.419 Y93.377
G0 X117.356 Y93.314
G1 F2100 X117.508 Y93.183 E1460.06935
G1 X117.594 Y92.987 E1460.14687
G1 F2700 E1455.14687
G0 F10500 X117.53 Y92.923
G0 X117.122 Y94.285
G0 X117.062 Y95.309
G0 X116.708 Y95.486
G0 X116.052 Y97.17
G0 X115.533 Y110.477
G0 X113.554 Y110.511
G0 X113.491 Y96.26
G1 F2700 E1460.14687
G0 F10500 X113.497 Y96.244
G1 F2100 X113.386 Y96.416 E1460.19272
G1 X113.357 Y97.518 E1460.43961
G1 X113.525 Y103.908 E1461.8712
G1 X113.533 Y105.896 E1462.31643
G1 X113.304 Y112.172 E1463.72293
G1 X113.233 Y114.082 E1464.15099
G1 X113.003 Y114.417 E1464.242
G0 F10500 X113.024 Y114.438
G0 X113.096 Y112.135
G0 X110.885 Y112.186
G0 X110.793 Y114.494
G0 X110.706 Y114.383
G1 F2100 X110.71 Y114.105 E1464.28413
G1 X110.79 Y109.376 E1465.00096
